;FLAVOR:RepRap
;TIME:8792
;Filament used: 4.26033m
;Layer height: 0.1
;Generated with Cura_SteamEngine 3.0.3
T0
M190 S60
M104 S200
M109 S200
M82 ; absolute extrusion mode
G21 ;metric values
G90 ;absolute positioning
M82 ;set extruder to absolute mode
M107 ;start with the fan off
G28 X0 Y0 ;move X/Y to min endstops
G28 Z0 ;move Z to min endstops
G1 Z15.0 F9000 ;move the platform down 15mm
G92 E0 ;zero the extruded length
G1 F200 E3 ;extrude 3mm of feed stock
G92 E0 ;zero the extruded length again
G1 F9000
M117 Printing...
G5
M83 ; relative extrusion mode
;LAYER_COUNT:138
;LAYER:0
M107
G0 F3600 X32.24 Y30.096 Z0.3
;TYPE:SKIRT
G1 F1800 X35.246 Y27.055 E0.21333
G1 X35.629 Y26.725 E0.02522
G1 X36.059 Y26.459 E0.02523
G1 X36.525 Y26.264 E0.0252
G1 X36.935 Y26.159 E0.02112
G1 X37.128 Y26.123 E0.00979
G1 X37.631 Y26.07 E0.02523
G1 X38.136 Y26.097 E0.02523
G1 X38.63 Y26.203 E0.02521
G1 X38.938 Y26.312 E0.0163
G1 X39.516 Y26.551 E0.0312
G1 X39.966 Y26.78 E0.02519
G1 X40.423 Y27.12 E0.02842
G1 X41.31 Y27.911 E0.05929
G1 X41.455 Y28.049 E0.00999
G1 X45.874 Y32.516 E0.31348
G1 X46.285 Y33.027 E0.03272
G1 X49.744 Y38.371 E0.31759
G1 X52.978 Y42.771 E0.27243
G1 X56.484 Y47.016 E0.27468
G1 X58.286 Y49.019 E0.13442
G1 X60.899 Y51.735 E0.18803
G1 X182.754 Y173.603 E8.59799
G1 X183.082 Y173.988 E0.02523
G1 X183.345 Y174.42 E0.02523
G1 X183.538 Y174.887 E0.02521
G1 X183.654 Y175.379 E0.02522
G1 X183.691 Y175.883 E0.02521
G1 X183.648 Y176.387 E0.02524
G1 X183.527 Y176.878 E0.02523
G1 X183.33 Y177.343 E0.02519
G1 X183.061 Y177.772 E0.02526
G1 X182.747 Y178.135 E0.02395
G1 X178.121 Y182.734 E0.32544
G1 X177.736 Y183.061 E0.0252
G1 X177.303 Y183.324 E0.02528
G1 X176.835 Y183.514 E0.0252
G1 X176.343 Y183.629 E0.02521
G1 X175.838 Y183.665 E0.02526
G1 X175.335 Y183.621 E0.02519
G1 X174.844 Y183.498 E0.02525
G1 X174.379 Y183.299 E0.02523
G1 X173.952 Y183.03 E0.02518
G1 X173.603 Y182.728 E0.02303
G1 X51.742 Y60.907 E8.59654
G1 X47.739 Y57.123 E0.27482
G1 X43.546 Y53.588 E0.27361
G1 X39.18 Y50.311 E0.27235
G1 X32.991 Y46.259 E0.36906
G1 X32.484 Y45.847 E0.03259
G1 X27.452 Y40.825 E0.35468
G1 X27.123 Y40.441 E0.02523
G1 X26.962 Y40.196 E0.01463
G1 X26.523 Y39.458 E0.04284
G1 X26.299 Y39.004 E0.02526
G1 X26.15 Y38.521 E0.02522
G1 X26.079 Y38.021 E0.0252
G1 X26.075 Y37.703 E0.01587
G1 X26.083 Y37.488 E0.01073
G1 X26.142 Y36.986 E0.02522
G1 X26.279 Y36.499 E0.02524
G1 X26.491 Y36.04 E0.02522
G1 X26.772 Y35.62 E0.02521
G1 X27.013 Y35.35 E0.01806
G1 X32.241 Y30.097 E0.36975
G1 X32.24 Y30.096 E0.00007
G1 F3600 E-5
G0 F3600 X31.536 Y35.546
G0 X30.916 Y36.167
G0 X34.289 Y39.622
G0 X34.289 Y39.522
;TYPE:WALL-OUTER
G1 F3600 E5
G1 F1800 X34.43 Y39.381 E0.00995
G1 X39.381 Y34.43 E0.34932
G1 X39.522 Y34.289 E0.00995
G1 X39.381 Y34.148 E0.00642
G1 X36.147 Y30.916 E0.22811
G1 X37.545 Y29.517 E0.09867
G1 X37.608 Y29.477 E0.00372
G1 X37.685 Y29.459 E0.00395
G1 X37.794 Y29.465 E0.00545
G1 X38.025 Y29.57 E0.01266
G1 X38.22 Y29.681 E0.01119
G1 X38.601 Y30.002 E0.02486
G1 X43.264 Y34.663 E0.32893
G1 X43.441 Y34.873 E0.0137
G1 X43.577 Y35.101 E0.01324
G1 X43.67 Y35.337 E0.01266
G1 X43.724 Y35.593 E0.01305
G1 X43.735 Y35.853 E0.01298
G1 X43.704 Y36.116 E0.01321
G1 X43.632 Y36.362 E0.01279
G1 X43.345 Y36.955 E0.03287
G1 X43.232 Y37.338 E0.01992
G1 X43.184 Y37.732 E0.0198
G1 X43.202 Y38.128 E0.01978
G1 X43.285 Y38.518 E0.01989
G1 X43.43 Y38.89 E0.01992
G1 X43.634 Y39.232 E0.01987
G1 X43.887 Y39.53 E0.0195
G1 X180.223 Y175.866 E9.61924
G1 X175.866 Y180.223 E0.30741
G1 X39.53 Y43.887 E9.61924
G1 X39.232 Y43.634 E0.0195
G1 X38.89 Y43.43 E0.01987
G1 X38.518 Y43.285 E0.01992
G1 X38.128 Y43.202 E0.01989
G1 X37.732 Y43.184 E0.01978
G1 X37.338 Y43.232 E0.0198
G1 X36.955 Y43.345 E0.01992
G1 X36.363 Y43.632 E0.03282
G1 X36.116 Y43.704 E0.01284
G1 X35.853 Y43.735 E0.01321
G1 X35.593 Y43.724 E0.01298
G1 X35.337 Y43.67 E0.01305
G1 X35.101 Y43.577 E0.01266
G1 X34.873 Y43.441 E0.01324
G1 X34.663 Y43.263 E0.01373
G1 X30.001 Y38.601 E0.32893
G1 X29.679 Y38.219 E0.02493
G1 X29.573 Y38.032 E0.01072
G1 X29.46 Y37.779 E0.01382
G1 X29.458 Y37.689 E0.00449
G1 X29.478 Y37.606 E0.00426
G1 X29.514 Y37.55 E0.00332
G1 X30.775 Y36.288 E0.08901
G1 X30.916 Y36.147 E0.00995
G1 X31.057 Y36.288 E0.00642
G1 X34.148 Y39.381 E0.21816
G1 X34.289 Y39.522 E0.00642
G0 F3600 X34.43 Y39.381
G0 X34.289 Y40.088
;TYPE:WALL-INNER
G1 F1800 X40.088 Y34.289 E0.40915
G1 X36.711 Y30.916 E0.23812
G1 X37.744 Y29.882 E0.07292
G1 X37.839 Y29.926 E0.00522
G1 X37.991 Y30.011 E0.00869
G1 X38.343 Y30.308 E0.02298
G1 X42.958 Y34.921 E0.32554
G1 X43.115 Y35.107 E0.01214
G1 X43.216 Y35.277 E0.00987
G1 X43.285 Y35.45 E0.00929
G1 X43.326 Y35.644 E0.00989
G1 X43.333 Y35.835 E0.00954
G1 X43.31 Y36.04 E0.01029
G1 X43.258 Y36.218 E0.00925
G1 X42.971 Y36.81 E0.03282
G1 X42.838 Y37.256 E0.02322
G1 X42.782 Y37.717 E0.02317
G1 X42.804 Y38.18 E0.02313
G1 X42.901 Y38.634 E0.02316
G1 X43.07 Y39.066 E0.02314
G1 X43.308 Y39.466 E0.02322
G1 X43.593 Y39.802 E0.02198
G1 X179.659 Y175.866 E9.60012
G1 X175.866 Y179.659 E0.26762
G1 X39.802 Y43.593 E9.60012
G1 X39.466 Y43.308 E0.02198
G1 X39.066 Y43.07 E0.02322
G1 X38.634 Y42.901 E0.02314
G1 X38.18 Y42.804 E0.02316
G1 X37.717 Y42.782 E0.02313
G1 X37.256 Y42.838 E0.02317
G1 X36.81 Y42.971 E0.02322
G1 X36.219 Y43.258 E0.03278
G1 X36.04 Y43.31 E0.0093
G1 X35.835 Y43.333 E0.01029
G1 X35.644 Y43.326 E0.00954
G1 X35.45 Y43.285 E0.00989
G1 X35.277 Y43.216 E0.00929
G1 X35.107 Y43.115 E0.00987
G1 X34.921 Y42.957 E0.01218
G1 X30.307 Y38.343 E0.32554
G1 X30.009 Y37.99 E0.02305
G1 X29.935 Y37.858 E0.00755
G1 X29.884 Y37.744 E0.00623
G1 X30.916 Y36.711 E0.07285
G1 X34.289 Y40.088 E0.23812
G0 F3600 X35.795 Y43.149
;TYPE:SKIN
G1 F1800 X30.263 Y37.617 E0.39031
G1 X30.193 Y37.547
G0 F3600 X30.546 Y37.334
G1 F1800 X36.251 Y43.04 E0.40255
G1 X36.321 Y43.11
G0 F3600 X36.633 Y42.855
G1 F1800 X30.829 Y37.051 E0.4095
G1 X30.759 Y36.981
G0 F3600 X34.487 Y40.143
G1 F1800 X37.053 Y42.709 E0.18105
G1 X37.123 Y42.779
G0 F3600 X37.531 Y42.622
G1 F1800 X34.769 Y39.861 E0.19484
G1 X34.699 Y39.791
G0 F3600 X35.052 Y39.578
G1 F1800 X38.093 Y42.618 E0.21452
G1 X38.163 Y42.688
G0 F3600 X38.82 Y42.779
G1 F1800 X35.335 Y39.295 E0.24585
G1 X35.265 Y39.225
G0 F3600 X35.618 Y39.012
G1 F1800 X175.938 Y179.332 E9.90033
G1 X176.008 Y179.402
G0 F3600 X176.22 Y179.049
G1 F1800 X35.901 Y38.729 E9.9003
G1 X35.831 Y38.659
G0 F3600 X36.184 Y38.446
G1 F1800 X176.503 Y178.766 E9.9003
G1 X176.573 Y178.836
G0 F3600 X176.786 Y178.483
G1 F1800 X36.466 Y38.163 E9.90033
G1 X36.396 Y38.093
G0 F3600 X36.749 Y37.881
G1 F1800 X177.069 Y178.2 E9.9003
G1 X177.139 Y178.27
G0 F3600 X177.352 Y177.917
G1 F1800 X37.032 Y37.598 E9.9003
G1 X36.962 Y37.528
G0 F3600 X37.315 Y37.315
G1 F1800 X177.635 Y177.635 E9.90033
G1 X177.705 Y177.705
G0 F3600 X177.917 Y177.352
G1 F1800 X37.598 Y37.032 E9.9003
G1 X37.528 Y36.962
G0 F3600 X37.881 Y36.749
G1 F1800 X178.2 Y177.069 E9.9003
G1 X178.27 Y177.139
G0 F3600 X178.483 Y176.786
G1 F1800 X38.163 Y36.466 E9.90033
G1 X38.093 Y36.396
G0 F3600 X38.446 Y36.184
G1 F1800 X178.766 Y176.503 E9.9003
G1 X178.836 Y176.573
G0 F3600 X179.049 Y176.22
G1 F1800 X38.729 Y35.901 E9.9003
G1 X38.659 Y35.831
G0 F3600 X39.012 Y35.618
G1 F1800 X179.332 Y175.938 E9.90033
G1 X179.402 Y176.008
G0 F3600 X42.78 Y38.82
G1 F1800 X39.295 Y35.335 E0.24589
G1 X39.225 Y35.265
G0 F3600 X39.578 Y35.052
G1 F1800 X42.619 Y38.093 E0.21456
G1 X42.689 Y38.163
G0 F3600 X42.622 Y37.531
G1 F1800 X39.861 Y34.769 E0.19484
G1 X39.791 Y34.699
G0 F3600 X40.143 Y34.487
G1 F1800 X42.709 Y37.053 E0.18105
G1 X42.779 Y37.123
G0 F3600 X42.856 Y36.633
G1 F1800 X37.05 Y30.828 E0.40961
G1 X36.98 Y30.758
G0 F3600 X37.333 Y30.545
G1 F1800 X43.041 Y36.253 E0.40273
G1 X43.111 Y36.323
G0 F3600 X43.15 Y35.796
G1 F1800 X37.616 Y30.262 E0.39045
G1 X37.546 Y30.192
G0 F3600 X39.562 Y34.289
G0 X34.289 Y39.622
G0 X34.289 Y39.522
;TIME_ELAPSED:138.159902
;LAYER:1
M140 S60
M106 S255
G0 F5400 X34.289 Y39.522 Z0.4
;TYPE:WALL-OUTER
G1 F1800 X34.43 Y39.381 E0.00332
G1 X39.381 Y34.43 E0.11644
G1 X39.522 Y34.289 E0.00332
G1 X39.381 Y34.148 E0.00214
G1 X35.977 Y30.745 E0.08005
G1 X37.374 Y29.346 E0.03288
G1 X37.437 Y29.306 E0.00124
G1 X37.518 Y29.287 E0.00138
G1 X37.639 Y29.291 E0.00201
G1 X37.808 Y29.331 E0.00289
G1 X37.874 Y29.356 E0.00117
G1 X38.031 Y29.445 E0.003
G1 X38.29 Y29.618 E0.00518
G1 X38.653 Y29.941 E0.00808
G1 X43.321 Y34.606 E0.10975
G1 X43.506 Y34.826 E0.00478
G1 X43.65 Y35.066 E0.00465
G1 X43.747 Y35.313 E0.00441
G1 X43.804 Y35.583 E0.00459
G1 X43.815 Y35.857 E0.00456
G1 X43.783 Y36.129 E0.00455
G1 X43.705 Y36.393 E0.00458
G1 X43.42 Y36.983 E0.0109
G1 X43.311 Y37.354 E0.00643
G1 X43.264 Y37.736 E0.0064
G1 X43.281 Y38.119 E0.00638
G1 X43.362 Y38.496 E0.00641
G1 X43.502 Y38.855 E0.00641
G1 X43.7 Y39.186 E0.00641
G1 X43.944 Y39.473 E0.00626
G1 X180.28 Y175.809 E3.20641
G1 X175.81 Y180.279 E0.10513
G1 X39.473 Y43.944 E3.20641
G1 X39.186 Y43.7 E0.00626
G1 X38.855 Y43.502 E0.00641
G1 X38.496 Y43.362 E0.00641
G1 X38.119 Y43.281 E0.00641
G1 X37.736 Y43.264 E0.00638
G1 X37.354 Y43.311 E0.0064
G1 X36.983 Y43.42 E0.00643
G1 X36.393 Y43.705 E0.0109
G1 X36.129 Y43.783 E0.00458
G1 X35.857 Y43.815 E0.00455
G1 X35.583 Y43.804 E0.00456
G1 X35.313 Y43.747 E0.00459
G1 X35.066 Y43.65 E0.00441
G1 X34.826 Y43.506 E0.00465
G1 X34.606 Y43.32 E0.00479
G1 X29.941 Y38.654 E0.10973
G1 X29.619 Y38.292 E0.00806
G1 X29.443 Y38.026 E0.0053
G1 X29.356 Y37.875 E0.0029
G1 X29.331 Y37.808 E0.00119
G1 X29.291 Y37.639 E0.00289
G1 X29.287 Y37.518 E0.00201
G1 X29.307 Y37.435 E0.00142
G1 X29.345 Y37.376 E0.00117
G1 X30.603 Y36.117 E0.0296
G1 X30.744 Y35.976 E0.00332
G1 X30.885 Y36.117 E0.00214
G1 X34.148 Y39.381 E0.07675
G1 X34.289 Y39.522 E0.00214
G0 F5400 X34.43 Y39.381
G0 X34.289 Y40.088
;TYPE:WALL-INNER
G1 F2100 X40.088 Y34.289 E0.13638
G1 X36.541 Y30.745 E0.08338
G1 X37.594 Y29.691 E0.02478
G1 X37.692 Y29.715 E0.00168
G1 X37.833 Y29.793 E0.00268
G1 X38.044 Y29.934 E0.00422
G1 X38.387 Y30.239 E0.00763
G1 X43.015 Y34.864 E0.10881
G1 X43.184 Y35.064 E0.00435
G1 X43.29 Y35.24 E0.00342
G1 X43.361 Y35.422 E0.00325
G1 X43.406 Y35.635 E0.00362
G1 X43.413 Y35.839 E0.00339
G1 X43.389 Y36.049 E0.00352
G1 X43.329 Y36.253 E0.00354
G1 X43.046 Y36.839 E0.01082
G1 X42.918 Y37.272 E0.00751
G1 X42.862 Y37.72 E0.00751
G1 X42.883 Y38.171 E0.00751
G1 X42.978 Y38.612 E0.0075
G1 X43.142 Y39.031 E0.00748
G1 X43.374 Y39.42 E0.00753
G1 X43.65 Y39.745 E0.00709
G1 X179.716 Y175.809 E3.20004
G1 X175.81 Y179.715 E0.09186
G1 X39.745 Y43.65 E3.20004
G1 X39.42 Y43.374 E0.00709
G1 X39.031 Y43.142 E0.00753
G1 X38.612 Y42.978 E0.00748
G1 X38.171 Y42.883 E0.0075
G1 X37.72 Y42.862 E0.00751
G1 X37.272 Y42.918 E0.00751
G1 X36.839 Y43.046 E0.00751
G1 X36.253 Y43.329 E0.01082
G1 X36.049 Y43.389 E0.00354
G1 X35.839 Y43.413 E0.00352
G1 X35.635 Y43.406 E0.00339
G1 X35.422 Y43.361 E0.00362
G1 X35.24 Y43.29 E0.00325
G1 X35.064 Y43.184 E0.00342
G1 X34.864 Y43.014 E0.00437
G1 X30.239 Y38.388 E0.10878
G1 X29.936 Y38.046 E0.0076
G1 X29.777 Y37.806 E0.00479
G1 X29.716 Y37.698 E0.00206
G1 X29.692 Y37.593 E0.00179
G1 X30.744 Y36.54 E0.02475
G1 X34.289 Y40.088 E0.08341
G0 F5400 X30.916 Y36.966
;TYPE:SKIN
G1 F1800 X30.026 Y37.855 E0.02092
G1 X29.956 Y37.925
G0 F5400 X30.283 Y38.164
G1 F1800 X31.198 Y37.248 E0.02153
G1 X31.268 Y37.178
G0 F5400 X31.481 Y37.531
G1 F1800 X30.559 Y38.454 E0.0217
G1 X30.489 Y38.524
G0 F5400 X30.841 Y38.737
G1 F1800 X31.764 Y37.814 E0.02171
G1 X31.834 Y37.744
G0 F5400 X32.046 Y38.098
G1 F1800 X31.124 Y39.02 E0.02168
G1 X31.054 Y39.09
G0 F5400 X31.407 Y39.303
G1 F1800 X32.329 Y38.381 E0.02168
G1 X32.399 Y38.311
G0 F5400 X32.612 Y38.663
G1 F1800 X31.69 Y39.585 E0.02168
G1 X31.62 Y39.655
G0 F5400 X31.973 Y39.868
G1 F1800 X32.895 Y38.946 E0.02168
G1 X32.965 Y38.876
G0 F5400 X33.177 Y39.23
G1 F1800 X32.256 Y40.151 E0.02166
G1 X32.186 Y40.221
G0 F5400 X32.538 Y40.434
G1 F1800 X33.46 Y39.513 E0.02167
G1 X33.53 Y39.443
G0 F5400 X33.743 Y39.795
G1 F1800 X32.821 Y40.717 E0.02168
G1 X32.751 Y40.787
G0 F5400 X33.104 Y41
G1 F1800 X34.025 Y40.078 E0.02167
G1 X34.095 Y40.008
G0 F5400 X33.387 Y41.283
G1 F1800 X41.283 Y33.386 E0.18571
G1 X41.353 Y33.316
G0 F5400 X41 Y33.103
G1 F1800 X40.078 Y34.026 E0.0217
G1 X40.008 Y34.096
G0 F5400 X39.795 Y33.743
G1 F1800 X40.718 Y32.821 E0.0217
G1 X40.788 Y32.751
G0 F5400 X40.434 Y32.538
G1 F1800 X39.512 Y33.46 E0.02168
G1 X39.442 Y33.53
G0 F5400 X39.229 Y33.178
G1 F1800 X40.151 Y32.256 E0.02168
G1 X40.221 Y32.186
G0 F5400 X39.868 Y31.973
G1 F1800 X38.946 Y32.896 E0.0217
G1 X38.876 Y32.966
G0 F5400 X38.663 Y32.613
G1 F1800 X39.585 Y31.69 E0.0217
G1 X39.655 Y31.62
G0 F5400 X39.303 Y31.407
G1 F1800 X38.38 Y32.33 E0.02171
G1 X38.31 Y32.4
G0 F5400 X38.097 Y32.047
G1 F1800 X39.02 Y31.124 E0.02171
G1 X39.09 Y31.054
G0 F5400 X38.737 Y30.841
G1 F1800 X37.813 Y31.765 E0.02173
G1 X37.743 Y31.835
G0 F5400 X37.531 Y31.482
G1 F1800 X38.454 Y30.559 E0.02171
G1 X38.524 Y30.489
G0 F5400 X38.165 Y30.282
G1 F1800 X37.248 Y31.199 E0.02157
G1 X37.178 Y31.269
G0 F5400 X36.965 Y30.916
G1 F1800 X37.857 Y30.025 E0.02097
G1 X37.927 Y29.955
G0 F5400 X41.566 Y33.669
G1 F1800 X33.67 Y41.565 E0.1857
G1 X33.6 Y41.635
G0 F5400 X33.953 Y41.848
G1 F1800 X41.849 Y33.952 E0.1857
G1 X41.919 Y33.882
G0 F5400 X42.132 Y34.235
G1 F1800 X34.235 Y42.131 E0.18571
G1 X34.165 Y42.201
G0 F5400 X34.518 Y42.414
G1 F1800 X42.415 Y34.518 E0.18571
G1 X42.485 Y34.448
G0 F5400 X42.697 Y34.8
G1 F1800 X34.801 Y42.697 E0.18571
G1 X34.731 Y42.767
G0 F5400 X35.092 Y42.972
G1 F1800 X42.971 Y35.093 E0.1853
G1 X43.041 Y35.023
G0 F5400 X43.178 Y35.451
G1 F1800 X35.45 Y43.179 E0.18175
G1 X35.38 Y43.249
G0 F5400 X35.98 Y43.215
G1 F1800 X43.214 Y35.981 E0.17013
G1 X43.284 Y35.911
G0 F5400 X42.83 Y36.93
G1 F1800 X36.93 Y42.831 E0.13877
G1 X36.86 Y42.901
G0 F5400 X37.637 Y42.69
G1 F1800 X42.689 Y37.637 E0.11883
G1 X42.759 Y37.567
G0 F5400 X42.702 Y38.19
G1 F1800 X38.19 Y42.702 E0.10612
G1 X38.12 Y42.772
G0 F5400 X38.655 Y42.803
G1 F1800 X42.801 Y38.656 E0.09752
G1 X42.871 Y38.586
G0 F5400 X42.96 Y39.064
G1 F1800 X39.063 Y42.96 E0.09164
G1 X38.993 Y43.03
G0 F5400 X39.424 Y43.166
G1 F1800 X43.165 Y39.424 E0.08799
G1 X43.235 Y39.354
G0 F5400 X43.411 Y39.744
G1 F1800 X39.743 Y43.412 E0.08627
G1 X39.673 Y43.482
G0 F5400 X40.036 Y43.685
G1 F1800 X43.685 Y40.035 E0.08583
G1 X43.755 Y39.965
G0 F5400 X43.968 Y40.318
G1 F1800 X40.319 Y43.967 E0.08582
G1 X40.249 Y44.037
G0 F5400 X40.602 Y44.25
G1 F1800 X44.251 Y40.601 E0.08582
G1 X44.321 Y40.531
G0 F5400 X44.534 Y40.884
G1 F1800 X40.884 Y44.533 E0.08583
G1 X40.814 Y44.603
G0 F5400 X41.167 Y44.816
G1 F1800 X44.817 Y41.167 E0.08583
G1 X44.887 Y41.097
G0 F5400 X45.099 Y41.449
G1 F1800 X41.45 Y45.099 E0.08583
G1 X41.38 Y45.169
G0 F5400 X41.733 Y45.382
G1 F1800 X45.382 Y41.732 E0.08583
G1 X45.452 Y41.662
G0 F5400 X45.665 Y42.015
G1 F1800 X42.016 Y45.664 E0.08582
G1 X41.946 Y45.734
G0 F5400 X42.299 Y45.947
G1 F1800 X45.948 Y42.298 E0.08582
G1 X46.018 Y42.228
G0 F5400 X46.231 Y42.581
G1 F1800 X42.581 Y46.23 E0.08583
G1 X42.511 Y46.3
G0 F5400 X42.864 Y46.513
G1 F1800 X46.514 Y42.864 E0.08583
G1 X46.584 Y42.794
G0 F5400 X46.797 Y43.146
G1 F1800 X43.147 Y46.796 E0.08584
G1 X43.077 Y46.866
G0 F5400 X43.43 Y47.079
G1 F1800 X47.079 Y43.429 E0.08583
G1 X47.149 Y43.359
G0 F5400 X47.362 Y43.712
G1 F1800 X43.713 Y47.362 E0.08583
G1 X43.643 Y47.432
G0 F5400 X43.996 Y47.644
G1 F1800 X47.645 Y43.995 E0.08582
G1 X47.715 Y43.925
G0 F5400 X47.928 Y44.278
G1 F1800 X44.279 Y47.927 E0.08582
G1 X44.209 Y47.997
G0 F5400 X44.561 Y48.21
G1 F1800 X48.211 Y44.561 E0.08583
G1 X48.281 Y44.491
G0 F5400 X48.494 Y44.844
G1 F1800 X44.844 Y48.493 E0.08583
G1 X44.774 Y48.563
G0 F5400 X45.127 Y48.776
G1 F1800 X48.776 Y45.126 E0.08583
G1 X48.846 Y45.056
G0 F5400 X49.059 Y45.409
G1 F1800 X45.41 Y49.059 E0.08583
G1 X45.34 Y49.129
G0 F5400 X45.693 Y49.341
G1 F1800 X49.342 Y45.692 E0.08582
G1 X49.412 Y45.622
G0 F5400 X49.625 Y45.975
G1 F1800 X45.976 Y49.624 E0.08582
G1 X45.906 Y49.694
G0 F5400 X46.258 Y49.907
G1 F1800 X49.908 Y46.258 E0.08583
G1 X49.978 Y46.188
G0 F5400 X50.191 Y46.541
G1 F1800 X46.541 Y50.19 E0.08583
G1 X46.471 Y50.26
G0 F5400 X46.824 Y50.473
