;FLAVOR:RepRap
;TIME:1075
;Filament used: 0.554314m
;Layer height: 0.1
;Generated with Cura_SteamEngine 3.0.3
T0
M190 S60
M104 S200
M109 S200
M82 ; absolute extrusion mode
G21 ;metric values
G90 ;absolute positioning
M82 ;set extruder to absolute mode
M107 ;start with the fan off
G28 X0 Y0 ;move X/Y to min endstops
G28 Z0 ;move Z to min endstops
G1 Z15.0 F9000 ;move the platform down 15mm
G92 E0 ;zero the extruded length
G1 F200 E3 ;extrude 3mm of feed stock
G92 E0 ;zero the extruded length again
G1 F9000
;Put printing message on LCD screen
M117 Printing...
M83 ; relative extrusion mode
;LAYER_COUNT:90
;LAYER:0
M107
G0 F3600 X94.701 Y102.55 Z0.1
;TYPE:SKIRT
G1 F1800 X98.497 Y99.374 E0.08231
G1 X98.976 Y99.025 E0.00986
G1 X99.498 Y98.744 E0.00986
G1 X100.053 Y98.535 E0.00986
G1 X100.631 Y98.403 E0.00986
G1 X101.322 Y98.349 E0.01153
G1 X105.321 Y98.351 E0.0665
G1 X105.913 Y98.391 E0.00987
G1 X106.494 Y98.511 E0.00987
G1 X107.262 Y98.803 E0.01366
G1 X107.39 Y98.866 E0.00237
G1 X107.903 Y99.163 E0.00986
G1 X108.372 Y99.527 E0.00987
G1 X108.787 Y99.95 E0.00985
G1 X109.097 Y100.357 E0.00851
G1 X111.739 Y104.283 E0.0787
G1 X112.037 Y104.797 E0.00988
G1 X112.262 Y105.345 E0.00985
G1 X112.412 Y105.919 E0.00987
G1 X112.489 Y106.727 E0.0135
G1 X112.519 Y116.891 E0.16903
G1 X112.481 Y117.483 E0.00987
G1 X112.363 Y118.064 E0.00986
G1 X112.169 Y118.624 E0.00986
G1 X111.926 Y119.11 E0.00904
G1 X108.817 Y124.475 E0.10312
G1 X108.486 Y124.967 E0.00986
G1 X108.091 Y125.41 E0.00987
G1 X107.641 Y125.796 E0.00986
G1 X107.251 Y126.055 E0.00779
G1 X107.077 Y126.158 E0.00336
G1 X106.548 Y126.425 E0.00985
G1 X105.987 Y126.619 E0.00987
G1 X105.406 Y126.735 E0.00985
G1 X104.863 Y126.772 E0.00905
G1 X101.393 Y126.793 E0.05771
G1 X100.918 Y126.77 E0.00791
G1 X100.234 Y126.7 E0.01143
G1 X99.65 Y126.6 E0.00985
G1 X99.084 Y126.423 E0.00986
G1 X98.547 Y126.17 E0.00987
G1 X98.049 Y125.848 E0.00986
G1 X97.599 Y125.462 E0.00986
G1 X97.205 Y125.019 E0.00986
G1 X96.891 Y124.556 E0.0093
G1 X93.782 Y119.278 E0.10187
G1 X93.516 Y118.748 E0.00986
G1 X93.324 Y118.187 E0.00986
G1 X93.222 Y117.699 E0.00829
G1 X93.165 Y117.32 E0.00637
G1 X93.116 Y116.663 E0.01096
G1 X93.124 Y105.922 E0.17862
G1 X93.164 Y105.33 E0.00987
G1 X93.284 Y104.749 E0.00987
G1 X93.481 Y104.19 E0.00986
G1 X93.751 Y103.662 E0.00986
G1 X94.089 Y103.175 E0.00986
G1 X94.701 Y102.55 E0.01455
G0 F3600 X94.957 Y102.857
G1 F1800 X98.753 Y99.681 E0.08231
G1 X99.211 Y99.35 E0.0094
G1 X99.712 Y99.087 E0.00941
G1 X100.244 Y98.896 E0.0094
G1 X100.798 Y98.783 E0.0094
G1 X101.322 Y98.749 E0.00873
G1 X105.321 Y98.751 E0.0665
G1 X105.885 Y98.791 E0.0094
G1 X106.437 Y98.911 E0.00939
G1 X107.085 Y99.162 E0.01156
G1 X107.213 Y99.225 E0.00237
G1 X107.702 Y99.51 E0.00941
G1 X108.145 Y99.861 E0.0094
G1 X108.534 Y100.271 E0.0094
G1 X108.766 Y100.581 E0.00644
G1 X111.408 Y104.507 E0.0787
G1 X111.689 Y104.997 E0.00939
G1 X111.899 Y105.522 E0.0094
G1 X112.033 Y106.071 E0.0094
G1 X112.089 Y106.728 E0.01097
G1 X112.119 Y116.892 E0.16903
G1 X112.081 Y117.456 E0.0094
G1 X111.963 Y118.009 E0.0094
G1 X111.769 Y118.54 E0.0094
G1 X111.58 Y118.91 E0.00691
G1 X108.471 Y124.275 E0.10312
G1 X108.154 Y124.742 E0.00939
G1 X107.773 Y125.161 E0.00942
G1 X107.338 Y125.522 E0.0094
G1 X107.048 Y125.711 E0.00576
G1 X106.874 Y125.814 E0.00336
G1 X106.368 Y126.067 E0.00941
G1 X105.832 Y126.246 E0.0094
G1 X105.276 Y126.348 E0.0094
G1 X104.86 Y126.372 E0.00693
G1 X101.39 Y126.393 E0.05771
G1 X100.959 Y126.372 E0.00718
G1 X100.275 Y126.302 E0.01143
G1 X99.718 Y126.205 E0.0094
G1 X99.18 Y126.03 E0.00941
G1 X98.673 Y125.782 E0.00939
G1 X98.205 Y125.464 E0.00941
G1 X97.787 Y125.083 E0.00941
G1 X97.427 Y124.647 E0.0094
G1 X97.235 Y124.353 E0.00584
G1 X94.126 Y119.075 E0.10187
G1 X93.875 Y118.569 E0.00939
G1 X93.697 Y118.032 E0.00941
G1 X93.617 Y117.64 E0.00665
G1 X93.56 Y117.261 E0.00637
G1 X93.516 Y116.663 E0.00997
G1 X93.524 Y105.922 E0.17862
G1 X93.564 Y105.358 E0.0094
G1 X93.684 Y104.806 E0.00939
G1 X93.88 Y104.275 E0.00941
G1 X94.149 Y103.778 E0.0094
G1 X94.485 Y103.324 E0.00939
G1 X94.957 Y102.857 E0.01104
G0 F3600 X95.214 Y103.164
G1 F1800 X99.01 Y99.988 E0.08231
G1 X99.446 Y99.675 E0.00893
G1 X99.923 Y99.431 E0.00891
G1 X100.431 Y99.26 E0.00891
G1 X100.96 Y99.167 E0.00893
G1 X101.322 Y99.149 E0.00603
G1 X105.321 Y99.151 E0.0665
G1 X105.856 Y99.191 E0.00892
G1 X106.378 Y99.31 E0.0089
G1 X106.909 Y99.521 E0.0095
G1 X107.037 Y99.584 E0.00237
G1 X107.499 Y99.856 E0.00892
G1 X107.916 Y100.194 E0.00893
G1 X108.434 Y100.804 E0.01331
G1 X111.076 Y104.73 E0.0787
G1 X111.341 Y105.196 E0.00892
G1 X111.534 Y105.696 E0.00891
G1 X111.651 Y106.22 E0.00893
G1 X111.689 Y106.729 E0.00849
G1 X111.719 Y116.893 E0.16903
G1 X111.681 Y117.428 E0.00892
G1 X111.563 Y117.952 E0.00893
G1 X111.369 Y118.452 E0.00892
G1 X111.234 Y118.709 E0.00483
G1 X108.125 Y124.074 E0.10312
G1 X107.822 Y124.517 E0.00893
G1 X107.457 Y124.91 E0.00892
G1 X106.844 Y125.367 E0.01272
G1 X106.67 Y125.47 E0.00336
G1 X106.189 Y125.708 E0.00892
G1 X105.679 Y125.872 E0.00891
G1 X105.149 Y125.958 E0.00893
G1 X104.858 Y125.972 E0.00484
G1 X101.388 Y125.993 E0.05771
G1 X100.999 Y125.974 E0.00648
G1 X100.315 Y125.904 E0.01143
G1 X99.788 Y125.81 E0.0089
G1 X99.279 Y125.639 E0.00893
G1 X98.802 Y125.393 E0.00893
G1 X98.367 Y125.08 E0.00891
G1 X97.983 Y124.706 E0.00891
G1 X97.58 Y124.15 E0.01142
G1 X94.471 Y118.872 E0.10187
G1 X94.234 Y118.391 E0.00892
G1 X94.071 Y117.88 E0.00892
G1 X94.013 Y117.58 E0.00508
G1 X93.956 Y117.201 E0.00637
G1 X93.916 Y116.663 E0.00897
G1 X93.924 Y105.922 E0.17862
G1 X93.964 Y105.388 E0.00891
G1 X94.084 Y104.865 E0.00892
G1 X94.279 Y104.365 E0.00893
G1 X94.547 Y103.901 E0.00891
G1 X94.881 Y103.481 E0.00892
G1 X95.214 Y103.164 E0.00765
G0 F3600 X95.471 Y103.471
G1 F1800 X99.267 Y100.295 E0.08231
G1 X99.679 Y100.002 E0.00841
G1 X100.132 Y99.778 E0.0084
G1 X100.615 Y99.628 E0.00841
G1 X101.322 Y99.549 E0.01183
G1 X105.321 Y99.551 E0.0665
G1 X105.825 Y99.591 E0.00841
G1 X106.316 Y99.71 E0.0084
G1 X106.732 Y99.88 E0.00747
G1 X106.86 Y99.943 E0.00237
G1 X107.295 Y100.201 E0.00841
G1 X107.683 Y100.525 E0.00841
G1 X108.102 Y101.027 E0.01087
G1 X110.744 Y104.953 E0.0787
G1 X110.992 Y105.394 E0.00841
G1 X111.168 Y105.868 E0.00841
G1 X111.267 Y106.364 E0.00841
G1 X111.289 Y106.731 E0.00611
G1 X111.319 Y116.895 E0.16903
G1 X111.281 Y117.399 E0.00841
G1 X111.163 Y117.89 E0.0084
G1 X110.888 Y118.508 E0.01125
G1 X107.779 Y123.873 E0.10312
G1 X107.491 Y124.289 E0.00841
G1 X107.142 Y124.655 E0.00841
G1 X106.64 Y125.023 E0.01035
G1 X106.466 Y125.126 E0.00336
G1 X106.012 Y125.348 E0.0084
G1 X105.529 Y125.496 E0.0084
G1 X104.855 Y125.572 E0.01128
G1 X101.385 Y125.593 E0.05771
G1 X101.04 Y125.576 E0.00574
G1 X100.356 Y125.506 E0.01143
G1 X99.859 Y125.415 E0.0084
G1 X99.382 Y125.247 E0.00841
G1 X98.938 Y125.006 E0.0084
G1 X98.537 Y124.698 E0.00841
G1 X98.19 Y124.33 E0.00841
G1 X97.925 Y123.947 E0.00775
G1 X94.816 Y118.669 E0.10187
G1 X94.594 Y118.215 E0.0084
G1 X94.409 Y117.521 E0.01194
G1 X94.352 Y117.142 E0.00637
G1 X94.316 Y116.664 E0.00797
G1 X94.324 Y105.923 E0.17862
G1 X94.364 Y105.419 E0.00841
G1 X94.483 Y104.927 E0.00842
G1 X94.679 Y104.461 E0.00841
G1 X94.945 Y104.031 E0.00841
G1 X95.275 Y103.648 E0.00841
G1 X95.471 Y103.471 E0.00439
G1 F3600 E-5
G0 F3600 X97.793 Y105.211
G0 X98.122 Y106.489
G0 X98.508 Y106.875
;TYPE:WALL-INNER
G1 F3600 E5
G1 F1800 X98.708 Y106.875 E0.00333
G1 X102.321 Y106.874 E0.06008
G1 X102.321 Y103.911 E0.04927
G1 X102.321 Y103.91 E0.00002
G1 X102.321 Y103.709 E0.00334
G1 X102.522 Y103.71 E0.00216
G1 X102.523 Y103.711 E0.00002
G1 X104.632 Y103.734 E0.03507
G1 X104.633 Y107.174 E0.05721
G1 X104.633 Y107.374 E0.00333
G1 X104.433 Y107.374 E0.00215
G1 X98.509 Y107.374 E0.09852
G1 X98.508 Y107.075 E0.00497
G1 X98.508 Y106.875 E0.00215
G0 F3600 X98.108 Y106.675
G1 F1800 X98.108 Y106.475 E0.00333
G1 X98.308 Y106.475 E0.00215
G1 X101.921 Y106.474 E0.06008
G1 X101.921 Y103.434 E0.05056
G1 X101.921 Y103.312 E0.00203
G1 X102.078 Y103.306 E0.00261
G1 X102.2 Y103.307 E0.00203
G1 X105.007 Y103.338 E0.04668
G1 X105.032 Y103.446 E0.00184
G1 X105.033 Y107.161 E0.06178
G1 X107.528 Y107.166 E0.04149
G1 X107.533 Y116.582 E0.15659
G1 X104.533 Y116.587 E0.04989
G1 X104.533 Y121.792 E0.08656
G1 X104.023 Y121.8 E0.00848
G1 X104.022 Y121.801 E0.00002
G1 X103.821 Y121.802 E0.00334
G1 X103.821 Y121.601 E0.00216
G1 X103.821 Y121.6 E0.00002
G1 X103.821 Y115.974 E0.09356
G1 X106.921 Y115.974 E0.05155
G1 X106.921 Y107.774 E0.13637
G1 X98.721 Y107.774 E0.13637
G1 X98.721 Y115.974 E0.13637
G1 X101.821 Y115.974 E0.05155
G1 X101.821 Y121.597 E0.09351
G1 X101.821 Y121.598 E0.00002
G1 X101.821 Y121.798 E0.00333
G1 X101.621 Y121.798 E0.00215
G1 X101.62 Y121.797 E0.00002
G1 X101.11 Y121.791 E0.00848
G1 X101.109 Y116.587 E0.08654
G1 X98.114 Y116.582 E0.04981
G1 X98.108 Y106.675 E0.16475
G0 F3600 X98.209 Y106.675
G0 X105.432 Y107.261
G0 X105.433 Y106.762
;TYPE:WALL-OUTER
G1 F1800 X107.839 Y106.767 E0.04001
G1 X107.87 Y106.777 E0.00054
G1 X107.898 Y106.797 E0.00057
G1 X107.918 Y106.825 E0.00057
G1 X107.928 Y106.856 E0.00054
G1 X107.933 Y116.859 E0.16635
G1 X107.925 Y116.907 E0.00081
G1 X107.903 Y116.948 E0.00077
G1 X107.87 Y116.972 E0.00068
G1 X107.839 Y116.982 E0.00054
G1 X104.933 Y116.986 E0.04833
G1 X104.933 Y121.848 E0.08086
G1 X104.849 Y122.161 E0.00539
G1 X104.782 Y122.189 E0.00121
G1 X103.684 Y122.205 E0.01826
G1 X103.544 Y122.206 E0.00233
G1 X103.421 Y122.203 E0.00205
G1 X103.421 Y122.063 E0.00233
G1 X103.421 Y115.574 E0.10791
G1 X106.521 Y115.574 E0.05155
G1 X106.521 Y108.174 E0.12306
G1 X99.121 Y108.174 E0.12306
G1 X99.121 Y115.574 E0.12306
G1 X102.221 Y115.574 E0.05155
G1 X102.221 Y122.001 E0.10688
G1 X102.221 Y122.002 E0.00002
G1 X102.221 Y122.202 E0.00333
G1 X102.021 Y122.202 E0.00215
G1 X102.02 Y122.201 E0.00002
G1 X100.861 Y122.189 E0.01928
G1 X100.793 Y122.162 E0.00122
G1 X100.71 Y121.849 E0.00539
G1 X100.709 Y116.986 E0.08087
G1 X97.803 Y116.982 E0.04833
G1 X97.772 Y116.972 E0.00054
G1 X97.742 Y116.951 E0.00061
G1 X97.725 Y116.926 E0.0005
G1 X97.714 Y116.892 E0.00059
G1 X97.708 Y106.226 E0.17738
G1 X97.708 Y106.085 E0.00234
G1 X97.825 Y106.075 E0.00195
G1 X97.966 Y106.075 E0.00234
G1 X101.521 Y106.074 E0.05912
G1 X101.521 Y102.927 E0.05233
G1 X102.067 Y102.906 E0.00909
G1 X105.273 Y102.941 E0.05332
G1 X105.332 Y102.97 E0.00109
G1 X105.432 Y103.398 E0.00731
G1 X105.433 Y106.762 E0.05594
G0 F3600 X105.633 Y106.762
G0 X105.632 Y107.262
G0 X105.005 Y107.189
G0 X104.233 Y106.974
;TYPE:WALL-INNER
G1 F1800 X102.721 Y106.974 E0.02514
G1 X102.721 Y104.113 E0.04758
G1 X104.232 Y104.13 E0.02513
G1 X104.233 Y106.974 E0.0473
G0 F3600 X103.398 Y106.792
;TYPE:SKIN
G1 F1800 X102.901 Y106.295 E0.01169
G0 F3600 X102.901 Y105.729
G1 F1800 X103.964 Y106.792 E0.025
G1 X104.034 Y106.862
G0 F3600 X104.052 Y106.315
G1 F1800 X102.901 Y105.163 E0.02708
G1 X102.831 Y105.093
G0 F3600 X102.901 Y104.598
G1 F1800 X104.052 Y105.749 E0.02707
G1 X104.122 Y105.819
G0 F3600 X104.052 Y105.183
G1 F1800 X103.166 Y104.297 E0.02084
G1 X103.096 Y104.227
G0 F3600 X103.738 Y104.303
G1 F1800 X104.052 Y104.617 E0.00738
G0 F3600 X102.245 Y107.053
G0 X102.314 Y107.123
G1 F1800 X102.031 Y107.123 E0.00165
G1 X101.749 Y107.123 E0.00164
G1 X101.466 Y107.123 E0.00165
G1 X101.183 Y107.123 E0.00165
G1 X100.9 Y107.123 E0.00165
G1 X100.618 Y107.123 E0.00163
G1 X100.335 Y107.123 E0.00164
G1 X100.052 Y107.123 E0.00164
G1 X99.769 Y107.123 E0.00164
G1 X99.486 Y107.123 E0.00164
G1 X99.203 Y107.123 E0.00164
G1 X98.921 Y107.123 E0.00163
G0 F3600 X98.852 Y107.054
G0 X98.304 Y107.637
G0 X98.415 Y107.748
G1 F1800 X98.415 Y108.031 E0.00261
G1 X98.415 Y108.314 E0.00261
G1 X98.415 Y108.597 E0.00261
G1 X98.415 Y108.88 E0.00261
G1 X98.415 Y109.163 E0.00261
G1 X98.415 Y109.446 E0.00261
G1 X98.415 Y109.728 E0.0026
G1 X98.415 Y110.011 E0.00261
G1 X98.415 Y110.294 E0.00261
G1 X98.415 Y110.577 E0.00261
G1 X98.415 Y110.86 E0.0026
G1 X98.415 Y111.143 E0.0026
G1 X98.415 Y111.426 E0.0026
G1 X98.415 Y111.709 E0.0026
G1 X98.415 Y111.991 E0.00259
G1 X98.416 Y112.275 E0.00259
G1 X98.416 Y112.558 E0.00259
G1 X98.416 Y112.841 E0.00259
G1 X98.416 Y113.123 E0.00258
G1 X98.416 Y113.406 E0.00259
G1 X98.416 Y113.689 E0.00259
G1 X98.416 Y113.972 E0.00259
G1 X98.416 Y114.255 E0.00259
G1 X98.416 Y114.538 E0.00259
G1 X98.416 Y114.821 E0.00259
G1 X98.416 Y115.104 E0.00258
G1 X98.416 Y115.387 E0.00258
G1 X98.416 Y115.67 E0.00258
G1 X98.416 Y115.952 E0.00257
G0 F3600 X98.741 Y116.277
G1 F1800 X99.024 Y116.277 E0.00256
G1 X99.307 Y116.277 E0.00256
G1 X99.59 Y116.278 E0.00256
G1 X99.873 Y116.278 E0.00259
G1 X100.156 Y116.278 E0.00259
G1 X100.439 Y116.278 E0.0026
G1 X100.722 Y116.278 E0.0026
G1 X101.005 Y116.279 E0.00259
G1 X101.401 Y116.392 E0.00394
G1 X101.543 Y116.25 E0.00363
G0 F3600 X101.465 Y116.738
G1 F1800 X101.465 Y117.021 E0.00379
G1 X101.465 Y117.304 E0.00379
G1 X101.465 Y117.587 E0.00379
G1 X101.465 Y117.869 E0.00378
G1 X101.465 Y118.152 E0.00379
G1 X101.465 Y118.435 E0.00379
G1 X101.465 Y118.718 E0.00379
G1 X101.465 Y119.001 E0.00379
G1 X101.465 Y119.284 E0.00379
G1 X101.465 Y119.567 E0.00379
G1 X101.465 Y119.849 E0.00378
G1 X101.465 Y120.132 E0.00379
G1 X101.465 Y120.415 E0.00379
G1 X101.465 Y120.698 E0.00379
G1 X101.465 Y120.981 E0.00379
G1 X101.465 Y121.264 E0.00379
G1 X101.41 Y121.492 E0.00314
G0 F3600 X101.304 Y121.386
G0 X101.793 Y116.002
G0 X98.693 Y116.002
G0 X98.693 Y107.746
G0 X106.949 Y107.746
G0 X106.949 Y116.002
G0 X103.849 Y116.002
G0 X104.016 Y121.269
G0 X104.176 Y121.43
G1 F1800 X104.041 Y121.577 E0.00217
G0 F3600 X104.176 Y121.147
G1 F1800 X104.176 Y120.864 E0.00378
G1 X104.176 Y120.581 E0.00378
G1 X104.176 Y120.298 E0.00378
G1 X104.176 Y120.016 E0.00376
G1 X104.176 Y119.733 E0.00378
G1 X104.176 Y119.45 E0.00378
G1 X104.176 Y119.167 E0.00378
G1 X104.176 Y118.884 E0.00378
G1 X104.176 Y118.601 E0.00378
G1 X104.176 Y118.318 E0.00378
G1 X104.176 Y118.036 E0.00376
G1 X104.176 Y117.753 E0.00378
G1 X104.176 Y117.47 E0.00378
G1 X104.176 Y117.187 E0.00378
G1 X104.176 Y116.904 E0.00378
G1 X104.176 Y116.621 E0.00378
G1 X104.176 Y116.339 E0.00376
G1 X104.4 Y116.279 E0.00322
G1 X104.682 Y116.278 E0.00259
G1 X104.965 Y116.278 E0.0026
G1 X105.247 Y116.278 E0.00259
G1 X105.53 Y116.278 E0.00259
G1 X105.813 Y116.278 E0.00259
G1 X106.095 Y116.277 E0.00257
G1 X106.377 Y116.277 E0.00256
G1 X106.66 Y116.277 E0.00256
G1 X106.943 Y116.277 E0.00256
G1 X107.225 Y116.276 E0.00256
G1 X107.227 Y115.995 E0.00258
G1 X107.227 Y115.712 E0.00261
G1 X107.227 Y115.429 E0.00261
G1 X107.227 Y115.146 E0.00261
G1 X107.226 Y114.863 E0.00259
G1 X107.226 Y114.58 E0.0026
G1 X107.226 Y114.297 E0.0026
G1 X107.226 Y114.014 E0.0026
G1 X107.226 Y113.731 E0.0026
G1 X107.226 Y113.448 E0.00259
G1 X107.226 Y113.165 E0.00259
G1 X107.226 Y112.882 E0.00259
G1 X107.226 Y112.6 E0.00258
G1 X107.225 Y112.317 E0.00256
G1 X107.225 Y112.034 E0.00258
G1 X107.225 Y111.751 E0.00258
G1 X107.225 Y111.468 E0.00258
G1 X107.225 Y111.185 E0.00258
G1 X107.225 Y110.902 E0.00258
G1 X107.225 Y110.619 E0.00258
G1 X107.225 Y110.336 E0.00258
G1 X107.225 Y110.053 E0.00258
G1 X107.225 Y109.77 E0.00256
G1 X107.225 Y109.487 E0.00256
G1 X107.225 Y109.204 E0.00256
G1 X107.225 Y108.922 E0.00256
G1 X107.225 Y108.639 E0.00256
G1 X107.224 Y108.356 E0.00254
G1 X107.224 Y108.073 E0.00255
G1 X107.224 Y107.79 E0.00255
G0 F3600 X106.902 Y107.468
G1 F1800 X106.619 Y107.468 E0.00256
G1 X106.336 Y107.467 E0.00255
G1 X106.053 Y107.467 E0.00258
G1 X105.77 Y107.467 E0.00259
G1 X105.487 Y107.467 E0.00259
G1 X105.204 Y107.466 E0.00258
G1 X104.922 Y107.467 E0.00258
G0 F3600 X104.813 Y107.358
G0 X107.077 Y107.36
;TYPE:SKIN
G1 F1800 X107.333 Y107.616 E0.00301
G0 F3600 X98.693 Y107.746
G0 X98.567 Y116.386
G1 F1800 X98.307 Y116.126 E0.00306
G0 F3600 X98.439 Y116.256
G0 X98.294 Y106.877
;TIME_ELAPSED:23.648298
;LAYER:1
M140 S60
M106 S255
G0 F5400 X98.294 Y106.877 Z0.2
;TYPE:WALL-INNER
G1 F2700 X98.494 Y106.877 E0.00333
G1 X102.321 Y106.874 E0.06364
G1 X102.321 Y103.26 E0.0601
G1 X103.947 Y103.237 E0.02704
G1 X104.826 Y103.242 E0.01462
G1 X104.842 Y103.411 E0.00282
G1 X104.843 Y107.163 E0.0624
G1 X104.843 Y107.351 E0.00313
