;FLAVOR:RepRap
;TIME:4174
;Filament used: 1.84521m
;Layer height: 0.1
;Generated with Cura_SteamEngine 3.0.3
T0
M190 S60
M104 S200
M109 S200
M82 ; absolute extrusion mode
G21 ;metric values
G90 ;absolute positioning
M82 ;set extruder to absolute mode
M107 ;start with the fan off
G28 X0 Y0 ;move X/Y to min endstops
G28 Z0 ;move Z to min endstops
G1 Z15.0 F9000 ;move the platform down 15mm
G92 E0 ;zero the extruded length
G1 F200 E3 ;extrude 3mm of feed stock
G92 E0 ;zero the extruded length again
G1 F9000
;Put printing message on LCD screen
M117 Printing...
M83 ; relative extrusion mode
;LAYER_COUNT:580
;LAYER:0
M107
G0 F3600 X90.913 Y92.9 Z0.1
;TYPE:SKIRT
G1 F1800 X91.432 Y92.414 E0.01182
G1 X91.871 Y92.058 E0.0094
G1 X92.415 Y91.737 E0.0105
G1 X92.867 Y91.517 E0.00836
G1 X93.392 Y91.307 E0.0094
G1 X94.027 Y91.158 E0.01085
G1 X94.743 Y91.051 E0.01204
G1 X95.335 Y91.007 E0.00987
G1 X114.75 Y91.01 E0.32287
G1 X115.486 Y91.079 E0.01229
G1 X116.195 Y91.212 E0.012
G1 X116.742 Y91.355 E0.0094
G1 X117.346 Y91.617 E0.01095
G1 X117.811 Y91.866 E0.00877
G1 X118.29 Y92.167 E0.00941
G1 X118.782 Y92.595 E0.01084
G1 X119.232 Y93.055 E0.0107
G1 X119.598 Y93.486 E0.0094
G1 X119.987 Y94.138 E0.01263
G1 X120.28 Y94.756 E0.01137
G1 X120.486 Y95.283 E0.00941
G1 X120.615 Y95.833 E0.00939
G1 X120.654 Y96.165 E0.00556
G1 X120.738 Y97.262 E0.0183
G1 X120.75 Y97.573 E0.00518
G1 X120.726 Y113.21 E0.26004
G1 X120.685 Y113.774 E0.0094
G1 X120.564 Y114.329 E0.00945
G1 X120.355 Y115.042 E0.01236
G1 X120.159 Y115.572 E0.0094
G1 X119.863 Y116.109 E0.0102
G1 X119.654 Y116.428 E0.00634
G1 X119.311 Y116.878 E0.00941
G1 X118.852 Y117.323 E0.01063
G1 X118.204 Y117.857 E0.01396
G1 X117.743 Y118.185 E0.00941
G1 X117.2 Y118.462 E0.01014
G1 X116.922 Y118.578 E0.00501
G1 X116.387 Y118.758 E0.00939
G1 X115.973 Y118.842 E0.00703
G1 X115.257 Y118.949 E0.01204
G1 X114.665 Y118.993 E0.00987
G1 X95.151 Y118.986 E0.32452
G1 X94.587 Y118.946 E0.0094
G1 X94.13 Y118.853 E0.00776
G1 X93.324 Y118.64 E0.01386
G1 X92.789 Y118.458 E0.0094
G1 X92.255 Y118.183 E0.00999
G1 X91.986 Y118.018 E0.00525
G1 X91.526 Y117.689 E0.00941
G1 X91.218 Y117.405 E0.00697
G1 X90.767 Y116.944 E0.01073
G1 X90.401 Y116.513 E0.0094
G1 X90.064 Y115.966 E0.01068
G1 X89.801 Y115.451 E0.00962
G1 X89.58 Y114.931 E0.0094
G1 X89.48 Y114.594 E0.00585
G1 X89.422 Y114.36 E0.00401
G1 X89.326 Y113.803 E0.0094
G1 X89.305 Y113.408 E0.00658
G1 X89.264 Y96.912 E0.27433
G1 X89.303 Y96.348 E0.0094
G1 X89.397 Y95.878 E0.00797
G1 X89.61 Y95.074 E0.01383
G1 X89.793 Y94.539 E0.0094
G1 X90.064 Y94.011 E0.00987
G1 X90.234 Y93.733 E0.00542
G1 X90.563 Y93.273 E0.00941
G1 X90.913 Y92.9 E0.00851
G0 F3600 X91.186 Y93.192
G1 F1800 X91.705 Y92.706 E0.01182
G1 X92.123 Y92.37 E0.00892
G1 X92.59 Y92.097 E0.009
G1 X93.042 Y91.877 E0.00836
G1 X93.541 Y91.679 E0.00893
G1 X94.086 Y91.554 E0.0093
G1 X94.802 Y91.447 E0.01204
G1 X95.335 Y91.407 E0.00889
G1 X114.75 Y91.41 E0.32287
G1 X115.413 Y91.472 E0.01107
G1 X116.122 Y91.605 E0.012
G1 X116.64 Y91.743 E0.00891
G1 X117.157 Y91.969 E0.00938
G1 X117.622 Y92.218 E0.00877
G1 X118.075 Y92.506 E0.00893
G1 X118.496 Y92.875 E0.00931
G1 X118.946 Y93.335 E0.0107
G1 X119.292 Y93.745 E0.00892
G1 X119.626 Y94.31 E0.01091
G1 X119.919 Y94.928 E0.01137
G1 X120.112 Y95.428 E0.00891
G1 X120.255 Y96.195 E0.01298
G1 X120.339 Y97.292 E0.0183
G1 X120.35 Y97.573 E0.00468
G1 X120.326 Y113.21 E0.26004
G1 X120.285 Y113.744 E0.00891
G1 X120.181 Y114.217 E0.00805
G1 X119.972 Y114.93 E0.01236
G1 X119.783 Y115.432 E0.00892
G1 X119.528 Y115.89 E0.00872
G1 X119.319 Y116.209 E0.00634
G1 X118.993 Y116.634 E0.00891
G1 X118.597 Y117.014 E0.00913
G1 X117.949 Y117.548 E0.01396
G1 X117.511 Y117.857 E0.00891
G1 X117.046 Y118.092 E0.00866
G1 X116.768 Y118.208 E0.00501
G1 X116.259 Y118.377 E0.00892
G1 X115.914 Y118.446 E0.00585
G1 X115.198 Y118.553 E0.01204
G1 X114.665 Y118.593 E0.00889
G1 X95.151 Y118.586 E0.32452
G1 X94.616 Y118.546 E0.00892
G1 X94.232 Y118.467 E0.00652
G1 X93.426 Y118.254 E0.01386
G1 X92.919 Y118.078 E0.00893
G1 X92.464 Y117.842 E0.00852
G1 X92.195 Y117.677 E0.00525
G1 X91.76 Y117.363 E0.00892
G1 X91.504 Y117.126 E0.0058
G1 X91.053 Y116.665 E0.01073
G1 X90.707 Y116.254 E0.00893
G1 X90.42 Y115.784 E0.00916
G1 X90.157 Y115.269 E0.00962
G1 X89.949 Y114.775 E0.00891
G1 X89.869 Y114.498 E0.00479
G1 X89.811 Y114.264 E0.00401
G1 X89.721 Y113.735 E0.00892
G1 X89.705 Y113.407 E0.00546
G1 X89.664 Y96.911 E0.27433
G1 X89.703 Y96.376 E0.00892
G1 X89.784 Y95.98 E0.00672
G1 X89.997 Y95.176 E0.01383
G1 X90.173 Y94.669 E0.00893
G1 X90.406 Y94.22 E0.00841
G1 X90.576 Y93.942 E0.00542
G1 X90.889 Y93.506 E0.00893
G1 X91.186 Y93.192 E0.00719
G0 F3600 X91.46 Y93.484
G1 F1800 X91.979 Y92.998 E0.01182
G1 X92.374 Y92.683 E0.0084
G1 X92.766 Y92.457 E0.00752
G1 X93.218 Y92.237 E0.00836
G1 X93.688 Y92.052 E0.0084
G1 X94.145 Y91.949 E0.00779
G1 X94.861 Y91.842 E0.01204
G1 X95.334 Y91.807 E0.00789
G1 X114.749 Y91.81 E0.32287
G1 X115.339 Y91.865 E0.00985
G1 X116.048 Y91.998 E0.012
G1 X116.536 Y92.13 E0.00841
G1 X116.969 Y92.322 E0.00788
G1 X117.434 Y92.571 E0.00877
G1 X117.859 Y92.844 E0.0084
G1 X118.21 Y93.154 E0.00779
G1 X118.66 Y93.614 E0.0107
G1 X118.984 Y94.002 E0.00841
G1 X119.264 Y94.481 E0.00923
G1 X119.557 Y95.099 E0.01137
G1 X119.737 Y95.572 E0.00842
G1 X119.857 Y96.226 E0.01106
G1 X119.941 Y97.323 E0.0183
G1 X119.95 Y97.572 E0.00414
G1 X119.926 Y113.209 E0.26004
G1 X119.885 Y113.713 E0.00841
G1 X119.797 Y114.104 E0.00667
G1 X119.588 Y114.817 E0.01236
G1 X119.408 Y115.29 E0.00842
G1 X119.194 Y115.671 E0.00727
G1 X118.985 Y115.99 E0.00634
G1 X118.675 Y116.389 E0.0084
G1 X118.343 Y116.706 E0.00763
G1 X117.695 Y117.24 E0.01396
G1 X117.281 Y117.529 E0.0084
G1 X116.892 Y117.723 E0.00723
G1 X116.614 Y117.839 E0.00501
G1 X116.134 Y117.996 E0.0084
G1 X115.855 Y118.051 E0.00473
G1 X115.139 Y118.158 E0.01204
G1 X114.665 Y118.193 E0.0079
G1 X95.151 Y118.186 E0.32452
G1 X94.647 Y118.146 E0.00841
G1 X94.334 Y118.08 E0.00532
G1 X93.528 Y117.867 E0.01386
G1 X93.051 Y117.699 E0.00841
G1 X92.673 Y117.501 E0.0071
G1 X92.404 Y117.336 E0.00525
G1 X91.995 Y117.038 E0.00842
G1 X91.79 Y116.846 E0.00467
G1 X91.339 Y116.385 E0.01073
G1 X91.015 Y115.997 E0.00841
G1 X90.776 Y115.602 E0.00768
G1 X90.513 Y115.087 E0.00962
G1 X90.257 Y114.402 E0.01216
G1 X90.199 Y114.168 E0.00401
G1 X90.117 Y113.669 E0.00841
G1 X90.105 Y113.406 E0.00438
G1 X90.064 Y96.91 E0.27433
G1 X90.103 Y96.406 E0.00841
G1 X90.171 Y96.083 E0.00549
G1 X90.384 Y95.279 E0.01383
G1 X90.551 Y94.802 E0.0084
G1 X90.747 Y94.429 E0.00701
G1 X90.917 Y94.151 E0.00542
G1 X91.214 Y93.741 E0.00842
G1 X91.46 Y93.484 E0.00592
G1 F1500 E-6.5
G0 F3600 X93.301 Y95.189
G0 X94.276 Y96.026
G0 X94.545 Y96.295
;TYPE:WALL-INNER
G1 F1500 E6.5
G1 F1800 X94.661 Y96.195 E0.00255
G1 X94.799 Y96.111 E0.00269
G1 X94.94 Y96.052 E0.00254
G1 X95.094 Y96.016 E0.00263
G1 X95.291 Y96 E0.00329
G1 X114.709 Y96 E0.32292
G1 X114.906 Y96.016 E0.00329
G1 X115.06 Y96.052 E0.00263
G1 X115.201 Y96.111 E0.00254
G1 X115.339 Y96.195 E0.00269
G1 X115.455 Y96.295 E0.00255
G1 X115.555 Y96.411 E0.00255
G1 X115.639 Y96.549 E0.00269
G1 X115.698 Y96.69 E0.00254
G1 X115.734 Y96.844 E0.00263
G1 X115.75 Y97.039 E0.00325
G1 X115.75 Y112.961 E0.26478
G1 X115.734 Y113.156 E0.00325
G1 X115.698 Y113.31 E0.00263
G1 X115.639 Y113.451 E0.00254
G1 X115.555 Y113.589 E0.00269
G1 X115.455 Y113.705 E0.00255
G1 X115.339 Y113.805 E0.00255
G1 X115.201 Y113.889 E0.00269
G1 X115.06 Y113.948 E0.00254
G1 X114.906 Y113.984 E0.00263
G1 X114.709 Y114 E0.00329
G1 X95.291 Y114 E0.32292
G1 X95.094 Y113.984 E0.00329
G1 X94.94 Y113.948 E0.00263
G1 X94.799 Y113.889 E0.00254
G1 X94.661 Y113.805 E0.00269
G1 X94.545 Y113.705 E0.00255
G1 X94.445 Y113.589 E0.00255
G1 X94.361 Y113.451 E0.00269
G1 X94.302 Y113.31 E0.00254
G1 X94.266 Y113.156 E0.00263
G1 X94.25 Y112.961 E0.00325
G1 X94.25 Y97.039 E0.26478
G1 X94.266 Y96.844 E0.00325
G1 X94.302 Y96.69 E0.00263
G1 X94.361 Y96.549 E0.00254
G1 X94.445 Y96.411 E0.00269
G1 X94.545 Y96.295 E0.00255
G0 F3600 X96.616 Y102.768
G1 F1800 X96.257 Y102.992 E0.00704
G1 X95.939 Y103.272 E0.00705
G1 X95.67 Y103.606 E0.00713
G1 X95.467 Y103.976 E0.00702
G1 X95.325 Y104.374 E0.00703
G1 X95.255 Y104.795 E0.0071
G1 X95.256 Y105.218 E0.00703
G1 X95.329 Y105.637 E0.00707
G1 X95.472 Y106.04 E0.00711
G1 X95.68 Y106.408 E0.00703
G1 X95.947 Y106.738 E0.00706
G1 X96.269 Y107.018 E0.0071
G1 X96.629 Y107.238 E0.00702
G1 X97.023 Y107.395 E0.00705
G1 X97.438 Y107.483 E0.00705
G1 X97.863 Y107.501 E0.00707
G1 X98.285 Y107.445 E0.00708
G1 X98.691 Y107.32 E0.00706
G1 X99.069 Y107.127 E0.00706
G1 X99.409 Y106.874 E0.00705
G1 X99.7 Y106.568 E0.00702
G1 X99.939 Y106.217 E0.00706
G1 X100.113 Y105.826 E0.00712
G1 X100.218 Y105.419 E0.00699
G1 X100.255 Y104.994 E0.00709
G1 X100.215 Y104.567 E0.00713
G1 X100.107 Y104.161 E0.00699
G1 X99.933 Y103.773 E0.00707
G1 X99.693 Y103.422 E0.00707
G1 X99.398 Y103.114 E0.00709
G1 X99.054 Y102.864 E0.00707
G1 X98.678 Y102.675 E0.007
G1 X98.272 Y102.553 E0.00705
G1 X97.85 Y102.498 E0.00708
G1 X97.422 Y102.518 E0.00713
G1 X97.01 Y102.61 E0.00702
G1 X96.616 Y102.768 E0.00706
G0 F3600 X110.17 Y103.606
G1 F1800 X109.967 Y103.976 E0.00702
G1 X109.825 Y104.374 E0.00703
G1 X109.758 Y104.771 E0.0067
G1 X109.75 Y105.006 E0.00391
G1 X109.761 Y105.239 E0.00388
G1 X109.829 Y105.635 E0.00668
G1 X109.972 Y106.04 E0.00714
G1 X110.18 Y106.408 E0.00703
G1 X110.447 Y106.738 E0.00706
G1 X110.769 Y107.018 E0.0071
G1 X111.129 Y107.238 E0.00702
G1 X111.523 Y107.395 E0.00705
G1 X111.938 Y107.483 E0.00705
G1 X112.363 Y107.501 E0.00707
G1 X112.785 Y107.445 E0.00708
G1 X113.191 Y107.32 E0.00706
G1 X113.569 Y107.127 E0.00706
G1 X113.909 Y106.874 E0.00705
G1 X114.2 Y106.568 E0.00702
G1 X114.439 Y106.217 E0.00706
G1 X114.613 Y105.826 E0.00712
G1 X114.718 Y105.419 E0.00699
G1 X114.755 Y104.994 E0.00709
G1 X114.715 Y104.567 E0.00713
G1 X114.607 Y104.161 E0.00699
G1 X114.433 Y103.773 E0.00707
G1 X114.193 Y103.422 E0.00707
G1 X113.898 Y103.114 E0.00709
G1 X113.554 Y102.864 E0.00707
G1 X113.178 Y102.675 E0.007
G1 X112.772 Y102.553 E0.00705
G1 X112.35 Y102.498 E0.00708
G1 X111.922 Y102.518 E0.00713
G1 X111.51 Y102.61 E0.00702
G1 X111.116 Y102.768 E0.00706
G1 X110.757 Y102.992 E0.00704
G1 X110.439 Y103.272 E0.00705
G1 X110.17 Y103.606 E0.00713
G0 F3600 X110.504 Y103.829
G1 F1800 X110.333 Y104.14 E0.0059
G1 X110.214 Y104.475 E0.00591
G1 X110.157 Y104.812 E0.00568
G1 X110.15 Y105.004 E0.0032
G1 X110.159 Y105.196 E0.0032
G1 X110.217 Y105.534 E0.0057
G1 X110.337 Y105.873 E0.00598
G1 X110.512 Y106.182 E0.00591
G1 X110.736 Y106.459 E0.00592
G1 X111.006 Y106.694 E0.00595
G1 X111.309 Y106.879 E0.0059
G1 X111.64 Y107.011 E0.00593
G1 X111.988 Y107.085 E0.00592
G1 X112.345 Y107.1 E0.00594
G1 X112.699 Y107.053 E0.00594
G1 X113.04 Y106.948 E0.00593
G1 X113.357 Y106.786 E0.00592
G1 X113.643 Y106.573 E0.00593
G1 X113.888 Y106.316 E0.0059
G1 X114.088 Y106.022 E0.00591
G1 X114.234 Y105.694 E0.00597
G1 X114.322 Y105.351 E0.00589
G1 X114.353 Y104.995 E0.00594
G1 X114.32 Y104.637 E0.00598
G1 X114.229 Y104.295 E0.00589
G1 X114.083 Y103.97 E0.00593
G1 X113.881 Y103.675 E0.00595
G1 X113.634 Y103.417 E0.00594
G1 X113.345 Y103.207 E0.00594
G1 X113.029 Y103.048 E0.00588
G1 X112.688 Y102.945 E0.00592
G1 X112.334 Y102.899 E0.00594
G1 X111.975 Y102.916 E0.00598
G1 X111.629 Y102.993 E0.00589
G1 X111.298 Y103.126 E0.00593
G1 X110.996 Y103.314 E0.00592
G1 X110.729 Y103.549 E0.00592
G1 X110.504 Y103.829 E0.00597
G0 F3600 X110.421 Y103.774
G0 X116.051 Y97.023
G0 X116.15 Y97.019
G1 F1800 X116.15 Y112.981 E0.26545
G1 X116.131 Y113.215 E0.0039
G1 X116.079 Y113.434 E0.00374
G1 X115.995 Y113.636 E0.00364
G1 X115.881 Y113.823 E0.00364
G1 X115.738 Y113.988 E0.00363
G1 X115.573 Y114.131 E0.00363
G1 X115.386 Y114.245 E0.00364
G1 X115.184 Y114.329 E0.00364
G1 X114.965 Y114.381 E0.00374
G1 X114.729 Y114.4 E0.00394
G1 X95.271 Y114.4 E0.32359
G1 X95.035 Y114.381 E0.00394
G1 X94.816 Y114.329 E0.00374
G1 X94.614 Y114.245 E0.00364
G1 X94.427 Y114.131 E0.00364
G1 X94.262 Y113.988 E0.00363
G1 X94.119 Y113.823 E0.00363
G1 X94.005 Y113.636 E0.00364
G1 X93.921 Y113.434 E0.00364
G1 X93.869 Y113.215 E0.00374
G1 X93.85 Y112.981 E0.0039
G1 X93.85 Y97.019 E0.26545
G1 X93.869 Y96.785 E0.0039
G1 X93.921 Y96.566 E0.00374
G1 X94.005 Y96.364 E0.00364
G1 X94.119 Y96.177 E0.00364
G1 X94.262 Y96.012 E0.00363
G1 X94.427 Y95.869 E0.00363
G1 X94.614 Y95.755 E0.00364
G1 X94.816 Y95.671 E0.00364
G1 X95.035 Y95.619 E0.00374
G1 X95.271 Y95.6 E0.00394
G1 X114.729 Y95.6 E0.32359
G1 X114.965 Y95.619 E0.00394
G1 X115.184 Y95.671 E0.00374
G1 X115.386 Y95.755 E0.00364
G1 X115.573 Y95.869 E0.00364
G1 X115.738 Y96.012 E0.00363
G1 X115.881 Y96.177 E0.00363
G1 X115.995 Y96.364 E0.00364
G1 X116.079 Y96.566 E0.00364
G1 X116.131 Y96.785 E0.00374
G1 X116.15 Y97.019 E0.0039
G0 F3600 X116.051 Y97.023
G0 X99.918 Y104.62
G0 X99.82 Y104.637
G1 F1800 X99.729 Y104.295 E0.00589
G1 X99.583 Y103.97 E0.00593
G1 X99.381 Y103.675 E0.00595
G1 X99.134 Y103.417 E0.00594
G1 X98.845 Y103.207 E0.00594
G1 X98.529 Y103.048 E0.00588
G1 X98.188 Y102.945 E0.00592
G1 X97.834 Y102.899 E0.00594
G1 X97.475 Y102.916 E0.00598
G1 X97.129 Y102.993 E0.00589
G1 X96.798 Y103.126 E0.00593
G1 X96.496 Y103.314 E0.00592
G1 X96.229 Y103.549 E0.00592
G1 X96.004 Y103.829 E0.00597
G1 X95.833 Y104.14 E0.0059
G1 X95.714 Y104.475 E0.00591
G1 X95.655 Y104.828 E0.00595
G1 X95.656 Y105.183 E0.0059
G1 X95.717 Y105.535 E0.00594
G1 X95.837 Y105.873 E0.00596
G1 X96.012 Y106.182 E0.00591
G1 X96.236 Y106.459 E0.00592
G1 X96.506 Y106.694 E0.00595
G1 X96.809 Y106.879 E0.0059
G1 X97.14 Y107.011 E0.00593
G1 X97.488 Y107.085 E0.00592
G1 X97.845 Y107.1 E0.00594
G1 X98.199 Y107.053 E0.00594
G1 X98.54 Y106.948 E0.00593
G1 X98.857 Y106.786 E0.00592
G1 X99.143 Y106.573 E0.00593
G1 X99.388 Y106.316 E0.0059
G1 X99.588 Y106.022 E0.00591
G1 X99.734 Y105.694 E0.00597
G1 X99.822 Y105.351 E0.00589
G1 X99.853 Y104.995 E0.00594
G1 X99.82 Y104.637 E0.00598
G0 F3600 X99.918 Y104.62
G0 X99.617 Y103.951
G0 X99.16 Y103.387
G0 X98.543 Y103.011
G0 X97.835 Y102.86
G0 X97.421 Y102.826
G0 X97.528 Y103.314
;TYPE:WALL-OUTER
G1 F1800 X97.248 Y103.376 E0.00477
G1 X96.98 Y103.484 E0.00481
G1 X96.735 Y103.636 E0.00479
G1 X96.519 Y103.826 E0.00478
G1 X96.338 Y104.052 E0.00482
G1 X96.199 Y104.304 E0.00479
G1 X96.103 Y104.576 E0.0048
G1 X96.055 Y104.861 E0.00481
G1 X96.056 Y105.148 E0.00477
G1 X96.105 Y105.433 E0.00481
G1 X96.202 Y105.706 E0.00482
G1 X96.344 Y105.956 E0.00478
G1 X96.525 Y106.18 E0.00479
G1 X96.743 Y106.37 E0.00481
G1 X96.989 Y106.52 E0.00479
G1 X97.257 Y106.627 E0.0048
G1 X97.538 Y106.687 E0.00478
G1 X97.827 Y106.699 E0.00481
G1 X98.113 Y106.661 E0.0048
G1 X98.389 Y106.576 E0.0048
G1 X98.645 Y106.445 E0.00478
G1 X98.877 Y106.273 E0.0048
G1 X99.075 Y106.064 E0.00479
G1 X99.237 Y105.826 E0.00479
G1 X99.355 Y105.562 E0.00481
G1 X99.426 Y105.284 E0.00477
G1 X99.451 Y104.996 E0.00481
G1 X99.425 Y104.707 E0.00483
G1 X99.351 Y104.429 E0.00478
G1 X99.233 Y104.166 E0.00479
G1 X99.07 Y103.928 E0.0048
G1 X98.87 Y103.72 E0.0048
G1 X98.636 Y103.55 E0.00481
G1 X98.38 Y103.421 E0.00477
G1 X98.104 Y103.337 E0.0048
G1 X97.818 Y103.3 E0.0048
G1 X97.528 Y103.314 E0.00483
G0 F3600 X97.333 Y103.357
G0 X97.226 Y102.869
G0 X111.921 Y102.826
G0 X112.028 Y103.314
G1 F1800 X111.748 Y103.376 E0.00477
G1 X111.48 Y103.484 E0.00481
G1 X111.235 Y103.636 E0.00479
G1 X111.019 Y103.826 E0.00478
G1 X110.838 Y104.052 E0.00482
G1 X110.699 Y104.304 E0.00479
G1 X110.603 Y104.576 E0.0048
G1 X110.556 Y104.854 E0.00469
G1 X110.55 Y105.003 E0.00248
G1 X110.557 Y105.153 E0.0025
G1 X110.605 Y105.433 E0.00472
G1 X110.702 Y105.706 E0.00482
G1 X110.844 Y105.956 E0.00478
G1 X111.025 Y106.18 E0.00479
G1 X111.243 Y106.37 E0.00481
G1 X111.489 Y106.52 E0.00479
G1 X111.757 Y106.627 E0.0048
G1 X112.038 Y106.687 E0.00478
G1 X112.327 Y106.699 E0.00481
G1 X112.613 Y106.661 E0.0048
G1 X112.889 Y106.576 E0.0048
G1 X113.145 Y106.445 E0.00478
G1 X113.377 Y106.273 E0.0048
G1 X113.575 Y106.064 E0.00479
G1 X113.737 Y105.826 E0.00479
G1 X113.855 Y105.562 E0.00481
G1 X113.926 Y105.284 E0.00477
G1 X113.951 Y104.996 E0.00481
G1 X113.925 Y104.707 E0.00483
