;FLAVOR:RepRap
;TIME:4187
;Filament used: 2.2304m
;Layer height: 0.1
;Generated with Cura_SteamEngine 3.0.3
T0
M190 S60
M104 S200
M109 S200
M82 ; absolute extrusion mode
G21 ;metric values
G90 ;absolute positioning
M82 ;set extruder to absolute mode
M107 ;start with the fan off
G28 X0 Y0 ;move X/Y to min endstops
G28 Z0 ;move Z to min endstops
G1 Z15.0 F9000 ;move the platform down 15mm
G92 E0 ;zero the extruded length
G1 F200 E3 ;extrude 3mm of feed stock
G92 E0 ;zero the extruded length again
G1 F9000
;Put printing message on LCD screen
M117 Printing...
M83 ; relative extrusion mode
;LAYER_COUNT:140
;LAYER:0
M107
G0 F3600 X48.336 Y46.995 Z0.1
;TYPE:SKIRT
G1 F1800 X52.257 Y43.075 E0.0922
G1 X52.663 Y42.725 E0.00891
G1 X53.117 Y42.44 E0.00891
G1 X53.608 Y42.225 E0.00891
G1 X54.126 Y42.085 E0.00892
G1 X54.659 Y42.024 E0.00892
G1 X55.195 Y42.043 E0.00892
G1 X55.722 Y42.141 E0.00891
G1 X56.195 Y42.302 E0.00831
G1 X56.6 Y42.472 E0.0073
G1 X57.078 Y42.715 E0.00892
G1 X57.514 Y43.027 E0.00892
G1 X57.752 Y43.245 E0.00537
G1 X131.046 Y116.498 E1.72328
G1 X131.396 Y116.904 E0.00891
G1 X131.682 Y117.358 E0.00892
G1 X131.897 Y117.849 E0.00891
G1 X132.037 Y118.367 E0.00892
G1 X132.098 Y118.9 E0.00892
G1 X132.08 Y119.435 E0.0089
G1 X131.982 Y119.963 E0.00893
G1 X131.807 Y120.47 E0.00892
G1 X131.558 Y120.945 E0.00892
G1 X131.242 Y121.378 E0.00891
G1 X131.046 Y121.59 E0.0048
G1 X126.851 Y125.783 E0.09864
G1 X126.444 Y126.133 E0.00893
G1 X125.991 Y126.419 E0.00891
G1 X125.499 Y126.633 E0.00892
G1 X124.981 Y126.773 E0.00892
G1 X124.449 Y126.834 E0.00891
G1 X123.913 Y126.815 E0.00892
G1 X123.385 Y126.717 E0.00893
G1 X122.879 Y126.542 E0.0089
G1 X122.404 Y126.293 E0.00892
G1 X121.971 Y125.977 E0.00891
G1 X121.76 Y125.783 E0.00477
G1 X48.589 Y52.612 E1.72087
G1 X48.24 Y52.205 E0.00892
G1 X47.894 Y51.634 E0.0111
G1 X47.64 Y51.109 E0.0097
G1 X47.443 Y50.61 E0.00892
G1 X47.323 Y50.088 E0.00891
G1 X47.281 Y49.553 E0.00892
G1 X47.319 Y49.018 E0.00892
G1 X47.436 Y48.495 E0.00891
G1 X47.63 Y47.995 E0.00892
G1 X47.896 Y47.529 E0.00892
G1 X48.336 Y46.995 E0.01151
G0 F3600 X48.619 Y47.278
G1 F1800 X52.54 Y43.358 E0.0922
G1 X52.924 Y43.03 E0.0084
G1 X53.356 Y42.766 E0.00842
G1 X53.823 Y42.574 E0.0084
G1 X54.315 Y42.458 E0.00841
G1 X54.82 Y42.421 E0.00842
G1 X55.323 Y42.464 E0.0084
G1 X56.041 Y42.67 E0.01242
G1 X56.446 Y42.84 E0.0073
G1 X56.895 Y43.072 E0.0084
G1 X57.469 Y43.528 E0.01219
G1 X130.763 Y116.781 E1.72328
G1 X131.091 Y117.165 E0.0084
G1 X131.355 Y117.597 E0.00842
G1 X131.547 Y118.064 E0.0084
G1 X131.664 Y118.556 E0.00841
G1 X131.701 Y119.06 E0.0084
G1 X131.658 Y119.564 E0.00841
G1 X131.537 Y120.055 E0.00841
G1 X131.34 Y120.52 E0.0084
G1 X131.072 Y120.949 E0.00841
G1 X130.763 Y121.307 E0.00786
G1 X126.568 Y125.5 E0.09864
G1 X126.184 Y125.828 E0.0084
G1 X125.752 Y126.092 E0.00842
G1 X125.284 Y126.284 E0.00841
G1 X124.792 Y126.4 E0.00841
G1 X124.288 Y126.437 E0.0084
G1 X123.784 Y126.394 E0.00841
G1 X123.294 Y126.273 E0.00839
G1 X122.828 Y126.075 E0.00842
G1 X122.4 Y125.807 E0.0084
G1 X122.043 Y125.5 E0.00783
G1 X48.872 Y52.329 E1.72087
G1 X48.544 Y51.944 E0.00841
G1 X48.254 Y51.46 E0.00938
G1 X48 Y50.935 E0.0097
G1 X47.817 Y50.464 E0.0084
G1 X47.71 Y49.969 E0.00842
G1 X47.682 Y49.465 E0.00839
G1 X47.734 Y48.962 E0.00841
G1 X47.864 Y48.473 E0.00841
G1 X48.07 Y48.012 E0.0084
G1 X48.346 Y47.588 E0.00841
G1 X48.619 Y47.278 E0.00687
G1 F3600 E-5
G0 F3600 X50.68 Y48.753
G0 X51.586 Y49.656
G0 X52.127 Y49.66
;TYPE:WALL-INNER
G1 F3600 E5
G1 F1800 X54.778 Y47.007 E0.06237
G1 X54.919 Y46.866 E0.00332
G1 X55.06 Y47.007 E0.00214
G1 X126.96 Y118.904 E1.69094
G1 X127.101 Y119.045 E0.00332
G1 X126.96 Y119.186 E0.00214
G1 X124.308 Y121.838 E0.06237
G1 X52.127 Y49.66 E1.69755
G0 F3600 X51.589 Y49.688
G1 F1800 X51.567 Y49.654 E0.00067
G1 X54.787 Y46.433 E0.07574
G1 X54.914 Y46.305 E0.003
G1 X54.946 Y46.327 E0.00065
G1 X55.073 Y46.454 E0.00299
G1 X127.526 Y118.904 E1.70395
G1 X127.667 Y119.045 E0.00332
G1 X127.526 Y119.186 E0.00214
G1 X124.308 Y122.404 E0.07568
G1 X51.589 Y49.688 E1.7102
G0 F3600 X51.666 Y49.626
G0 X54.922 Y46.404
G0 X55.109 Y45.954
;TYPE:WALL-OUTER
G1 F1800 X55.204 Y46.019 E0.00191
G1 X128.092 Y118.904 E1.71418
G1 X128.233 Y119.045 E0.00332
G1 X128.092 Y119.186 E0.00214
G1 X124.308 Y122.97 E0.08899
G1 X51.278 Y49.943 E1.71752
G1 X51.218 Y49.852 E0.00181
G1 X51.079 Y49.576 E0.00514
G1 X54.836 Y45.817 E0.08838
G1 X55.109 Y45.954 E0.00508
G0 F3600 X55.204 Y46.019
G0 X55.264 Y46.079
G0 X54.91 Y46.431
G0 X54.919 Y47.43
;TYPE:WALL-INNER
G1 F1800 X126.537 Y119.045 E1.68431
G1 X124.308 Y121.274 E0.05242
G1 X52.691 Y49.66 E1.68429
G1 X54.919 Y47.43 E0.05242
G0 F3600 X52.998 Y49.604
;TYPE:SKIN
G1 F1800 X124.36 Y120.966 E1.67832
G1 X124.43 Y121.036
G0 F3600 X124.643 Y120.684
G1 F1800 X53.281 Y49.321 E1.67834
G1 X53.211 Y49.251
G0 F3600 X53.564 Y49.038
G1 F1800 X124.926 Y120.401 E1.67834
G1 X124.996 Y120.471
G0 F3600 X125.209 Y120.118
G1 F1800 X53.846 Y48.755 E1.67835
G1 X53.776 Y48.685
G0 F3600 X54.129 Y48.472
G1 F1800 X125.492 Y119.835 E1.67835
G1 X125.562 Y119.905
G0 F3600 X125.775 Y119.552
G1 F1800 X54.412 Y48.19 E1.67834
G1 X54.342 Y48.12
G0 F3600 X54.695 Y47.907
G1 F1800 X126.058 Y119.269 E1.67834
G1 X126.128 Y119.339
G0 F3600 X51.784 Y49.577
G0 X51.702 Y49.494
;TIME_ELAPSED:71.598481
;LAYER:1
M140 S60
M106 S255
G0 F5400 X51.702 Y49.494 Z0.2
;TYPE:WALL-INNER
G1 F2700 X51.82 Y49.376 E0.00278
G1 X54.756 Y46.44 E0.06905
G1 X54.799 Y46.474 E0.00091
G1 X127.096 Y118.769 E1.70029
G1 X127.237 Y118.91 E0.00332
G1 X127.096 Y119.051 E0.00214
G1 X124.172 Y121.974 E0.06876
G1 X51.86 Y49.664 E1.70064
G1 X51.742 Y49.546 E0.00278
G1 X51.702 Y49.494 E0.00109
G0 F5400 X51.442 Y49.812
G1 F2700 X51.184 Y49.476 E0.00704
G1 X51.178 Y49.452 E0.00041
G1 X54.716 Y45.914 E0.08321
G1 X54.736 Y45.919 E0.00034
G1 X55.066 Y46.175 E0.00695
G1 X127.662 Y118.769 E1.70732
G1 X127.803 Y118.91 E0.00332
G1 X127.662 Y119.051 E0.00214
G1 X124.172 Y122.54 E0.08207
G1 X51.442 Y49.812 E1.71047
G0 F5400 X51.517 Y49.747
G0 X54.741 Y46.01
G0 X54.699 Y45.496
;TYPE:WALL-OUTER
G1 F1800 X54.882 Y45.545 E0.00315
G1 X54.939 Y45.571 E0.00104
G1 X55.333 Y45.876 E0.00829
G1 X128.228 Y118.769 E1.71436
G1 X128.369 Y118.91 E0.00332
G1 X128.228 Y119.051 E0.00214
G1 X124.172 Y123.106 E0.09538
G1 X51.142 Y50.078 E1.71753
G1 X50.831 Y49.673 E0.00849
G1 X50.81 Y49.625 E0.00087
G1 X50.758 Y49.435 E0.00328
G1 X50.756 Y49.333 E0.0017
G1 X50.779 Y49.284 E0.0009
G1 X54.546 Y45.518 E0.08858
G1 X54.596 Y45.495 E0.00092
G1 X54.699 Y45.496 E0.00171
G0 F5400 X54.882 Y45.545
G0 X54.892 Y45.549
G0 X54.693 Y46.009
G0 X54.761 Y46.999
;TYPE:WALL-INNER
G1 F2700 X126.673 Y118.91 E1.69125
G1 X124.172 Y121.41 E0.05881
G1 X52.26 Y49.5 E1.69124
G1 X54.761 Y46.999 E0.05882
G0 F5400 X54.948 Y47.44
;TYPE:SKIN
G1 F1800 X52.701 Y49.687 E0.05285
G1 X52.631 Y49.757
G0 F5400 X52.984 Y49.97
G1 F1800 X55.231 Y47.723 E0.05285
G1 X55.301 Y47.653
G0 F5400 X55.514 Y48.006
G1 F1800 X53.267 Y50.253 E0.05285
G1 X53.197 Y50.323
G0 F5400 X53.549 Y50.536
G1 F1800 X55.797 Y48.289 E0.05286
G1 X55.867 Y48.219
G0 F5400 X56.079 Y48.571
G1 F1800 X53.832 Y50.819 E0.05286
G1 X53.762 Y50.889
G0 F5400 X54.115 Y51.101
G1 F1800 X56.362 Y48.854 E0.05285
G1 X56.432 Y48.784
G0 F5400 X56.645 Y49.137
G1 F1800 X54.398 Y51.384 E0.05285
G1 X54.328 Y51.454
G0 F5400 X54.681 Y51.667
G1 F1800 X56.928 Y49.42 E0.05285
G1 X56.998 Y49.35
G0 F5400 X57.211 Y49.703
G1 F1800 X54.964 Y51.95 E0.05285
G1 X54.894 Y52.02
G0 F5400 X55.246 Y52.233
G1 F1800 X57.494 Y49.986 E0.05286
G1 X57.564 Y49.916
G0 F5400 X57.776 Y50.268
G1 F1800 X55.529 Y52.516 E0.05286
G1 X55.459 Y52.586
G0 F5400 X55.812 Y52.798
G1 F1800 X58.059 Y50.551 E0.05285
G1 X58.129 Y50.481
G0 F5400 X58.342 Y50.834
G1 F1800 X56.095 Y53.081 E0.05285
G1 X56.025 Y53.151
G0 F5400 X56.378 Y53.364
G1 F1800 X58.625 Y51.117 E0.05285
G1 X58.695 Y51.047
G0 F5400 X58.908 Y51.4
G1 F1800 X56.661 Y53.647 E0.05285
G1 X56.591 Y53.717
G0 F5400 X56.944 Y53.93
G1 F1800 X59.191 Y51.683 E0.05285
G1 X59.261 Y51.613
G0 F5400 X59.474 Y51.965
G1 F1800 X57.226 Y54.213 E0.05287
G1 X57.156 Y54.283
G0 F5400 X57.509 Y54.496
G1 F1800 X59.756 Y52.248 E0.05286
G1 X59.826 Y52.178
G0 F5400 X60.039 Y52.531
G1 F1800 X57.792 Y54.778 E0.05285
G1 X57.722 Y54.848
G0 F5400 X58.075 Y55.061
G1 F1800 X60.322 Y52.814 E0.05285
G1 X60.392 Y52.744
G0 F5400 X60.605 Y53.097
G1 F1800 X58.358 Y55.344 E0.05285
G1 X58.288 Y55.414
G0 F5400 X58.641 Y55.627
G1 F1800 X60.888 Y53.38 E0.05285
G1 X60.958 Y53.31
G0 F5400 X61.171 Y53.663
G1 F1800 X58.923 Y55.91 E0.05286
G1 X58.853 Y55.98
G0 F5400 X59.206 Y56.193
G1 F1800 X61.453 Y53.945 E0.05286
G1 X61.523 Y53.875
G0 F5400 X61.736 Y54.228
G1 F1800 X59.489 Y56.475 E0.05285
G1 X59.419 Y56.545
G0 F5400 X59.772 Y56.758
G1 F1800 X62.019 Y54.511 E0.05285
G1 X62.089 Y54.441
G0 F5400 X62.302 Y54.794
G1 F1800 X60.055 Y57.041 E0.05285
G1 X59.985 Y57.111
G0 F5400 X60.338 Y57.324
G1 F1800 X62.585 Y55.077 E0.05285
G1 X62.655 Y55.007
G0 F5400 X62.868 Y55.36
G1 F1800 X60.62 Y57.607 E0.05286
G1 X60.55 Y57.677
G0 F5400 X60.903 Y57.89
G1 F1800 X63.15 Y55.642 E0.05286
G1 X63.22 Y55.572
G0 F5400 X63.433 Y55.925
G1 F1800 X61.186 Y58.172 E0.05285
G1 X61.116 Y58.242
G0 F5400 X61.469 Y58.455
G1 F1800 X63.716 Y56.208 E0.05285
G1 X63.786 Y56.138
G0 F5400 X63.999 Y56.491
G1 F1800 X61.752 Y58.738 E0.05285
G1 X61.682 Y58.808
G0 F5400 X62.035 Y59.021
G1 F1800 X64.282 Y56.774 E0.05285
G1 X64.352 Y56.704
G0 F5400 X64.565 Y57.057
G1 F1800 X62.318 Y59.304 E0.05285
G1 X62.248 Y59.374
G0 F5400 X62.6 Y59.587
G1 F1800 X64.848 Y57.339 E0.05287
G1 X64.918 Y57.269
G0 F5400 X65.13 Y57.622
G1 F1800 X62.883 Y59.87 E0.05286
G1 X62.813 Y59.94
G0 F5400 X63.166 Y60.152
G1 F1800 X65.413 Y57.905 E0.05285
G1 X65.483 Y57.835
G0 F5400 X65.696 Y58.188
G1 F1800 X63.449 Y60.435 E0.05285
G1 X63.379 Y60.505
G0 F5400 X63.732 Y60.718
G1 F1800 X65.979 Y58.471 E0.05285
G1 X66.049 Y58.401
G0 F5400 X66.262 Y58.754
G1 F1800 X64.015 Y61.001 E0.05285
G1 X63.945 Y61.071
G0 F5400 X64.297 Y61.284
G1 F1800 X66.545 Y59.037 E0.05286
G1 X66.615 Y58.967
G0 F5400 X66.827 Y59.319
G1 F1800 X64.58 Y61.567 E0.05286
G1 X64.51 Y61.637
G0 F5400 X64.863 Y61.849
G1 F1800 X67.11 Y59.602 E0.05285
G1 X67.18 Y59.532
G0 F5400 X67.393 Y59.885
G1 F1800 X65.146 Y62.132 E0.05285
G1 X65.076 Y62.202
G0 F5400 X65.429 Y62.415
G1 F1800 X67.676 Y60.168 E0.05285
G1 X67.746 Y60.098
G0 F5400 X67.959 Y60.451
G1 F1800 X65.712 Y62.698 E0.05285
G1 X65.642 Y62.768
G0 F5400 X65.994 Y62.981
G1 F1800 X68.242 Y60.734 E0.05286
G1 X68.312 Y60.664
G0 F5400 X68.525 Y61.016
G1 F1800 X66.277 Y63.264 E0.05287
G1 X66.207 Y63.334
G0 F5400 X66.56 Y63.546
G1 F1800 X68.807 Y61.299 E0.05285
G1 X68.877 Y61.229
G0 F5400 X69.09 Y61.582
G1 F1800 X66.843 Y63.829 E0.05285
G1 X66.773 Y63.899
G0 F5400 X67.126 Y64.112
G1 F1800 X69.373 Y61.865 E0.05285
G1 X69.443 Y61.795
G0 F5400 X69.656 Y62.148
G1 F1800 X67.409 Y64.395 E0.05285
G1 X67.339 Y64.465
G0 F5400 X67.692 Y64.678
G1 F1800 X69.939 Y62.431 E0.05285
G1 X70.009 Y62.361
G0 F5400 X70.222 Y62.714
G1 F1800 X67.974 Y64.961 E0.05286
G1 X67.904 Y65.031
G0 F5400 X68.257 Y65.244
G1 F1800 X70.504 Y62.996 E0.05286
G1 X70.574 Y62.926
G0 F5400 X70.787 Y63.279
G1 F1800 X68.54 Y65.526 E0.05285
G1 X68.47 Y65.596
G0 F5400 X68.823 Y65.809
G1 F1800 X71.07 Y63.562 E0.05285
G1 X71.14 Y63.492
G0 F5400 X71.353 Y63.845
G1 F1800 X69.106 Y66.092 E0.05285
G1 X69.036 Y66.162
G0 F5400 X69.389 Y66.375
G1 F1800 X71.636 Y64.128 E0.05285
G1 X71.706 Y64.058
G0 F5400 X71.919 Y64.411
G1 F1800 X69.671 Y66.658 E0.05286
G1 X69.601 Y66.728
G0 F5400 X69.954 Y66.941
G1 F1800 X72.201 Y64.693 E0.05286
G1 X72.271 Y64.623
G0 F5400 X72.484 Y64.976
G1 F1800 X70.237 Y67.223 E0.05285
G1 X70.167 Y67.293
G0 F5400 X70.52 Y67.506
G1 F1800 X72.767 Y65.259 E0.05285
G1 X72.837 Y65.189
G0 F5400 X73.05 Y65.542
G1 F1800 X70.803 Y67.789 E0.05285
G1 X70.733 Y67.859
G0 F5400 X71.086 Y68.072
G1 F1800 X73.333 Y65.825 E0.05285
G1 X73.403 Y65.755
G0 F5400 X73.616 Y66.108
G1 F1800 X71.368 Y68.355 E0.05286
G1 X71.298 Y68.425
G0 F5400 X71.651 Y68.638
G1 F1800 X73.899 Y66.39 E0.05287
G1 X73.969 Y66.32
G0 F5400 X74.181 Y66.673
G1 F1800 X71.934 Y68.92 E0.05285
G1 X71.864 Y68.99
G0 F5400 X72.217 Y69.203
G1 F1800 X74.464 Y66.956 E0.05285
G1 X74.534 Y66.886
G0 F5400 X74.747 Y67.239
G1 F1800 X72.5 Y69.486 E0.05285
G1 X72.43 Y69.556
G0 F5400 X72.783 Y69.769
G1 F1800 X75.03 Y67.522 E0.05285
G1 X75.1 Y67.452
G0 F5400 X75.313 Y67.805
G1 F1800 X73.066 Y70.052 E0.05285
G1 X72.996 Y70.122
G0 F5400 X73.348 Y70.335
G1 F1800 X75.596 Y68.088 E0.05286
G1 X75.666 Y68.018
G0 F5400 X75.878 Y68.37
G1 F1800 X73.631 Y70.618 E0.05286
G1 X73.561 Y70.688
G0 F5400 X73.914 Y70.9
G1 F1800 X76.161 Y68.653 E0.05285
G1 X76.231 Y68.583
G0 F5400 X76.444 Y68.936
G1 F1800 X74.197 Y71.183 E0.05285
G1 X74.127 Y71.253
G0 F5400 X74.48 Y71.466
G1 F1800 X76.727 Y69.219 E0.05285
G1 X76.797 Y69.149
G0 F5400 X77.01 Y69.502
G1 F1800 X74.763 Y71.749 E0.05285
G1 X74.693 Y71.819
G0 F5400 X75.045 Y72.032
G1 F1800 X77.293 Y69.785 E0.05286
G1 X77.363 Y69.715
G0 F5400 X77.575 Y70.067
G1 F1800 X75.328 Y72.315 E0.05286
G1 X75.258 Y72.385
G0 F5400 X75.611 Y72.597
G1 F1800 X77.858 Y70.35 E0.05285
G1 X77.928 Y70.28
G0 F5400 X78.141 Y70.633
G1 F1800 X75.894 Y72.88 E0.05285
G1 X75.824 Y72.95
G0 F5400 X76.177 Y73.163
G1 F1800 X78.424 Y70.916 E0.05285
G1 X78.494 Y70.846
G0 F5400 X78.707 Y71.199
G1 F1800 X76.46 Y73.446 E0.05285
G1 X76.39 Y73.516
G0 F5400 X76.743 Y73.729
G1 F1800 X78.99 Y71.482 E0.05285
G1 X79.06 Y71.412
G0 F5400 X79.273 Y71.764
G1 F1800 X77.025 Y74.012 E0.05287
G1 X76.955 Y74.082
G0 F5400 X77.308 Y74.295
G1 F1800 X79.555 Y72.047 E0.05286
G1 X79.625 Y71.977
G0 F5400 X79.838 Y72.33
G1 F1800 X77.591 Y74.577 E0.05285
G1 X77.521 Y74.647
G0 F5400 X77.874 Y74.86
G1 F1800 X80.121 Y72.613 E0.05285
G1 X80.191 Y72.543
G0 F5400 X80.404 Y72.896
G1 F1800 X78.157 Y75.143 E0.05285
G1 X78.087 Y75.213
G0 F5400 X78.44 Y75.426
G1 F1800 X80.687 Y73.179 E0.05285
G1 X80.757 Y73.109
G0 F5400 X80.97 Y73.462
G1 F1800 X78.722 Y75.709 E0.05286
G1 X78.652 Y75.779
G0 F5400 X79.005 Y75.992
G1 F1800 X81.252 Y73.744 E0.05286
G1 X81.322 Y73.674
G0 F5400 X81.535 Y74.027
G1 F1800 X79.288 Y76.274 E0.05285
G1 X79.218 Y76.344
G0 F5400 X79.571 Y76.557
G1 F1800 X81.818 Y74.31 E0.05285
G1 X81.888 Y74.24
G0 F5400 X82.101 Y74.593
G1 F1800 X79.854 Y76.84 E0.05285
G1 X79.784 Y76.91
G0 F5400 X80.137 Y77.123
G1 F1800 X82.384 Y74.876 E0.05285
G1 X82.454 Y74.806
G0 F5400 X82.667 Y75.159
G1 F1800 X80.419 Y77.406 E0.05286
G1 X80.349 Y77.476
G0 F5400 X80.702 Y77.689
G1 F1800 X82.949 Y75.441 E0.05286
G1 X83.019 Y75.371
G0 F5400 X83.232 Y75.724
G1 F1800 X80.985 Y77.971 E0.05285
G1 X80.915 Y78.041
G0 F5400 X81.268 Y78.254
G1 F1800 X83.515 Y76.007 E0.05285
G1 X83.585 Y75.937
G0 F5400 X83.798 Y76.29
G1 F1800 X81.551 Y78.537 E0.05285
G1 X81.481 Y78.607
G0 F5400 X81.834 Y78.82
G1 F1800 X84.081 Y76.573 E0.05285
G1 X84.151 Y76.503
G0 F5400 X84.364 Y76.856
G1 F1800 X82.117 Y79.103 E0.05285
G1 X82.047 Y79.173
G0 F5400 X82.399 Y79.386
G1 F1800 X84.647 Y77.138 E0.05287
G1 X84.717 Y77.068
G0 F5400 X84.929 Y77.421
G1 F1800 X82.682 Y79.669 E0.05286
G1 X82.612 Y79.739
G0 F5400 X82.965 Y79.951
G1 F1800 X85.212 Y77.704 E0.05285
G1 X85.282 Y77.634
G0 F5400 X85.495 Y77.987
G1 F1800 X83.248 Y80.234 E0.05285
G1 X83.178 Y80.304
G0 F5400 X83.531 Y80.517
G1 F1800 X85.778 Y78.27 E0.05285
G1 X85.848 Y78.2
G0 F5400 X86.061 Y78.553
G1 F1800 X83.814 Y80.8 E0.05285
G1 X83.744 Y80.87
G0 F5400 X84.096 Y81.083
G1 F1800 X86.344 Y78.836 E0.05286
G1 X86.414 Y78.766
G0 F5400 X86.626 Y79.118
G1 F1800 X84.379 Y81.366 E0.05286
G1 X84.309 Y81.436
G0 F5400 X84.662 Y81.648
G1 F1800 X86.909 Y79.401 E0.05285
G1 X86.979 Y79.331
G0 F5400 X87.192 Y79.684
G1 F1800 X84.945 Y81.931 E0.05285
G1 X84.875 Y82.001
G0 F5400 X85.228 Y82.214
G1 F1800 X87.475 Y79.967 E0.05285
G1 X87.545 Y79.897
G0 F5400 X87.758 Y80.25
G1 F1800 X85.511 Y82.497 E0.05285
G1 X85.441 Y82.567
G0 F5400 X85.793 Y82.78
G1 F1800 X88.041 Y80.533 E0.05286
G1 X88.111 Y80.463
G0 F5400 X88.324 Y80.815
G1 F1800 X86.076 Y83.063 E0.05287
G1 X86.006 Y83.133
G0 F5400 X86.359 Y83.345
G1 F1800 X88.606 Y81.098 E0.05285
G1 X88.676 Y81.028
