;FLAVOR:RepRap
;TIME:1947
;Filament used: 1.06051m
;Layer height: 0.1
;Generated with Cura_SteamEngine 3.0.3
T0
M190 S60
M104 S200
M109 S200
M82 ; absolute extrusion mode
G21 ;metric values
G90 ;absolute positioning
M82 ;set extruder to absolute mode
M107 ;start with the fan off
G28 X0 Y0 ;move X/Y to min endstops
G28 Z0 ;move Z to min endstops
G1 Z15.0 F9000 ;move the platform down 15mm
G92 E0 ;zero the extruded length
G1 F200 E3 ;extrude 3mm of feed stock
G92 E0 ;zero the extruded length again
G1 F9000
;Put printing message on LCD screen
M117 Printing...
M83 ; relative extrusion mode
;LAYER_COUNT:70
;LAYER:0
M107
G0 F3600 X80.517 Y80.713 Z0.1
;TYPE:SKIRT
G1 F1800 X81 Y80.263 E0.01098
G1 X81.419 Y79.928 E0.00892
G1 X81.882 Y79.658 E0.00891
G1 X82.24 Y79.508 E0.00646
G1 X83.066 Y79.212 E0.01459
G1 X83.582 Y79.069 E0.0089
G1 X84.115 Y79.005 E0.00893
G1 X84.567 Y79.012 E0.00752
G1 X85.28 Y79.069 E0.0119
G1 X85.81 Y79.152 E0.00892
G1 X86.552 Y79.413 E0.01308
G1 X87.195 Y79.722 E0.01186
G1 X87.66 Y79.99 E0.00893
G1 X88.181 Y80.421 E0.01124
G1 X129.46 Y121.675 E0.97052
G1 X129.847 Y122.132 E0.00996
G1 X130.095 Y122.48 E0.00711
G1 X130.373 Y122.938 E0.00891
G1 X130.622 Y123.573 E0.01134
G1 X130.867 Y124.424 E0.01473
G1 X130.977 Y124.949 E0.00892
G1 X131.007 Y125.484 E0.00891
G1 X130.986 Y125.819 E0.00558
G1 X130.921 Y126.402 E0.00976
G1 X130.822 Y126.929 E0.00892
G1 X130.556 Y127.628 E0.01244
G1 X130.204 Y128.324 E0.01297
G1 X129.927 Y128.783 E0.00892
G1 X129.584 Y129.196 E0.00893
G1 X129.333 Y129.433 E0.00574
G1 X128.803 Y129.887 E0.01161
G1 X128.371 Y130.205 E0.00892
G1 X127.896 Y130.454 E0.00892
G1 X127.467 Y130.61 E0.00759
G1 X126.591 Y130.865 E0.01517
G1 X126.067 Y130.976 E0.00891
G1 X125.531 Y131.008 E0.00893
G1 X125.182 Y130.985 E0.00582
G1 X124.605 Y130.92 E0.00966
G1 X124.078 Y130.821 E0.00892
G1 X123.447 Y130.587 E0.01119
G1 X122.803 Y130.277 E0.01189
G1 X122.338 Y130.009 E0.00893
G1 X121.82 Y129.58 E0.01119
G1 X81.11 Y88.914 E0.95692
G1 X81.027 Y88.828 E0.00199
G1 X80.328 Y88.082 E0.017
G1 X79.991 Y87.665 E0.00892
G1 X79.743 Y87.246 E0.0081
G1 X79.487 Y86.74 E0.00943
G1 X79.281 Y86.245 E0.00892
G1 X79.2 Y85.96 E0.00493
G1 X79.102 Y85.554 E0.00695
G1 X79.015 Y85.024 E0.00893
G1 X79.005 Y84.544 E0.00798
G1 X79.033 Y83.934 E0.01016
G1 X79.097 Y83.402 E0.00891
G1 X79.24 Y82.885 E0.00892
G1 X79.352 Y82.609 E0.00495
G1 X79.694 Y81.857 E0.01374
G1 X79.952 Y81.386 E0.00893
G1 X80.276 Y80.96 E0.0089
G1 X80.517 Y80.713 E0.00574
G0 F3600 X80.79 Y81.006
G1 F1800 X81.273 Y80.556 E0.01098
G1 X81.669 Y80.241 E0.00841
G1 X82.109 Y79.993 E0.0084
G1 X82.374 Y79.885 E0.00476
G1 X83.2 Y79.589 E0.01459
G1 X83.688 Y79.456 E0.00841
G1 X84.191 Y79.402 E0.00841
G1 X84.535 Y79.411 E0.00572
G1 X85.248 Y79.468 E0.0119
G1 X85.747 Y79.548 E0.0084
G1 X86.379 Y79.774 E0.01116
G1 X87.022 Y80.083 E0.01186
G1 X87.459 Y80.337 E0.00841
G1 X87.898 Y80.704 E0.00952
G1 X129.177 Y121.958 E0.97052
G1 X129.521 Y122.364 E0.00885
G1 X129.769 Y122.712 E0.00711
G1 X130.029 Y123.145 E0.0084
G1 X130.238 Y123.684 E0.00961
G1 X130.483 Y124.535 E0.01473
G1 X130.584 Y125.03 E0.0084
G1 X130.588 Y125.775 E0.01239
G1 X130.523 Y126.358 E0.00976
G1 X130.428 Y126.854 E0.0084
G1 X130.199 Y127.447 E0.01057
G1 X129.847 Y128.143 E0.01297
G1 X129.583 Y128.575 E0.00842
G1 X129.073 Y129.129 E0.01252
G1 X128.543 Y129.583 E0.01161
G1 X128.134 Y129.881 E0.00842
G1 X127.684 Y130.11 E0.0084
G1 X127.355 Y130.225 E0.0058
G1 X126.479 Y130.48 E0.01517
G1 X125.984 Y130.583 E0.00841
G1 X125.479 Y130.606 E0.00841
G1 X125.227 Y130.588 E0.0042
G1 X124.65 Y130.523 E0.00966
G1 X124.153 Y130.427 E0.00842
G1 X123.62 Y130.226 E0.00947
G1 X122.976 Y129.916 E0.01189
G1 X122.539 Y129.662 E0.00841
G1 X122.102 Y129.297 E0.00947
G1 X81.392 Y88.631 E0.95692
G1 X81.319 Y88.555 E0.00175
G1 X80.62 Y87.809 E0.017
G1 X80.304 Y87.414 E0.00841
G1 X80.1 Y87.066 E0.00671
G1 X79.844 Y86.56 E0.00943
G1 X79.588 Y85.866 E0.0123
G1 X79.49 Y85.46 E0.00695
G1 X79.411 Y84.961 E0.0084
G1 X79.404 Y84.562 E0.00664
G1 X79.432 Y83.952 E0.01016
G1 X79.495 Y83.451 E0.0084
G1 X79.716 Y82.774 E0.01184
G1 X80.058 Y82.022 E0.01374
G1 X80.303 Y81.58 E0.0084
G1 X80.79 Y81.006 E0.01252
G1 F1500 E-6.5
G0 F3600 X82.461 Y82.906
G0 X82.513 Y82.966
G0 X83.626 Y84.231
G0 X83.679 Y84.291
G0 X84.585 Y85.321
G0 X84.735 Y86.587
G0 X85.485 Y86.785
;TYPE:WALL-INNER
G1 F1500 E6.5
G1 F1800 X85.577 Y86.75 E0.00164
G1 X85.75 Y86.649 E0.00333
G1 X85.943 Y86.537 E0.00371
G1 X86.269 Y86.26 E0.00711
G1 X86.543 Y85.934 E0.00708
G1 X86.651 Y85.749 E0.00356
G1 X86.755 Y85.568 E0.00347
G1 X86.785 Y85.487 E0.00144
G1 X86.81 Y85.512
G1 X86.957 Y85.659 E0.00235
G1 X124.396 Y123.097 E0.8805
G1 X124.443 Y123.144 E0.00111
G1 X124.515 Y123.216 E0.00169
G1 X124.24 Y123.347 E0.00167
G1 X124.186 Y123.385 E0.00098
G1 X123.892 Y123.592 E0.00598
G1 X123.592 Y123.892 E0.00706
G1 X123.385 Y124.186 E0.00598
G1 X123.347 Y124.24 E0.0011
G1 X123.216 Y124.514 E0.00505
G1 X123.145 Y124.443
G1 X123.098 Y124.396 E0.00098
G1 X85.655 Y86.955 E0.88058
G1 X85.513 Y86.813 E0.00162
G1 X85.485 Y86.785
G0 F3600 X85.404 Y86.388
G1 F1800 X85.711 Y86.209 E0.00591
G1 X85.984 Y85.977 E0.00596
G1 X86.214 Y85.703 E0.00595
G1 X86.392 Y85.396 E0.0059
G1 X86.487 Y85.142 E0.00451
G1 X86.517 Y85.062 E0.00142
G1 X86.583 Y84.719 E0.00581
G1 X86.72 Y84.856
G1 X86.78 Y84.916 E0.00124
G1 X125.052 Y123.187 E0.90009
G1 X125.206 Y123.341 E0.00362
G1 X125.288 Y123.423 E0.00193
G1 X125.106 Y123.442
G1 X124.895 Y123.502 E0.00264
G1 X124.763 Y123.54 E0.00228
G1 X124.443 Y123.693 E0.0059
G1 X124.151 Y123.899 E0.00594
G1 X123.899 Y124.151 E0.00593
G1 X123.693 Y124.443 E0.00594
G1 X123.54 Y124.763 E0.0059
G1 X123.502 Y124.895 E0.00228
G1 X123.442 Y125.106 E0.00365
G1 X123.423 Y125.287 E0.00303
G1 X123.343 Y125.207
G1 X123.188 Y125.052 E0.00263
G1 X84.915 Y86.781 E0.9001
G1 X84.86 Y86.726 E0.00129
G1 X84.716 Y86.582 E0.00339
G1 X85.071 Y86.515 E0.00196
G1 X85.143 Y86.488 E0.00114
G1 X85.404 Y86.388 E0.00465
G1 F1500 E-6.5
G0 F3600 X85.447 Y86.478
G0 X85.722 Y86.225
G0 X84.979 Y85.172
G0 X85.096 Y83.915
G0 X85.7 Y83.273
;TYPE:WALL-OUTER
G1 F1500 E6.5
G1 F1800 X85.72 Y83.29 E0.00044
G1 X85.764 Y83.334 E0.00103
G1 X85.96 Y83.53 E0.00461
G1 X86.154 Y83.724 E0.00456
G1 X86.336 Y83.906 E0.00428
G1 X86.477 Y84.047 E0.00332
G1 X125.962 Y123.53 E0.9286
G1 X126.007 Y123.575 E0.00106
G1 X126.181 Y123.749 E0.00409
G1 X126.371 Y123.939 E0.00447
G1 X126.567 Y124.135 E0.00461
G1 X126.71 Y124.278 E0.00336
G1 X126.724 Y124.294 E0.00035
G1 X126.895 Y124.496 E0.0044
G1 X127.035 Y124.727 E0.00449
G1 X127.139 Y124.979 E0.00453
G1 X127.202 Y125.238 E0.00443
G1 X127.223 Y125.506 E0.00447
G1 X127.202 Y125.774 E0.00447
G1 X127.139 Y126.035 E0.00447
G1 X127.051 Y126.247 E0.00382
G1 X127.035 Y126.285 E0.00069
G1 X126.895 Y126.516 E0.00449
G1 X126.72 Y126.72 E0.00447
G1 X126.516 Y126.895 E0.00447
G1 X126.285 Y127.035 E0.00449
G1 X126.035 Y127.139 E0.0045
G1 X125.774 Y127.202 E0.00447
G1 X125.506 Y127.223 E0.00447
G1 X125.238 Y127.202 E0.00447
G1 X124.979 Y127.139 E0.00443
G1 X124.727 Y127.035 E0.00453
G1 X124.496 Y126.895 E0.00449
G1 X124.295 Y126.723 E0.0044
G1 X124.28 Y126.71 E0.00033
G1 X124.137 Y126.567 E0.00336
G1 X123.939 Y126.369 E0.00466
G1 X123.75 Y126.18 E0.00444
G1 X123.578 Y126.008 E0.00405
G1 X123.533 Y125.963 E0.00106
G1 X84.045 Y86.477 E0.92867
G1 X83.911 Y86.343 E0.00315
G1 X83.729 Y86.161 E0.00428
G1 X83.533 Y85.965 E0.00461
G1 X83.337 Y85.769 E0.00461
G1 X83.29 Y85.722 E0.00111
G1 X83.276 Y85.706 E0.00035
G1 X83.105 Y85.504 E0.0044
G1 X82.965 Y85.273 E0.00449
G1 X82.86 Y85.019 E0.00457
G1 X82.798 Y84.762 E0.0044
G1 X82.777 Y84.494 E0.00447
G1 X82.798 Y84.226 E0.00447
G1 X82.861 Y83.965 E0.00447
G1 X82.965 Y83.715 E0.0045
G1 X83.105 Y83.484 E0.00449
G1 X83.281 Y83.279 E0.00449
G1 X83.484 Y83.105 E0.00445
G1 X83.715 Y82.965 E0.00449
G1 X83.965 Y82.861 E0.0045
G1 X84.226 Y82.798 E0.00447
G1 X84.494 Y82.777 E0.00447
G1 X84.761 Y82.798 E0.00445
G1 X85.022 Y82.861 E0.00447
G1 X85.273 Y82.965 E0.00452
G1 X85.504 Y83.105 E0.00449
G1 X85.7 Y83.273 E0.00429
G0 F3600 X85.72 Y83.29
G0 X85.764 Y83.334
G0 X85.843 Y83.413
G1 F1500 E-6.5
G0 F3600 X86.612 Y84.814
G0 X86.588 Y84.738
G0 X85.322 Y84.583
G0 X84.367 Y83.669
G0 X84.232 Y82.813
G1 F1500 E6.5
G1 F1800 X83.967 Y82.876
G1 X83.725 Y82.976
G1 X83.493 Y83.119
G1 X83.293 Y83.289
G1 X83.116 Y83.496
G1 X82.98 Y83.72
G1 X82.875 Y83.971
G1 X82.815 Y84.226
G1 X82.793 Y84.497
G1 X82.814 Y84.751
G1 X82.877 Y85.019
G1 X82.978 Y85.266
G1 X83.114 Y85.49
G1 X83.289 Y85.694
G1 X83.303 Y85.707
G1 X83.352 Y85.754
G1 X83.575 Y85.925
G1 X83.83 Y86.06
G1 X84.105 Y86.149 E0.00094
G1 X84.293 Y86.176 E0.00268
G1 X84.39 Y86.191 E0.00163
G1 X84.679 Y86.183 E0.00481
G1 X84.961 Y86.129 E0.00477
G1 X85.231 Y86.026 E0.00481
G1 X85.479 Y85.881 E0.00478
G1 X85.699 Y85.694 E0.0048
G1 X85.885 Y85.472 E0.00482
G1 X86.029 Y85.224 E0.00477
G1 X86.131 Y84.953 E0.00482
G1 X86.185 Y84.67 E0.00479
G1 X86.19 Y84.381 E0.00481
G1 X86.176 Y84.294 E0.00147
G1 X86.147 Y84.097 E0.00279
G1 X86.056 Y83.823 E0.00136
G1 X85.921 Y83.569
G1 X85.751 Y83.348
G1 X85.707 Y83.303
G1 X85.69 Y83.285
G1 X85.495 Y83.118
G1 X85.262 Y82.977
G1 X85.021 Y82.878
G1 X84.76 Y82.813
G1 X84.494 Y82.793
G1 X84.232 Y82.813
G0 F3600 X84.038 Y82.859
G1 F1500 E-6.5
G0 F3600 X84.367 Y83.669
G0 X85.246 Y84.849
G0 X86.41 Y85.404
G0 X125.047 Y123.355
G0 X125.183 Y123.836
G1 F1500 E6.5
G1 F1800 X124.905 Y123.915 E0.00481
G1 X124.646 Y124.039 E0.00478
G1 X124.41 Y124.206 E0.00481
G1 X124.206 Y124.41 E0.0048
G1 X124.039 Y124.646 E0.00481
G1 X123.915 Y124.905 E0.00478
G1 X123.836 Y125.183 E0.00481
G1 X123.805 Y125.47 E0.0048
G1 X123.821 Y125.693 E0.00372
G1 X123.825 Y125.758 E0.00102
G1 X123.89 Y126.039 E0.00276
G1 X124.004 Y126.304
G1 X124.159 Y126.544
G1 X124.294 Y126.698
G1 X124.305 Y126.711
G1 X124.503 Y126.879
G1 X124.735 Y127.023
G1 X124.978 Y127.122
G1 X125.242 Y127.186
G1 X125.504 Y127.206
G1 X125.774 Y127.185
G1 X126.03 Y127.125
G1 X126.281 Y127.02
G1 X126.505 Y126.883
G1 X126.709 Y126.709
G1 X126.884 Y126.505
G1 X127.018 Y126.275
G1 X127.038 Y126.242
G1 X127.124 Y126.03
G1 X127.184 Y125.775
G1 X127.207 Y125.506
G1 X127.187 Y125.243
G1 X127.123 Y124.979
G1 X127.024 Y124.736
G1 X126.88 Y124.504
G1 X126.712 Y124.306
G1 X126.698 Y124.294
G1 X126.544 Y124.159
G1 X126.304 Y124.004
G1 X126.039 Y123.89 E0.00043
G1 X125.758 Y123.825 E0.00308
G1 X125.694 Y123.821 E0.00101
G1 X125.47 Y123.805 E0.00373
G1 X125.183 Y123.836 E0.0048
G0 F3600 X124.991 Y123.89
G0 X124.854 Y123.41
G0 X123.86 Y123.125
;TYPE:WALL-INNER
G1 F1800 X123.634 Y123.284 E0.0046
G1 X123.284 Y123.634 E0.00823
G1 X123.126 Y123.86 E0.00459
G1 X86.146 Y86.882 E0.86969
G1 X86.175 Y86.865 E0.00056
G1 X86.553 Y86.543 E0.00826
G1 X86.881 Y86.147 E0.00855
G1 X123.86 Y123.125 E0.86968
G0 F3600 X123.331 Y123.331
;TYPE:SKIN
G1 F1800 X86.675 Y86.675 E0.86209
G1 X86.605 Y86.605
G0 F3600 X85.163 Y86.889
G0 X85.145 Y86.907
;TIME_ELAPSED:32.534540
;LAYER:1
M140 S60
M106 S255
G0 F5400 X85.145 Y86.907 Z0.2
;TYPE:WALL-INNER
G1 F2700 X85.191 Y86.898 E0.00078
G1 X85.45 Y86.799 E0.00461
G1 X85.59 Y86.745 E0.0025
G1 X85.953 Y86.527 E0.00704
G1 X86.277 Y86.252 E0.00707
G1 X86.549 Y85.924 E0.00709
G1 X86.759 Y85.56 E0.00699
G1 X86.761 Y85.556 E0.00007
G1 X86.909 Y85.149 E0.0072
G1 X87.038 Y85.278
G1 X87.041 Y85.281 E0.00007
G1 X124.683 Y122.921 E0.88526
G1 X124.774 Y123.012 E0.00214
G1 X124.859 Y123.097 E0.002
G1 X124.621 Y123.165 E0.00054
G1 X124.504 Y123.221 E0.00175
G1 X124.24 Y123.347 E0.00486
G1 X123.892 Y123.592 E0.00708
G1 X123.592 Y123.892 E0.00706
G1 X123.347 Y124.24 E0.00708
G1 X123.221 Y124.503 E0.00485
G1 X123.165 Y124.621 E0.00217
G1 X123.097 Y124.857 E0.00408
G1 X123.014 Y124.774
G1 X122.922 Y124.682 E0.00175
G1 X85.36 Y87.122 E0.88338
G1 X85.164 Y86.926 E0.00251
G1 X85.145 Y86.907
G0 F5400 X85.08 Y86.512
G1 F2700 X85.414 Y86.384 E0.00595
G1 X85.719 Y86.201 E0.00592
G1 X85.991 Y85.97 E0.00593
G1 X86.219 Y85.695 E0.00594
G1 X86.397 Y85.386 E0.00593
G1 X86.52 Y85.051 E0.00593
G1 X86.57 Y84.781 E0.00457
G1 X86.584 Y84.701 E0.00135
G1 X86.589 Y84.345 E0.00592
G1 X86.574 Y84.248 E0.00163
G1 X86.629 Y84.303
G1 X86.805 Y84.479 E0.00014
G1 X86.862 Y84.536 E0.00121
G1 X125.443 Y123.115 E0.90734
G1 X125.597 Y123.269 E0.00362
G1 X125.752 Y123.424 E0.00365
G1 X125.462 Y123.404
G1 X125.245 Y123.427 E0.00277
G1 X125.106 Y123.442 E0.00233
G1 X124.763 Y123.54 E0.00593
G1 X124.443 Y123.693 E0.0059
G1 X124.151 Y123.899 E0.00594
G1 X123.899 Y124.151 E0.00593
G1 X123.693 Y124.443 E0.00594
G1 X123.54 Y124.763 E0.0059
G1 X123.442 Y125.106 E0.00593
G1 X123.427 Y125.244 E0.00231
G1 X123.404 Y125.462 E0.00365
G1 X123.423 Y125.749 E0.00478
G1 X123.271 Y125.597
G1 X123.116 Y125.442 E0.00278
G1 X84.534 Y86.862 E0.90737
G1 X84.493 Y86.821 E0.00096
G1 X84.321 Y86.649 E0.00405
G1 X84.246 Y86.574 E0.00176
G1 X84.376 Y86.592
G1 X84.732 Y86.581 E0.00297
G1 X84.789 Y86.57 E0.0009
G1 X85.08 Y86.512 E0.00493
G1 F1500 E-6.5
G0 F5400 X85.107 Y86.608
G0 X85.73 Y86.217
G0 X84.981 Y85.169
G0 X84.375 Y83.668
G0 X84.238 Y82.812
;TYPE:WALL-OUTER
G1 F1500 E6.5
G1 F1800 X83.965 Y82.877 E0.00467
G1 X83.729 Y82.974 E0.00424
G1 X83.49 Y83.121 E0.00467
G1 X83.296 Y83.286 E0.00424
G1 X83.114 Y83.499 E0.00466
G1 X82.981 Y83.718 E0.00426
G1 X82.874 Y83.976 E0.00464
G1 X82.815 Y84.225 E0.00426
G1 X82.794 Y84.505 E0.00467
G1 X82.815 Y84.758 E0.00422
G1 X82.877 Y85.02 E0.00448
G1 X82.979 Y85.267 E0.00444
G1 X83.111 Y85.484 E0.00422
G1 X83.29 Y85.696 E0.00461
G1 X83.36 Y85.76 E0.00158
G1 X83.584 Y85.928 E0.00466
G1 X83.618 Y85.946 E0.00064
G1 X83.837 Y86.062 E0.00412
G1 X84.113 Y86.151 E0.00482
G1 X84.398 Y86.191 E0.00479
G1 X84.687 Y86.182 E0.00481
G1 X84.969 Y86.126 E0.00478
G1 X85.238 Y86.023 E0.00479
G1 X85.485 Y85.875 E0.00479
G1 X85.705 Y85.688 E0.0048
G1 X85.889 Y85.466 E0.0048
G1 X86.033 Y85.216 E0.0048
G1 X86.133 Y84.945 E0.0048
G1 X86.185 Y84.662 E0.00479
G1 X86.189 Y84.373 E0.00481
G1 X86.145 Y84.09 E0.00476
G1 X86.053 Y83.815 E0.00482
G1 X85.946 Y83.62 E0.0037
G1 X85.915 Y83.563 E0.00108
G1 X85.75 Y83.348 E0.00451
G1 X85.703 Y83.299 E0.00113
G1 X85.686 Y83.282 E0.0004
G1 X85.496 Y83.119 E0.00416
G1 X85.256 Y82.974 E0.00466
G1 X85.014 Y82.876 E0.00434
G1 X84.759 Y82.813 E0.00437
G1 X84.493 Y82.793 E0.00444
G1 X84.238 Y82.812 E0.00425
G0 F5400 X84.043 Y82.858
G0 X85.386 Y82.66
G1 F1800 X85.422 Y82.675 E0.0006
G1 X85.433 Y82.681 E0.00021
G1 X85.674 Y82.828 E0.00401
G1 X85.696 Y82.842 E0.0004
G1 X85.715 Y82.858 E0.00041
G1 X85.908 Y83.022 E0.00359
G1 X85.951 Y83.059 E0.00058
G1 X85.994 Y83.102 E0.00079
G1 X86.184 Y83.292 E0.0041
G1 X86.23 Y83.338 E0.00106
G1 X126.663 Y123.769 E0.9509
G1 X126.798 Y123.904 E0.00317
G1 X126.941 Y124.047 E0.00336
G1 X126.974 Y124.086 E0.00085
G1 X127.137 Y124.28 E0.00421
G1 X127.158 Y124.304 E0.00053
G1 X127.168 Y124.321 E0.00033
G1 X127.316 Y124.563 E0.00472
G1 X127.325 Y124.578 E0.00029
G1 X127.337 Y124.608 E0.00054
G1 X127.436 Y124.844 E0.00426
G1 X127.451 Y124.88 E0.00065
G1 X127.454 Y124.896 E0.00027
G1 X127.519 Y125.168 E0.00465
G1 X127.524 Y125.186 E0.00031
G1 X127.526 Y125.22 E0.00057
G1 X127.547 Y125.475 E0.00426
G1 X127.55 Y125.506 E0.00052
G1 X127.549 Y125.53 E0.0004
G1 X127.526 Y125.809 E0.00466
G1 X127.525 Y125.82 E0.00018
G1 X127.516 Y125.858 E0.00065
G1 X127.456 Y126.108 E0.00428
G1 X127.448 Y126.139 E0.00053
G1 X127.441 Y126.157 E0.00032
G1 X127.353 Y126.371 E0.00385
G1 X127.325 Y126.437 E0.00119
G1 X127.175 Y126.681 E0.00476
G1 X127.159 Y126.706 E0.00049
G1 X127.145 Y126.722 E0.00035
G1 X126.97 Y126.929 E0.00451
G1 X126.951 Y126.951 E0.00048
G1 X126.931 Y126.968 E0.00044
G1 X126.725 Y127.143 E0.0045
G1 X126.706 Y127.159 E0.00041
G1 X126.683 Y127.173 E0.00045
G1 X126.467 Y127.306 E0.00422
G1 X126.437 Y127.325 E0.00059
G1 X126.418 Y127.332 E0.00034
G1 X126.159 Y127.439 E0.00466
G1 X126.139 Y127.448 E0.00036
G1 X126.108 Y127.455 E0.00053
G1 X125.859 Y127.515 E0.00426
G1 X125.82 Y127.525 E0.00067
G1 X125.806 Y127.526 E0.00023
G1 X125.528 Y127.548 E0.00464
G1 X125.506 Y127.55 E0.00037
G1 X125.475 Y127.548 E0.00052
G1 X125.219 Y127.527 E0.00427
G1 X125.186 Y127.524 E0.00055
