;FLAVOR:RepRap
;TIME:3742
;Filament used: 2.13852m
;Layer height: 0.1
;Generated with Cura_SteamEngine 3.0.3
T0
M190 S60
M104 S200
M109 S200
M82 ; absolute extrusion mode
G21 ;metric values
G90 ;absolute positioning
M82 ;set extruder to absolute mode
M107 ;start with the fan off
G28 X0 Y0 ;move X/Y to min endstops
G28 Z0 ;move Z to min endstops
G1 Z15.0 F9000 ;move the platform down 15mm
G92 E0 ;zero the extruded length
G1 F200 E3 ;extrude 3mm of feed stock
G92 E0 ;zero the extruded length again
G1 F9000
;Put printing message on LCD screen
M117 Printing...
M83 ; relative extrusion mode
;LAYER_COUNT:70
;LAYER:0
M107
G0 F3600 X43.026 Y40.823 Z0.1
;TYPE:SKIRT
G1 F1800 X45.484 Y38.362 E0.05784
G1 X45.868 Y38.033 E0.00841
G1 X46.3 Y37.77 E0.00841
G1 X46.767 Y37.577 E0.0084
G1 X47.259 Y37.461 E0.00841
G1 X47.763 Y37.423 E0.00841
G1 X48.267 Y37.465 E0.00841
G1 X48.758 Y37.587 E0.00841
G1 X49.224 Y37.783 E0.00841
G1 X49.652 Y38.051 E0.0084
G1 X50.011 Y38.36 E0.00788
G1 X58.545 Y46.894 E0.20071
G1 X58.813 Y47.199 E0.00675
G1 X59.658 Y48.291 E0.02296
G1 X60.787 Y49.723 E0.03033
G1 X64.357 Y53.918 E0.09161
G1 X67.84 Y57.588 E0.08414
G1 X149.104 Y138.865 E1.91136
G1 X149.432 Y139.25 E0.00841
G1 X149.695 Y139.682 E0.00841
G1 X149.888 Y140.149 E0.0084
G1 X150.004 Y140.641 E0.00841
G1 X150.041 Y141.145 E0.0084
G1 X149.998 Y141.649 E0.00841
G1 X149.877 Y142.14 E0.00841
G1 X149.679 Y142.605 E0.0084
G1 X149.411 Y143.034 E0.00841
G1 X149.105 Y143.39 E0.00781
G1 X145.585 Y146.913 E0.08282
G1 X145.2 Y147.241 E0.00841
G1 X144.769 Y147.505 E0.00841
G1 X144.301 Y147.697 E0.00841
G1 X143.809 Y147.814 E0.00841
G1 X143.305 Y147.851 E0.0084
G1 X142.801 Y147.809 E0.00841
G1 X142.311 Y147.687 E0.0084
G1 X141.845 Y147.49 E0.00841
G1 X141.416 Y147.222 E0.00841
G1 X141.058 Y146.914 E0.00785
G1 X44.137 Y49.994 E2.27942
G1 X43.809 Y49.609 E0.00841
G1 X43.546 Y49.178 E0.0084
G1 X43.288 Y48.474 E0.01247
G1 X42.178 Y43.827 E0.07945
G1 X42.099 Y43.328 E0.0084
G1 X42.101 Y42.822 E0.00841
G1 X42.182 Y42.323 E0.00841
G1 X42.34 Y41.843 E0.0084
G1 X42.573 Y41.394 E0.00841
G1 X43.026 Y40.823 E0.01212
G1 F3600 E-5
G0 F3600 X45.238 Y42.182
G0 X46.143 Y43.085
G0 X46.689 Y43.085
;TYPE:WALL-INNER
G1 F3600 E5
G1 F1800 X47.608 Y42.164 E0.02164
G1 X47.749 Y42.023 E0.00332
G1 X47.89 Y42.164 E0.00214
G1 X55.325 Y49.599 E0.17486
G1 X55.347 Y49.855 E0.00427
G1 X55.516 Y50.533 E0.01162
G1 X55.786 Y51.175 E0.01158
G1 X56.152 Y51.767 E0.01157
G1 X56.58 Y52.269 E0.01097
G1 X145.44 Y141.128 E2.08984
G1 X143.461 Y143.11 E0.04658
G1 X143.32 Y143.251 E0.00332
G1 X143.179 Y143.11 E0.00214
G1 X47.804 Y47.736 E2.24306
G1 X49.432 Y46.109 E0.03828
G1 X49.573 Y45.968 E0.00332
G1 X49.432 Y45.827 E0.00214
G1 X46.689 Y43.085 E0.0645
G0 F3600 X46.123 Y43.085
G1 F1800 X47.608 Y41.598 E0.03495
G1 X47.749 Y41.457 E0.00332
G1 X47.89 Y41.598 E0.00214
G1 X55.711 Y49.419 E0.18394
G1 X55.743 Y49.789 E0.00618
G1 X55.897 Y50.406 E0.01058
G1 X56.143 Y50.991 E0.01055
G1 X56.476 Y51.531 E0.01055
G1 X56.874 Y51.997 E0.01019
G1 X146.006 Y141.128 E2.09624
G1 X143.461 Y143.676 E0.05989
G1 X143.32 Y143.817 E0.00332
G1 X143.179 Y143.676 E0.00214
G1 X47.379 Y47.877 E2.25306
G1 X47.238 Y47.736 E0.00332
G1 X47.379 Y47.595 E0.00214
G1 X48.866 Y46.109 E0.03496
G1 X49.007 Y45.968 E0.00332
G1 X48.866 Y45.827 E0.00214
G1 X46.123 Y43.085 E0.0645
G0 F3600 X46.223 Y43.085
G0 X48.795 Y45.616
G0 X48.441 Y45.968
;TYPE:WALL-OUTER
G1 F1800 X48.3 Y45.827 E0.00332
G1 X45.557 Y43.085 E0.0645
G1 X47.608 Y41.032 E0.04826
G1 X47.749 Y40.891 E0.00332
G1 X47.89 Y41.032 E0.00214
G1 X56.097 Y49.239 E0.19302
G1 X56.139 Y49.723 E0.00808
G1 X56.278 Y50.279 E0.00953
G1 X56.5 Y50.808 E0.00954
G1 X56.8 Y51.295 E0.00951
G1 X57.168 Y51.725 E0.00941
G1 X146.572 Y141.128 E2.10263
G1 X143.461 Y144.242 E0.0732
G1 X143.32 Y144.383 E0.00332
G1 X143.179 Y144.242 E0.00214
G1 X46.813 Y47.877 E2.26637
G1 X46.672 Y47.736 E0.00332
G1 X46.813 Y47.595 E0.00214
G1 X48.3 Y46.109 E0.03496
G1 X48.441 Y45.968 E0.00214
G0 F3600 X48.3 Y45.827
G0 X48.654 Y45.475
G0 X50.139 Y45.968
;TYPE:WALL-INNER
G1 F1800 X47.253 Y43.085 E0.06784
G1 X47.75 Y42.588 E0.01169
G1 X54.939 Y49.777 E0.16907
G1 X54.951 Y49.921 E0.0024
G1 X55.136 Y50.659 E0.01265
G1 X55.43 Y51.359 E0.01263
G1 X55.828 Y52.003 E0.01259
G1 X56.286 Y52.541 E0.01175
G1 X144.876 Y141.128 E2.08347
G1 X143.319 Y142.686 E0.03663
G1 X48.369 Y47.737 E2.23307
G1 X50.139 Y45.968 E0.04162
G0 F3600 X48.745 Y47.614
;TYPE:SKIN
G1 F1800 X143.44 Y142.309 E2.22708
G1 X143.51 Y142.379
G0 F3600 X143.723 Y142.026
G1 F1800 X49.028 Y47.331 E2.22708
G1 X48.958 Y47.261
G0 F3600 X49.311 Y47.048
G1 F1800 X144.006 Y141.743 E2.22708
G1 X144.076 Y141.813
G0 F3600 X144.289 Y141.46
G1 F1800 X49.595 Y46.766 E2.22706
G1 X49.525 Y46.696
G0 F3600 X49.877 Y46.483
G1 F1800 X144.572 Y141.178 E2.22708
G1 X144.642 Y141.248
G0 F3600 X55.173 Y51.213
G1 F1800 X50.16 Y46.2 E0.1179
G1 X50.09 Y46.13
G0 F3600 X47.558 Y43.033
G1 F1800 X54.87 Y50.345 E0.17197
G1 X54.94 Y50.415
G0 F3600 X46.476 Y42.872
G0 X46.395 Y42.79
;TIME_ELAPSED:75.600088
;LAYER:1
M140 S60
M106 S255
G0 F5400 X46.395 Y42.79 Z0.2
;TYPE:WALL-INNER
G1 F2700 X47.314 Y41.87 E0.02163
G1 X47.455 Y41.729 E0.00332
G1 X47.596 Y41.87 E0.00214
G1 X55.325 Y49.599 E0.18177
G1 X55.347 Y49.855 E0.00427
G1 X55.516 Y50.533 E0.01162
G1 X55.786 Y51.175 E0.01158
G1 X56.152 Y51.767 E0.01157
G1 X56.58 Y52.269 E0.01097
G1 X145.735 Y141.423 E2.09678
G1 X143.755 Y143.405 E0.04659
G1 X143.614 Y143.546 E0.00332
G1 X143.473 Y143.405 E0.00214
G1 X47.945 Y47.877 E2.24667
G1 X47.804 Y47.736 E0.00332
G1 X47.945 Y47.595 E0.00214
G1 X49.432 Y46.109 E0.03496
G1 X49.573 Y45.968 E0.00332
G1 X49.432 Y45.827 E0.00214
G1 X46.395 Y42.79 E0.07143
G0 F5400 X45.829 Y42.79
G1 F2700 X47.314 Y41.304 E0.03494
G1 X47.455 Y41.163 E0.00332
G1 X47.596 Y41.304 E0.00214
G1 X55.711 Y49.419 E0.19085
G1 X55.743 Y49.789 E0.00618
G1 X55.897 Y50.406 E0.01058
G1 X56.143 Y50.991 E0.01055
G1 X56.476 Y51.531 E0.01055
G1 X56.874 Y51.997 E0.01019
G1 X146.301 Y141.423 E2.10317
G1 X143.755 Y143.971 E0.0599
G1 X143.614 Y144.112 E0.00332
G1 X143.473 Y143.971 E0.00214
G1 X47.379 Y47.877 E2.25998
G1 X47.238 Y47.736 E0.00332
G1 X47.379 Y47.595 E0.00214
G1 X48.866 Y46.109 E0.03496
G1 X49.007 Y45.968 E0.00332
G1 X48.866 Y45.827 E0.00214
G1 X45.829 Y42.79 E0.07143
G0 F5400 X45.929 Y42.79
G0 X48.795 Y45.616
G0 X48.441 Y45.968
;TYPE:WALL-OUTER
G1 F1800 X48.3 Y45.827 E0.00332
G1 X45.263 Y42.79 E0.07143
G1 X47.314 Y40.738 E0.04825
G1 X47.455 Y40.597 E0.00332
G1 X47.596 Y40.738 E0.00214
G1 X56.097 Y49.239 E0.19993
G1 X56.139 Y49.723 E0.00808
G1 X56.278 Y50.279 E0.00953
G1 X56.5 Y50.808 E0.00954
G1 X56.8 Y51.295 E0.00951
G1 X57.168 Y51.725 E0.00941
G1 X146.867 Y141.423 E2.10957
G1 X143.755 Y144.537 E0.07321
G1 X143.614 Y144.678 E0.00332
G1 X143.473 Y144.537 E0.00214
G1 X46.813 Y47.877 E2.2733
G1 X46.672 Y47.736 E0.00332
G1 X46.813 Y47.595 E0.00214
G1 X48.3 Y46.109 E0.03496
G1 X48.441 Y45.968 E0.00214
G0 F5400 X48.3 Y45.827
G0 X48.654 Y45.475
G0 X50.139 Y45.968
;TYPE:WALL-INNER
G1 F2700 X46.959 Y42.79 E0.07477
G1 X47.456 Y42.294 E0.01168
G1 X54.939 Y49.777 E0.17599
G1 X54.951 Y49.921 E0.0024
G1 X55.136 Y50.659 E0.01265
G1 X55.43 Y51.359 E0.01263
G1 X55.828 Y52.003 E0.01259
G1 X56.286 Y52.541 E0.01175
G1 X145.171 Y141.423 E2.0904
G1 X143.614 Y142.982 E0.03664
G1 X48.369 Y47.737 E2.24002
G1 X50.139 Y45.968 E0.04162
G0 F5400 X47.708 Y42.801
G0 X47.586 Y42.922
G1 F1800 X47.869 Y43.205 E0.00571
G1 X48.152 Y43.487 E0.0057
G1 X48.435 Y43.77 E0.00571
G1 X48.718 Y44.053 E0.00571
G1 X49.001 Y44.336 E0.00569
G1 X49.284 Y44.619 E0.00569
G1 X49.567 Y44.901 E0.00566
G1 X49.85 Y45.184 E0.00567
G1 X50.133 Y45.467 E0.00569
G1 X50.415 Y45.75 E0.00566
G0 F5400 X50.819 Y45.912
;TYPE:SKIN
G1 F1800 X48.808 Y47.923 E0.0473
G1 X48.738 Y47.993
G0 F5400 X49.091 Y48.206
G1 F1800 X51.102 Y46.195 E0.0473
G1 X51.172 Y46.125
G0 F5400 X51.385 Y46.478
G1 F1800 X49.374 Y48.489 E0.0473
G1 X49.304 Y48.559
G0 F5400 X49.657 Y48.771
G1 F1800 X51.668 Y46.76 E0.0473
G1 X51.738 Y46.69
G0 F5400 X51.951 Y47.043
G1 F1800 X49.94 Y49.054 E0.0473
G1 X49.87 Y49.124
G0 F5400 X50.222 Y49.337
G1 F1800 X52.233 Y47.326 E0.0473
G1 X52.303 Y47.256
G0 F5400 X52.516 Y47.609
G1 F1800 X50.505 Y49.62 E0.0473
G1 X50.435 Y49.69
G0 F5400 X50.788 Y49.903
G1 F1800 X52.799 Y47.892 E0.0473
G1 X52.869 Y47.822
G0 F5400 X53.082 Y48.175
G1 F1800 X51.071 Y50.186 E0.0473
G1 X51.001 Y50.256
G0 F5400 X51.354 Y50.469
G1 F1800 X53.365 Y48.458 E0.0473
G1 X53.435 Y48.388
G0 F5400 X53.648 Y48.74
G1 F1800 X51.637 Y50.751 E0.0473
G1 X51.567 Y50.821
G0 F5400 X51.92 Y51.034
G1 F1800 X53.931 Y49.023 E0.0473
G1 X54.001 Y48.953
G0 F5400 X54.213 Y49.306
G1 F1800 X52.202 Y51.317 E0.0473
G1 X52.132 Y51.387
G0 F5400 X52.485 Y51.6
G1 F1800 X54.496 Y49.589 E0.0473
G1 X54.566 Y49.519
G0 F5400 X54.766 Y49.885
G1 F1800 X52.768 Y51.883 E0.04699
G1 X52.698 Y51.953
G0 F5400 X53.051 Y52.166
G1 F1800 X54.87 Y50.346 E0.04279
G1 X54.94 Y50.276
G0 F5400 X54.994 Y50.788
G1 F1800 X53.334 Y52.448 E0.03904
G1 X53.264 Y52.518
G0 F5400 X53.617 Y52.731
G1 F1800 X55.161 Y51.187 E0.03631
G1 X55.231 Y51.117
G0 F5400 X55.346 Y51.567
G1 F1800 X53.899 Y53.014 E0.03403
G1 X53.829 Y53.084
G0 F5400 X54.182 Y53.297
G1 F1800 X55.563 Y51.917 E0.03247
G1 X55.633 Y51.847
G0 F5400 X55.798 Y52.247
G1 F1800 X54.465 Y53.58 E0.03135
G1 X54.395 Y53.65
G0 F5400 X54.748 Y53.863
G1 F1800 X56.058 Y52.553 E0.03081
G1 X56.128 Y52.483
G0 F5400 X56.333 Y52.843
G1 F1800 X55.031 Y54.145 E0.03062
G1 X54.961 Y54.215
G0 F5400 X55.314 Y54.428
G1 F1800 X56.616 Y53.126 E0.03062
G1 X56.686 Y53.056
G0 F5400 X56.899 Y53.409
G1 F1800 X55.596 Y54.711 E0.03063
G1 X55.526 Y54.781
G0 F5400 X55.879 Y54.994
G1 F1800 X57.182 Y53.692 E0.03063
G1 X57.252 Y53.622
G0 F5400 X57.465 Y53.974
G1 F1800 X56.162 Y55.277 E0.03064
G1 X56.092 Y55.347
G0 F5400 X56.445 Y55.56
G1 F1800 X57.747 Y54.257 E0.03063
G1 X57.817 Y54.187
G0 F5400 X58.03 Y54.54
G1 F1800 X56.728 Y55.843 E0.03063
G1 X56.658 Y55.913
G0 F5400 X57.011 Y56.125
G1 F1800 X58.313 Y54.823 E0.03062
G1 X58.383 Y54.753
G0 F5400 X58.596 Y55.106
G1 F1800 X57.294 Y56.408 E0.03062
G1 X57.224 Y56.478
G0 F5400 X57.576 Y56.691
G1 F1800 X58.879 Y55.389 E0.03063
G1 X58.949 Y55.319
G0 F5400 X59.162 Y55.671
G1 F1800 X57.859 Y56.974 E0.03064
G1 X57.789 Y57.044
G0 F5400 X58.142 Y57.257
G1 F1800 X59.445 Y55.954 E0.03064
G1 X59.515 Y55.884
G0 F5400 X59.727 Y56.237
G1 F1800 X58.425 Y57.54 E0.03063
G1 X58.355 Y57.61
G0 F5400 X58.708 Y57.822
G1 F1800 X60.01 Y56.52 E0.03062
G1 X60.08 Y56.45
G0 F5400 X60.293 Y56.803
G1 F1800 X58.991 Y58.105 E0.03062
G1 X58.921 Y58.175
G0 F5400 X59.273 Y58.388
G1 F1800 X60.576 Y57.086 E0.03063
G1 X60.646 Y57.016
G0 F5400 X60.859 Y57.368
G1 F1800 X59.556 Y58.671 E0.03064
G1 X59.486 Y58.741
G0 F5400 X59.839 Y58.954
G1 F1800 X61.142 Y57.651 E0.03064
G1 X61.212 Y57.581
G0 F5400 X61.424 Y57.934
G1 F1800 X60.122 Y59.237 E0.03063
G1 X60.052 Y59.307
G0 F5400 X60.405 Y59.52
G1 F1800 X61.707 Y58.217 E0.03063
G1 X61.777 Y58.147
G0 F5400 X61.99 Y58.5
G1 F1800 X60.688 Y59.802 E0.03062
G1 X60.618 Y59.872
G0 F5400 X60.97 Y60.085
G1 F1800 X62.273 Y58.783 E0.03063
G1 X62.343 Y58.713
G0 F5400 X62.556 Y59.066
G1 F1800 X61.253 Y60.368 E0.03063
G1 X61.183 Y60.438
G0 F5400 X61.536 Y60.651
G1 F1800 X62.839 Y59.348 E0.03064
G1 X62.909 Y59.278
G0 F5400 X63.122 Y59.631
G1 F1800 X61.819 Y60.934 E0.03064
G1 X61.749 Y61.004
G0 F5400 X62.102 Y61.217
G1 F1800 X63.404 Y59.914 E0.03063
G1 X63.474 Y59.844
G0 F5400 X63.687 Y60.197
G1 F1800 X62.385 Y61.499 E0.03062
G1 X62.315 Y61.569
G0 F5400 X62.668 Y61.782
G1 F1800 X63.97 Y60.48 E0.03062
G1 X64.04 Y60.41
G0 F5400 X64.253 Y60.763
G1 F1800 X62.95 Y62.065 E0.03063
G1 X62.88 Y62.135
G0 F5400 X63.233 Y62.348
G1 F1800 X64.536 Y61.045 E0.03064
G1 X64.606 Y60.975
G0 F5400 X64.819 Y61.328
G1 F1800 X63.516 Y62.631 E0.03064
G1 X63.446 Y62.701
G0 F5400 X63.799 Y62.914
G1 F1800 X65.101 Y61.611 E0.03063
G1 X65.171 Y61.541
G0 F5400 X65.384 Y61.894
G1 F1800 X64.082 Y63.196 E0.03062
G1 X64.012 Y63.266
G0 F5400 X64.365 Y63.479
G1 F1800 X65.667 Y62.177 E0.03062
G1 X65.737 Y62.107
G0 F5400 X65.95 Y62.46
G1 F1800 X64.647 Y63.762 E0.03063
G1 X64.577 Y63.832
G0 F5400 X64.93 Y64.045
G1 F1800 X66.233 Y62.742 E0.03064
G1 X66.303 Y62.672
G0 F5400 X66.516 Y63.025
G1 F1800 X65.213 Y64.328 E0.03064
G1 X65.143 Y64.398
G0 F5400 X65.496 Y64.611
G1 F1800 X66.798 Y63.308 E0.03063
G1 X66.868 Y63.238
G0 F5400 X67.081 Y63.591
G1 F1800 X65.779 Y64.894 E0.03063
G1 X65.709 Y64.964
G0 F5400 X66.062 Y65.176
G1 F1800 X67.364 Y63.874 E0.03062
G1 X67.434 Y63.804
G0 F5400 X67.647 Y64.157
G1 F1800 X66.345 Y65.459 E0.03062
G1 X66.275 Y65.529
G0 F5400 X66.627 Y65.742
G1 F1800 X67.93 Y64.44 E0.03063
G1 X68 Y64.37
G0 F5400 X68.213 Y64.722
G1 F1800 X66.91 Y66.025 E0.03064
G1 X66.84 Y66.095
G0 F5400 X67.193 Y66.308
G1 F1800 X68.496 Y65.005 E0.03064
G1 X68.566 Y64.935
G0 F5400 X68.778 Y65.288
G1 F1800 X67.476 Y66.591 E0.03063
G1 X67.406 Y66.661
G0 F5400 X67.759 Y66.873
G1 F1800 X69.061 Y65.571 E0.03062
G1 X69.131 Y65.501
G0 F5400 X69.344 Y65.854
G1 F1800 X68.042 Y67.156 E0.03062
G1 X67.972 Y67.226
G0 F5400 X68.324 Y67.439
G1 F1800 X69.627 Y66.137 E0.03063
G1 X69.697 Y66.067
G0 F5400 X69.91 Y66.419
G1 F1800 X68.607 Y67.722 E0.03064
G1 X68.537 Y67.792
G0 F5400 X68.89 Y68.005
G1 F1800 X70.193 Y66.702 E0.03064
G1 X70.263 Y66.632
G0 F5400 X70.475 Y66.985
G1 F1800 X69.173 Y68.288 E0.03063
G1 X69.103 Y68.358
G0 F5400 X69.456 Y68.57
G1 F1800 X70.758 Y67.268 E0.03062
G1 X70.828 Y67.198
G0 F5400 X71.041 Y67.551
G1 F1800 X69.739 Y68.853 E0.03062
G1 X69.669 Y68.923
G0 F5400 X70.021 Y69.136
G1 F1800 X71.324 Y67.834 E0.03063
G1 X71.394 Y67.764
G0 F5400 X71.607 Y68.117
G1 F1800 X70.304 Y69.419 E0.03063
G1 X70.234 Y69.489
G0 F5400 X70.587 Y69.702
G1 F1800 X71.89 Y68.399 E0.03064
G1 X71.96 Y68.329
G0 F5400 X72.172 Y68.682
G1 F1800 X70.87 Y69.985 E0.03063
G1 X70.8 Y70.055
G0 F5400 X71.153 Y70.268
G1 F1800 X72.455 Y68.965 E0.03063
G1 X72.525 Y68.895
G0 F5400 X72.738 Y69.248
G1 F1800 X71.436 Y70.55 E0.03062
G1 X71.366 Y70.62
G0 F5400 X71.719 Y70.833
G1 F1800 X73.021 Y69.531 E0.03062
G1 X73.091 Y69.461
G0 F5400 X73.304 Y69.814
G1 F1800 X72.001 Y71.116 E0.03063
G1 X71.931 Y71.186
G0 F5400 X72.284 Y71.399
G1 F1800 X73.587 Y70.096 E0.03064
G1 X73.657 Y70.026
G0 F5400 X73.87 Y70.379
G1 F1800 X72.567 Y71.682 E0.03064
G1 X72.497 Y71.752
G0 F5400 X72.85 Y71.965
G1 F1800 X74.152 Y70.662 E0.03063
G1 X74.222 Y70.592
G0 F5400 X74.435 Y70.945
G1 F1800 X73.133 Y72.247 E0.03062
G1 X73.063 Y72.317
G0 F5400 X73.416 Y72.53
G1 F1800 X74.718 Y71.228 E0.03062
G1 X74.788 Y71.158
G0 F5400 X75.001 Y71.511
G1 F1800 X73.698 Y72.813 E0.03063
G1 X73.628 Y72.883
G0 F5400 X73.981 Y73.096
G1 F1800 X75.284 Y71.793 E0.03064
G1 X75.354 Y71.723
G0 F5400 X75.567 Y72.076
G1 F1800 X74.264 Y73.379 E0.03064
G1 X74.194 Y73.449
G0 F5400 X74.547 Y73.662
G1 F1800 X75.849 Y72.359 E0.03063
G1 X75.919 Y72.289
G0 F5400 X76.132 Y72.642
G1 F1800 X74.83 Y73.944 E0.03062
G1 X74.76 Y74.014
G0 F5400 X75.113 Y74.227
G1 F1800 X76.415 Y72.925 E0.03062
G1 X76.485 Y72.855
G0 F5400 X76.698 Y73.208
G1 F1800 X75.395 Y74.51 E0.03063
G1 X75.325 Y74.58
G0 F5400 X75.678 Y74.793
G1 F1800 X76.981 Y73.491 E0.03063
G1 X77.051 Y73.421
G0 F5400 X77.264 Y73.773
G1 F1800 X75.961 Y75.076 E0.03064
G1 X75.891 Y75.146
G0 F5400 X76.244 Y75.359
G1 F1800 X77.546 Y74.056 E0.03063
G1 X77.616 Y73.986
G0 F5400 X77.829 Y74.339
G1 F1800 X76.527 Y75.642 E0.03063
G1 X76.457 Y75.712
G0 F5400 X76.81 Y75.924
G1 F1800 X78.112 Y74.622 E0.03062
G1 X78.182 Y74.552
G0 F5400 X78.395 Y74.905
G1 F1800 X77.093 Y76.207 E0.03062
G1 X77.023 Y76.277
G0 F5400 X77.375 Y76.49
G1 F1800 X78.678 Y75.188 E0.03063
G1 X78.748 Y75.118
G0 F5400 X78.961 Y75.47
G1 F1800 X77.658 Y76.773 E0.03064
G1 X77.588 Y76.843
G0 F5400 X77.941 Y77.056
G1 F1800 X79.244 Y75.753 E0.03064
G1 X79.314 Y75.683
G0 F5400 X79.526 Y76.036
G1 F1800 X78.224 Y77.339 E0.03063
G1 X78.154 Y77.409
G0 F5400 X78.507 Y77.621
G1 F1800 X79.809 Y76.319 E0.03062
G1 X79.879 Y76.249
G0 F5400 X80.092 Y76.602
G1 F1800 X78.79 Y77.904 E0.03062
G1 X78.72 Y77.974
G0 F5400 X79.072 Y78.187
G1 F1800 X80.375 Y76.885 E0.03063
G1 X80.445 Y76.815
