;FLAVOR:RepRap
;TIME:5063
;Filament used: 2.96553m
;Layer height: 0.1
;Generated with Cura_SteamEngine 3.0.3
T0
M190 S100
M104 S240
M109 S240
M82 ; absolute extrusion mode
G21 ;metric values
G90 ;absolute positioning
M82 ;set extruder to absolute mode
M107 ;start with the fan off
G28 X0 Y0 ;move X/Y to min endstops
G28 Z0 ;move Z to min endstops
G1 Z15.0 F9000 ;move the platform down 15mm
G92 E0 ;zero the extruded length
G1 F200 E3 ;extrude 3mm of feed stock
G92 E0 ;zero the extruded length again
G1 F9000
;Put printing message on LCD screen
M117 Printing...
M83 ; relative extrusion mode
;LAYER_COUNT:88
;LAYER:0
M107
G0 F3600 X60.474 Y87.813 Z0.3
;TYPE:SKIRT
G1 F1800 X61.165 Y87.429 E0.03944
G1 X61.89 Y87.117 E0.03938
G1 X62.643 Y86.88 E0.03938
G1 X63.417 Y86.721 E0.03942
G1 X64.202 Y86.64 E0.03937
G1 X64.602 Y86.63 E0.01996
G1 X68.602 Y86.629 E0.19956
G1 X69.391 Y86.669 E0.03941
G1 X70.171 Y86.788 E0.03936
G1 X70.936 Y86.986 E0.03942
G1 X71.677 Y87.26 E0.03942
G1 X72.386 Y87.607 E0.03938
G1 X73.056 Y88.024 E0.03937
G1 X73.681 Y88.507 E0.03941
G1 X74.254 Y89.051 E0.03942
G1 X74.768 Y89.65 E0.03938
G1 X75.22 Y90.298 E0.03942
G1 X75.604 Y90.988 E0.0394
G1 X75.916 Y91.713 E0.03938
G1 X75.931 Y91.762 E0.00256
G1 X76.589 Y92.155 E0.03824
G1 X76.731 Y92.26 E0.00881
G1 X76.841 Y91.963 E0.0158
G1 X77.189 Y91.254 E0.0394
G1 X77.607 Y90.583 E0.03944
G1 X78.09 Y89.959 E0.03937
G1 X78.633 Y89.386 E0.03938
G1 X79.232 Y88.871 E0.03941
G1 X79.88 Y88.42 E0.03939
G1 X80.571 Y88.036 E0.03944
G1 X81.296 Y87.724 E0.03938
G1 X82.049 Y87.487 E0.03938
G1 X82.823 Y87.328 E0.03942
G1 X83.608 Y87.247 E0.03937
G1 X84.008 Y87.237 E0.01996
G1 X88.008 Y87.236 E0.19956
G1 X88.797 Y87.276 E0.03941
G1 X89.577 Y87.395 E0.03936
G1 X90.342 Y87.593 E0.03942
G1 X91.083 Y87.867 E0.03942
G1 X91.792 Y88.214 E0.03938
G1 X92.462 Y88.631 E0.03937
G1 X93.087 Y89.114 E0.03941
G1 X93.66 Y89.658 E0.03942
G1 X94.174 Y90.257 E0.03938
G1 X94.626 Y90.905 E0.03942
G1 X95.01 Y91.595 E0.0394
G1 X95.322 Y92.32 E0.03938
G1 X95.338 Y92.371 E0.00267
G1 X95.51 Y92.472 E0.00995
G1 X95.676 Y92.38 E0.00947
G1 X95.831 Y91.963 E0.02219
G1 X96.179 Y91.254 E0.0394
G1 X96.597 Y90.583 E0.03944
G1 X97.08 Y89.959 E0.03937
G1 X97.623 Y89.386 E0.03938
G1 X98.222 Y88.871 E0.03941
G1 X98.87 Y88.42 E0.03939
G1 X99.561 Y88.036 E0.03944
G1 X100.286 Y87.724 E0.03938
G1 X101.039 Y87.487 E0.03938
G1 X101.813 Y87.328 E0.03942
G1 X102.598 Y87.247 E0.03937
G1 X102.998 Y87.237 E0.01996
G1 X106.998 Y87.236 E0.19956
G1 X107.787 Y87.276 E0.03941
G1 X108.567 Y87.395 E0.03936
G1 X109.332 Y87.593 E0.03942
G1 X110.073 Y87.867 E0.03942
G1 X110.782 Y88.214 E0.03938
G1 X111.452 Y88.631 E0.03937
G1 X112.077 Y89.114 E0.03941
G1 X112.65 Y89.658 E0.03942
G1 X113.164 Y90.257 E0.03938
G1 X113.616 Y90.905 E0.03942
G1 X114 Y91.595 E0.0394
G1 X114.005 Y91.608 E0.00069
G1 X114.179 Y91.254 E0.01968
G1 X114.597 Y90.583 E0.03944
G1 X115.08 Y89.959 E0.03937
G1 X115.623 Y89.386 E0.03938
G1 X116.222 Y88.871 E0.03941
G1 X116.87 Y88.42 E0.03939
G1 X117.561 Y88.036 E0.03944
G1 X118.286 Y87.724 E0.03938
G1 X119.039 Y87.487 E0.03938
G1 X119.813 Y87.328 E0.03942
G1 X120.598 Y87.247 E0.03937
G1 X120.998 Y87.237 E0.01996
G1 X124.998 Y87.236 E0.19956
G1 X125.787 Y87.276 E0.03941
G1 X126.567 Y87.395 E0.03936
G1 X127.332 Y87.593 E0.03942
G1 X128.073 Y87.867 E0.03942
G1 X128.782 Y88.214 E0.03938
G1 X129.452 Y88.631 E0.03937
G1 X130.077 Y89.114 E0.03941
G1 X130.65 Y89.658 E0.03942
G1 X131.164 Y90.257 E0.03938
G1 X131.616 Y90.905 E0.03942
G1 X132 Y91.595 E0.0394
G1 X132.312 Y92.32 E0.03938
G1 X132.328 Y92.371 E0.00267
G1 X132.968 Y92.749 E0.03708
G1 X133.273 Y92.975 E0.01894
G1 X133.664 Y92.638 E0.02575
G1 X134.31 Y92.184 E0.03939
G1 X134.793 Y91.919 E0.02749
G1 X134.948 Y91.501 E0.02224
G1 X135.296 Y90.792 E0.0394
G1 X135.714 Y90.121 E0.03944
G1 X136.197 Y89.497 E0.03937
G1 X136.74 Y88.924 E0.03938
G1 X137.339 Y88.409 E0.03941
G1 X137.987 Y87.958 E0.03939
G1 X138.678 Y87.574 E0.03944
G1 X139.403 Y87.262 E0.03938
G1 X140.156 Y87.025 E0.03938
G1 X140.93 Y86.866 E0.03942
G1 X141.715 Y86.785 E0.03937
G1 X142.115 Y86.775 E0.01996
G1 X146.115 Y86.774 E0.19956
G1 X146.904 Y86.814 E0.03941
G1 X147.684 Y86.933 E0.03936
G1 X148.449 Y87.131 E0.03942
G1 X149.19 Y87.405 E0.03942
G1 X149.899 Y87.752 E0.03938
G1 X150.569 Y88.169 E0.03937
G1 X151.194 Y88.652 E0.03941
G1 X151.767 Y89.196 E0.03942
G1 X152.281 Y89.795 E0.03938
G1 X152.733 Y90.443 E0.03942
G1 X153.117 Y91.133 E0.0394
G1 X153.429 Y91.858 E0.03938
G1 X153.445 Y91.907 E0.00257
G1 X154.091 Y92.292 E0.03752
G1 X154.726 Y92.762 E0.03941
G1 X155.31 Y93.293 E0.03938
G1 X155.837 Y93.881 E0.03939
G1 X156.302 Y94.519 E0.03939
G1 X156.7 Y95.201 E0.0394
G1 X157.028 Y95.92 E0.03943
G1 X157.28 Y96.668 E0.03938
G1 X157.456 Y97.438 E0.03941
G1 X157.553 Y98.222 E0.03941
G1 X157.574 Y98.794 E0.02856
G1 X157.566 Y109.648 E0.54151
G1 X157.525 Y110.436 E0.03937
G1 X157.405 Y111.217 E0.03942
G1 X157.207 Y111.981 E0.03938
G1 X156.932 Y112.722 E0.03943
G1 X156.719 Y113.177 E0.02506
G1 X156.536 Y113.537 E0.02015
G1 X156.143 Y114.221 E0.03936
G1 X155.683 Y114.863 E0.0394
G1 X155.16 Y115.455 E0.03941
G1 X154.58 Y115.991 E0.0394
G1 X154.432 Y116.102 E0.00923
G1 X154.322 Y116.758 E0.03318
G1 X154.113 Y117.519 E0.03937
G1 X153.943 Y117.987 E0.02484
G1 X153.81 Y118.318 E0.0178
G1 X153.478 Y119.035 E0.03942
G1 X153.077 Y119.715 E0.03938
G1 X152.608 Y120.35 E0.03938
G1 X152.245 Y120.763 E0.02743
G1 X151.994 Y121.029 E0.01825
G1 X151.424 Y121.575 E0.03938
G1 X150.801 Y122.061 E0.03942
G1 X150.133 Y122.481 E0.03937
G1 X149.425 Y122.832 E0.03942
G1 X148.685 Y123.109 E0.03942
G1 X148.299 Y123.221 E0.02005
G1 X148.093 Y123.275 E0.01062
G1 X147.32 Y123.436 E0.03939
G1 X146.534 Y123.519 E0.03943
G1 X146.042 Y123.53 E0.02455
G1 X144.444 Y123.515 E0.07973
G1 X144.173 Y123.498 E0.01355
G1 X144.119 Y123.504 E0.00271
G1 X143.557 Y123.512 E0.02804
G1 X141.754 Y123.475 E0.08997
G1 X140.966 Y123.419 E0.03941
G1 X140.188 Y123.284 E0.03939
G1 X139.428 Y123.07 E0.03939
G1 X138.693 Y122.781 E0.0394
G1 X137.991 Y122.419 E0.03941
G1 X137.33 Y121.988 E0.03937
G1 X136.715 Y121.492 E0.03942
G1 X136.252 Y121.041 E0.03225
G1 X136 Y120.775 E0.01828
G1 X135.486 Y120.175 E0.03942
G1 X135.036 Y119.527 E0.03936
G1 X134.654 Y118.835 E0.03943
G1 X134.417 Y118.3 E0.02919
G1 X134.285 Y117.969 E0.01778
G1 X134.03 Y117.222 E0.03938
G1 X133.808 Y116.138 E0.0552
G1 X133.789 Y116.158 E0.00138
G1 X133.314 Y116.569 E0.03134
G1 X133.205 Y117.22 E0.03293
G1 X132.996 Y117.981 E0.03937
G1 X132.823 Y118.457 E0.02527
G1 X132.69 Y118.787 E0.01775
G1 X132.358 Y119.503 E0.03937
G1 X131.955 Y120.183 E0.03944
G1 X131.486 Y120.818 E0.03938
G1 X131.117 Y121.235 E0.02778
G1 X130.865 Y121.501 E0.01828
G1 X130.294 Y122.046 E0.03938
G1 X129.67 Y122.531 E0.03943
G1 X129.001 Y122.95 E0.03938
G1 X128.293 Y123.299 E0.03938
G1 X127.224 Y123.671 E0.05647
G1 X127.019 Y123.726 E0.01059
G1 X126.247 Y123.891 E0.03939
G1 X125.462 Y123.978 E0.0394
G1 X124.925 Y123.992 E0.0268
G1 X123.327 Y123.977 E0.07973
G1 X123.056 Y123.96 E0.01355
G1 X123.002 Y123.966 E0.00271
G1 X122.436 Y123.974 E0.02824
G1 X120.633 Y123.936 E0.08997
G1 X119.845 Y123.88 E0.03941
G1 X119.067 Y123.744 E0.0394
G1 X118.307 Y123.53 E0.03939
G1 X117.572 Y123.24 E0.03942
G1 X116.871 Y122.878 E0.03936
G1 X116.209 Y122.446 E0.03944
G1 X115.595 Y121.95 E0.03938
G1 X115.135 Y121.502 E0.03203
G1 X114.883 Y121.236 E0.01828
G1 X114.369 Y120.636 E0.03942
G1 X114.001 Y120.106 E0.03219
G1 X113.955 Y120.183 E0.00447
G1 X113.486 Y120.818 E0.03938
G1 X113.117 Y121.235 E0.02778
G1 X112.865 Y121.501 E0.01828
G1 X112.294 Y122.046 E0.03938
G1 X111.67 Y122.531 E0.03943
G1 X111.001 Y122.95 E0.03938
G1 X110.293 Y123.299 E0.03938
G1 X109.224 Y123.671 E0.05647
G1 X109.019 Y123.726 E0.01059
G1 X108.247 Y123.891 E0.03939
G1 X107.462 Y123.978 E0.0394
G1 X106.925 Y123.992 E0.0268
G1 X105.327 Y123.977 E0.07973
G1 X105.056 Y123.96 E0.01355
G1 X105.002 Y123.966 E0.00271
G1 X104.436 Y123.974 E0.02824
G1 X102.633 Y123.936 E0.08997
G1 X101.845 Y123.88 E0.03941
G1 X101.067 Y123.744 E0.0394
G1 X100.307 Y123.53 E0.03939
G1 X99.572 Y123.24 E0.03942
G1 X98.871 Y122.878 E0.03936
G1 X98.209 Y122.446 E0.03944
G1 X97.595 Y121.95 E0.03938
G1 X97.135 Y121.502 E0.03203
G1 X96.883 Y121.236 E0.01828
G1 X96.369 Y120.636 E0.03942
G1 X95.919 Y119.988 E0.03936
G1 X95.537 Y119.296 E0.03943
G1 X95.503 Y119.213 E0.00447
G1 X95.368 Y119.503 E0.01596
G1 X94.965 Y120.183 E0.03944
G1 X94.496 Y120.818 E0.03938
G1 X94.127 Y121.235 E0.02778
G1 X93.875 Y121.501 E0.01828
G1 X93.304 Y122.046 E0.03938
G1 X92.68 Y122.531 E0.03943
G1 X92.011 Y122.95 E0.03938
G1 X91.303 Y123.299 E0.03938
G1 X90.234 Y123.671 E0.05647
G1 X90.029 Y123.726 E0.01059
G1 X89.257 Y123.891 E0.03939
G1 X88.472 Y123.978 E0.0394
G1 X87.935 Y123.992 E0.0268
G1 X86.337 Y123.977 E0.07973
G1 X86.066 Y123.96 E0.01355
G1 X86.012 Y123.966 E0.00271
G1 X85.446 Y123.974 E0.02824
G1 X83.642 Y123.936 E0.09002
G1 X82.854 Y123.88 E0.03941
G1 X82.076 Y123.744 E0.0394
G1 X81.316 Y123.53 E0.03939
G1 X80.581 Y123.24 E0.03942
G1 X79.88 Y122.878 E0.03936
G1 X79.218 Y122.446 E0.03944
G1 X78.604 Y121.95 E0.03938
G1 X78.133 Y121.491 E0.03281
G1 X77.882 Y121.225 E0.01825
G1 X77.37 Y120.624 E0.03939
G1 X76.921 Y119.974 E0.03941
G1 X76.54 Y119.283 E0.03937
G1 X76.188 Y118.43 E0.04604
G1 X76.087 Y118.657 E0.0124
G1 X75.695 Y119.342 E0.03938
G1 X75.018 Y120.245 E0.05631
G1 X74.646 Y120.673 E0.02829
G1 X74.099 Y121.242 E0.03938
G1 X73.496 Y121.753 E0.03943
G1 X72.845 Y122.2 E0.0394
G1 X72.153 Y122.579 E0.03936
G1 X71.425 Y122.886 E0.03942
G1 X70.67 Y123.118 E0.03941
G1 X69.896 Y123.273 E0.03938
G1 X68.821 Y123.356 E0.05379
G1 X67.066 Y123.37 E0.08756
G1 X66.666 Y123.353 E0.01997
G1 X66.606 Y123.359 E0.00301
G1 X66.04 Y123.367 E0.02824
G1 X64.236 Y123.329 E0.09002
G1 X63.448 Y123.273 E0.03941
G1 X62.67 Y123.137 E0.0394
G1 X61.91 Y122.923 E0.03939
G1 X61.175 Y122.633 E0.03942
G1 X60.474 Y122.271 E0.03936
G1 X59.812 Y121.839 E0.03944
G1 X59.198 Y121.343 E0.03938
G1 X58.727 Y120.884 E0.03281
G1 X58.476 Y120.618 E0.01825
G1 X57.964 Y120.017 E0.03939
G1 X57.515 Y119.367 E0.03941
G1 X57.134 Y118.676 E0.03937
G1 X56.911 Y118.173 E0.02745
G1 X56.778 Y117.842 E0.0178
G1 X56.521 Y117.095 E0.03941
G1 X56.341 Y116.327 E0.03935
G1 X56.285 Y115.96 E0.01852
G1 X55.766 Y115.502 E0.03453
G1 X55.23 Y114.922 E0.0394
G1 X54.907 Y114.508 E0.0262
G1 X54.668 Y114.179 E0.02029
G1 X54.237 Y113.518 E0.03937
G1 X53.875 Y112.816 E0.03941
G1 X53.586 Y112.081 E0.0394
G1 X53.372 Y111.321 E0.03939
G1 X53.237 Y110.543 E0.03939
G1 X53.179 Y109.619 E0.04619
G1 X53.146 Y98.668 E0.54635
G1 X53.184 Y97.879 E0.03941
G1 X53.301 Y97.098 E0.0394
G1 X53.496 Y96.333 E0.03939
G1 X53.768 Y95.591 E0.03943
G1 X54.114 Y94.881 E0.0394
G1 X54.529 Y94.21 E0.03936
G1 X55.01 Y93.584 E0.03939
G1 X55.552 Y93.009 E0.03942
G1 X56.15 Y92.493 E0.03941
G1 X56.796 Y92.039 E0.03939
G1 X57.281 Y91.773 E0.0276
G1 X57.435 Y91.356 E0.02218
G1 X57.783 Y90.647 E0.0394
G1 X58.201 Y89.976 E0.03944
G1 X58.684 Y89.352 E0.03937
G1 X59.227 Y88.779 E0.03938
G1 X59.826 Y88.264 E0.03941
G1 X60.474 Y87.813 E0.03939
G0 F3600 X60.857 Y88.049
G1 F1800 X61.54 Y87.694 E0.0384
G1 X62.255 Y87.413 E0.03833
G1 X62.997 Y87.207 E0.03842
G1 X63.755 Y87.079 E0.03835
G1 X64.602 Y87.03 E0.04233
G1 X68.602 Y87.029 E0.19956
G1 X69.37 Y87.069 E0.03837
G1 X70.13 Y87.188 E0.03838
G1 X70.873 Y87.386 E0.03836
G1 X71.592 Y87.659 E0.03837
G1 X72.279 Y88.006 E0.0384
G1 X72.926 Y88.422 E0.03838
G1 X73.526 Y88.903 E0.03837
G1 X74.073 Y89.444 E0.03838
G1 X74.561 Y90.039 E0.03839
G1 X74.984 Y90.681 E0.03836
G1 X75.339 Y91.363 E0.03836
G1 X75.606 Y92.042 E0.0364
G1 X75.724 Y92.104 E0.00665
G1 X76.384 Y92.499 E0.03837
G1 X76.766 Y92.785 E0.02381
G1 X77.009 Y92.656 E0.01373
G1 X77.241 Y92.047 E0.03251
G1 X77.588 Y91.361 E0.03835
G1 X78.004 Y90.714 E0.03838
G1 X78.485 Y90.114 E0.03837
G1 X79.026 Y89.567 E0.03838
G1 X79.621 Y89.079 E0.03839
G1 X80.263 Y88.656 E0.03836
G1 X80.946 Y88.301 E0.0384
G1 X81.661 Y88.02 E0.03833
G1 X82.403 Y87.814 E0.03842
G1 X83.161 Y87.686 E0.03835
G1 X84.008 Y87.637 E0.04233
G1 X88.008 Y87.636 E0.19956
G1 X88.776 Y87.676 E0.03837
G1 X89.536 Y87.795 E0.03838
G1 X90.279 Y87.993 E0.03836
G1 X90.998 Y88.266 E0.03837
G1 X91.685 Y88.613 E0.0384
G1 X92.332 Y89.029 E0.03838
G1 X92.932 Y89.51 E0.03837
G1 X93.479 Y90.051 E0.03838
G1 X93.967 Y90.646 E0.03839
G1 X94.39 Y91.288 E0.03836
G1 X94.745 Y91.97 E0.03836
G1 X95.012 Y92.649 E0.0364
G1 X95.112 Y92.701 E0.00562
G1 X95.499 Y92.931 E0.02246
G1 X95.575 Y92.881 E0.00454
G1 X95.999 Y92.655 E0.02397
G1 X96.231 Y92.047 E0.03247
G1 X96.578 Y91.361 E0.03835
G1 X96.994 Y90.714 E0.03838
G1 X97.475 Y90.114 E0.03837
G1 X98.016 Y89.567 E0.03838
G1 X98.611 Y89.079 E0.03839
G1 X99.253 Y88.656 E0.03836
G1 X99.936 Y88.301 E0.0384
G1 X100.651 Y88.02 E0.03833
G1 X101.393 Y87.814 E0.03842
G1 X102.151 Y87.686 E0.03835
G1 X102.998 Y87.637 E0.04233
G1 X106.998 Y87.636 E0.19956
G1 X107.766 Y87.676 E0.03837
G1 X108.526 Y87.795 E0.03838
G1 X109.269 Y87.993 E0.03836
G1 X109.988 Y88.266 E0.03837
G1 X110.675 Y88.613 E0.0384
G1 X111.322 Y89.029 E0.03838
G1 X111.922 Y89.51 E0.03837
G1 X112.469 Y90.051 E0.03838
G1 X112.957 Y90.646 E0.03839
G1 X113.38 Y91.288 E0.03836
G1 X113.735 Y91.97 E0.03836
G1 X114.002 Y92.648 E0.03635
G1 X114.231 Y92.047 E0.03209
G1 X114.578 Y91.361 E0.03835
G1 X114.994 Y90.714 E0.03838
G1 X115.475 Y90.114 E0.03837
G1 X116.016 Y89.567 E0.03838
G1 X116.611 Y89.079 E0.03839
G1 X117.253 Y88.656 E0.03836
G1 X117.936 Y88.301 E0.0384
G1 X118.651 Y88.02 E0.03833
G1 X119.393 Y87.814 E0.03842
G1 X120.151 Y87.686 E0.03835
G1 X120.998 Y87.637 E0.04233
G1 X124.998 Y87.636 E0.19956
G1 X125.766 Y87.676 E0.03837
G1 X126.526 Y87.795 E0.03838
G1 X127.269 Y87.993 E0.03836
G1 X127.988 Y88.266 E0.03837
G1 X128.675 Y88.613 E0.0384
G1 X129.322 Y89.029 E0.03838
G1 X129.922 Y89.51 E0.03837
G1 X130.469 Y90.051 E0.03838
G1 X130.957 Y90.646 E0.03839
G1 X131.38 Y91.288 E0.03836
G1 X131.735 Y91.97 E0.03836
G1 X132.002 Y92.649 E0.0364
G1 X132.102 Y92.701 E0.00562
G1 X132.763 Y93.094 E0.03837
G1 X133.302 Y93.495 E0.03352
G1 X133.46 Y93.334 E0.01125
G1 X134.053 Y92.844 E0.03838
G1 X134.694 Y92.419 E0.03837
G1 X135.116 Y92.194 E0.02386
G1 X135.348 Y91.585 E0.03251
G1 X135.695 Y90.899 E0.03835
G1 X136.111 Y90.252 E0.03838
G1 X136.592 Y89.652 E0.03837
G1 X137.133 Y89.105 E0.03838
G1 X137.728 Y88.617 E0.03839
G1 X138.37 Y88.194 E0.03836
G1 X139.053 Y87.839 E0.0384
G1 X139.768 Y87.558 E0.03833
G1 X140.51 Y87.352 E0.03842
G1 X141.268 Y87.224 E0.03835
G1 X142.115 Y87.175 E0.04233
G1 X146.115 Y87.174 E0.19956
G1 X146.883 Y87.214 E0.03837
G1 X147.643 Y87.333 E0.03838
G1 X148.386 Y87.531 E0.03836
G1 X149.105 Y87.804 E0.03837
G1 X149.792 Y88.151 E0.0384
G1 X150.439 Y88.567 E0.03838
G1 X151.039 Y89.048 E0.03837
G1 X151.586 Y89.589 E0.03838
G1 X152.074 Y90.184 E0.03839
G1 X152.497 Y90.826 E0.03836
G1 X152.852 Y91.508 E0.03836
G1 X153.119 Y92.185 E0.03631
G1 X153.226 Y92.242 E0.00605
G1 X153.886 Y92.636 E0.03835
G1 X154.503 Y93.096 E0.0384
G1 X155.068 Y93.618 E0.03838
G1 X155.576 Y94.195 E0.03835
G1 X156.022 Y94.822 E0.03839
G1 X156.399 Y95.492 E0.03835
G1 X156.706 Y96.198 E0.03841
G1 X156.937 Y96.931 E0.03834
G1 X157.091 Y97.685 E0.03839
G1 X157.174 Y98.793 E0.05543
G1 X157.166 Y109.647 E0.54151
G1 X157.125 Y110.416 E0.03842
G1 X157.005 Y111.175 E0.03834
G1 X156.807 Y111.918 E0.03836
G1 X156.533 Y112.637 E0.03839
G1 X156.363 Y112.995 E0.01977
G1 X156.18 Y113.355 E0.02015
G1 X155.796 Y114.022 E0.0384
G1 X155.345 Y114.645 E0.03837
G1 X154.832 Y115.218 E0.03837
G1 X154.262 Y115.735 E0.03839
G1 X154.058 Y115.885 E0.01263
G1 X154.053 Y115.953 E0.0034
G1 X153.923 Y116.711 E0.03837
G1 X153.715 Y117.451 E0.03835
G1 X153.571 Y117.838 E0.0206
G1 X153.438 Y118.169 E0.0178
G1 X153.115 Y118.867 E0.03837
G1 X152.721 Y119.527 E0.03835
G1 X152.26 Y120.143 E0.03839
G1 X151.954 Y120.489 E0.02304
G1 X151.703 Y120.755 E0.01825
G1 X151.147 Y121.286 E0.03836
G1 X150.539 Y121.756 E0.03834
G1 X149.885 Y122.161 E0.03838
G1 X149.192 Y122.496 E0.0384
G1 X148.197 Y122.834 E0.05243
G1 X147.991 Y122.888 E0.01062
G1 X147.238 Y123.044 E0.03837
