;FLAVOR:RepRap
;TIME:5022
;Filament used: 2.6707m
;Layer height: 0.1
;Generated with Cura_SteamEngine 3.0.3
T0
M190 S100
M104 S240
M109 S240
M82 ; absolute extrusion mode
G21 ;metric values
G90 ;absolute positioning
M82 ;set extruder to absolute mode
M107 ;start with the fan off
G28 X0 Y0 ;move X/Y to min endstops
G28 Z0 ;move Z to min endstops
G1 Z15.0 F9000 ;move the platform down 15mm
G92 E0 ;zero the extruded length
G1 F200 E3 ;extrude 3mm of feed stock
G92 E0 ;zero the extruded length again
G1 F9000
;Put printing message on LCD screen
M117 Printing...
M83 ; relative extrusion mode
;LAYER_COUNT:128
;LAYER:0
M107
G0 F3600 X75.439 Y76.216 Z0.3
;TYPE:SKIRT
G1 F1800 X76.216 Y75.439 E0.05482
G1 X76.802 Y74.909 E0.03942
G1 X77.438 Y74.442 E0.03937
G1 X78.191 Y74.003 E0.04349
G1 X79.165 Y73.507 E0.05453
G1 X79.886 Y73.185 E0.0394
G1 X80.636 Y72.937 E0.03941
G1 X81.487 Y72.754 E0.04343
G1 X82.569 Y72.583 E0.05465
G1 X83.355 Y72.499 E0.03944
G1 X84.144 Y72.495 E0.03936
G1 X85.006 Y72.583 E0.04323
G1 X86.087 Y72.754 E0.0546
G1 X86.859 Y72.917 E0.03936
G1 X87.612 Y73.157 E0.03943
G1 X88.405 Y73.506 E0.04322
G1 X89.38 Y74.002 E0.05458
G1 X90.064 Y74.395 E0.03936
G1 X90.706 Y74.856 E0.03943
G1 X90.76 Y74.904 E0.0036
G1 X90.927 Y73.838 E0.05383
G1 X91.088 Y73.065 E0.03939
G1 X91.328 Y72.313 E0.03938
G1 X91.683 Y71.507 E0.04394
G1 X92.181 Y70.53 E0.05471
G1 X92.574 Y69.845 E0.0394
G1 X93.035 Y69.204 E0.03939
G1 X93.615 Y68.557 E0.04335
G1 X94.391 Y67.781 E0.05475
G1 X94.977 Y67.251 E0.03942
G1 X95.613 Y66.784 E0.03937
G1 X96.369 Y66.344 E0.04364
G1 X97.344 Y65.848 E0.05458
G1 X98.065 Y65.526 E0.0394
G1 X98.815 Y65.278 E0.03941
G1 X99.662 Y65.096 E0.04322
G1 X100.743 Y64.925 E0.0546
G1 X101.529 Y64.841 E0.03944
G1 X102.318 Y64.837 E0.03936
G1 X103.18 Y64.925 E0.04323
G1 X104.262 Y65.096 E0.05465
G1 X105.034 Y65.258 E0.03935
G1 X105.787 Y65.498 E0.03943
G1 X106.584 Y65.849 E0.04345
G1 X107.558 Y66.345 E0.05453
G1 X108.242 Y66.739 E0.03938
G1 X108.884 Y67.2 E0.03943
G1 X109.529 Y67.777 E0.04318
G1 X152.374 Y110.56 E3.02076
G1 X152.904 Y111.145 E0.03938
G1 X153.172 Y111.493 E0.02191
G1 X153.816 Y112.379 E0.05465
G1 X154.248 Y113.04 E0.0394
G1 X154.61 Y113.742 E0.03941
G1 X154.926 Y114.558 E0.04366
G1 X155.264 Y115.6 E0.05465
G1 X155.47 Y116.363 E0.03943
G1 X155.597 Y117.142 E0.03938
G1 X155.645 Y118.007 E0.04322
G1 X155.645 Y119.104 E0.05473
G1 X155.605 Y119.893 E0.03941
G1 X155.486 Y120.673 E0.03936
G1 X155.264 Y121.511 E0.04325
G1 X154.927 Y122.55 E0.05449
G1 X154.646 Y123.287 E0.03935
G1 X154.292 Y123.993 E0.0394
G1 X153.817 Y124.729 E0.0437
G1 X153.173 Y125.615 E0.05465
G1 X152.677 Y126.229 E0.03938
G1 X152.122 Y126.791 E0.03941
G1 X151.458 Y127.333 E0.04276
G1 X150.573 Y127.978 E0.05463
G1 X149.912 Y128.41 E0.0394
G1 X149.211 Y128.773 E0.03938
G1 X148.386 Y129.093 E0.04415
G1 X147.344 Y129.431 E0.05465
G1 X146.581 Y129.637 E0.03943
G1 X145.802 Y129.764 E0.03938
G1 X144.937 Y129.812 E0.04322
G1 X143.84 Y129.812 E0.05473
G1 X143.051 Y129.772 E0.03941
G1 X142.271 Y129.653 E0.03936
G1 X141.431 Y129.431 E0.04335
G1 X140.39 Y129.093 E0.0546
G1 X139.652 Y128.811 E0.03942
G1 X138.947 Y128.456 E0.03938
G1 X138.213 Y127.983 E0.04356
G1 X137.437 Y127.419 E0.04786
G1 X137.43 Y127.551 E0.00659
G1 X137.311 Y128.331 E0.03936
G1 X137.089 Y129.169 E0.04325
G1 X136.752 Y130.208 E0.05449
G1 X136.471 Y130.945 E0.03935
G1 X136.117 Y131.651 E0.0394
G1 X135.642 Y132.387 E0.0437
G1 X134.998 Y133.273 E0.05465
G1 X134.502 Y133.887 E0.03938
G1 X133.947 Y134.449 E0.03941
G1 X133.28 Y134.993 E0.04294
G1 X132.394 Y135.638 E0.05468
G1 X131.733 Y136.07 E0.0394
G1 X131.031 Y136.433 E0.03943
G1 X130.212 Y136.751 E0.04383
G1 X129.171 Y137.089 E0.0546
G1 X128.408 Y137.294 E0.03942
G1 X127.629 Y137.422 E0.03939
G1 X126.762 Y137.47 E0.04332
G1 X125.665 Y137.47 E0.05473
G1 X124.876 Y137.43 E0.03941
G1 X124.096 Y137.311 E0.03936
G1 X123.258 Y137.089 E0.04325
G1 X122.216 Y136.751 E0.05465
G1 X121.478 Y136.47 E0.0394
G1 X120.773 Y136.116 E0.03936
G1 X120.037 Y135.641 E0.0437
G1 X119.151 Y134.997 E0.05465
G1 X118.537 Y134.501 E0.03938
G1 X118.218 Y134.199 E0.02192
G1 X75.435 Y91.354 E3.02076
G1 X74.906 Y90.768 E0.03939
G1 X74.439 Y90.131 E0.03941
G1 X74.002 Y89.38 E0.04335
G1 X73.505 Y88.403 E0.05469
G1 X73.183 Y87.681 E0.03944
G1 X72.935 Y86.932 E0.03936
G1 X72.752 Y86.082 E0.04338
G1 X72.582 Y85.005 E0.0544
G1 X72.499 Y84.22 E0.03938
G1 X72.495 Y83.43 E0.03941
G1 X72.582 Y82.578 E0.04273
G1 X72.752 Y81.496 E0.05464
G1 X72.913 Y80.723 E0.03939
G1 X73.153 Y79.971 E0.03938
G1 X73.506 Y79.168 E0.04376
G1 X74.003 Y78.192 E0.05464
G1 X74.397 Y77.507 E0.03942
G1 X74.858 Y76.866 E0.03939
G1 X75.439 Y76.216 E0.0435
G0 F3600 X75.721 Y76.498
G1 F1800 X76.498 Y75.721 E0.05482
G1 X77.07 Y75.207 E0.03837
G1 X77.692 Y74.754 E0.03839
G1 X78.373 Y74.36 E0.03925
G1 X79.347 Y73.864 E0.05453
G1 X80.05 Y73.551 E0.03839
G1 X80.781 Y73.313 E0.03835
G1 X81.55 Y73.149 E0.03923
G1 X82.632 Y72.978 E0.05465
G1 X83.397 Y72.897 E0.03838
G1 X84.166 Y72.897 E0.03837
G1 X84.943 Y72.978 E0.03897
G1 X86.024 Y73.149 E0.0546
G1 X86.777 Y73.308 E0.0384
G1 X87.508 Y73.545 E0.03834
G1 X88.223 Y73.862 E0.03902
G1 X89.198 Y74.358 E0.05458
G1 X89.865 Y74.742 E0.0384
G1 X90.488 Y75.193 E0.03837
G1 X91.072 Y75.718 E0.03918
G1 X91.075 Y75.721 E0.00021
G1 X91.152 Y74.982 E0.03707
G1 X91.322 Y73.9 E0.05464
G1 X91.48 Y73.148 E0.03834
G1 X91.716 Y72.416 E0.03837
G1 X92.039 Y71.688 E0.03973
G1 X92.537 Y70.711 E0.05471
G1 X92.922 Y70.045 E0.03838
G1 X93.373 Y69.423 E0.03833
G1 X93.897 Y68.839 E0.03914
G1 X94.673 Y68.063 E0.05475
G1 X95.245 Y67.549 E0.03837
G1 X95.867 Y67.096 E0.03839
G1 X96.551 Y66.7 E0.03943
G1 X97.526 Y66.204 E0.05458
G1 X98.228 Y65.892 E0.03833
G1 X98.96 Y65.654 E0.0384
G1 X99.725 Y65.491 E0.03902
G1 X100.806 Y65.32 E0.0546
G1 X101.571 Y65.239 E0.03838
G1 X102.34 Y65.239 E0.03837
G1 X103.117 Y65.32 E0.03897
G1 X104.199 Y65.491 E0.05465
G1 X104.952 Y65.65 E0.0384
G1 X105.683 Y65.887 E0.03834
G1 X106.402 Y66.206 E0.03924
G1 X107.376 Y66.702 E0.05453
G1 X108.042 Y67.086 E0.03835
G1 X108.665 Y67.537 E0.03837
G1 X109.247 Y68.06 E0.03904
G1 X152.092 Y110.843 E3.02076
G1 X152.607 Y111.414 E0.03836
G1 X152.849 Y111.728 E0.01978
G1 X153.493 Y112.614 E0.05465
G1 X153.912 Y113.259 E0.03837
G1 X154.262 Y113.944 E0.03838
G1 X154.546 Y114.682 E0.03945
G1 X154.884 Y115.724 E0.05465
G1 X155.083 Y116.467 E0.03837
G1 X155.204 Y117.226 E0.03834
G1 X155.245 Y118.007 E0.03902
G1 X155.245 Y119.104 E0.05473
G1 X155.205 Y119.872 E0.03837
G1 X155.086 Y120.632 E0.03838
G1 X154.884 Y121.387 E0.03899
G1 X154.547 Y122.426 E0.05449
G1 X154.272 Y123.144 E0.03836
G1 X153.924 Y123.83 E0.03838
G1 X153.494 Y124.494 E0.03947
G1 X152.85 Y125.38 E0.05465
G1 X152.366 Y125.978 E0.03838
G1 X151.822 Y126.522 E0.03838
G1 X151.222 Y127.009 E0.03855
G1 X150.337 Y127.654 E0.05463
G1 X149.693 Y128.074 E0.03836
G1 X149.009 Y128.425 E0.03836
G1 X148.262 Y128.713 E0.03994
G1 X147.22 Y129.051 E0.05465
G1 X146.477 Y129.25 E0.03837
G1 X145.718 Y129.371 E0.03834
G1 X144.937 Y129.412 E0.03902
G1 X143.84 Y129.412 E0.05473
G1 X143.072 Y129.372 E0.03837
G1 X142.312 Y129.253 E0.03838
G1 X141.555 Y129.05 E0.0391
G1 X140.514 Y128.712 E0.0546
G1 X139.796 Y128.437 E0.03836
G1 X139.11 Y128.089 E0.03838
G1 X138.448 Y127.66 E0.03936
G1 X137.562 Y127.016 E0.05465
G1 X137.07 Y126.618 E0.03157
G1 X137.07 Y126.762 E0.00718
G1 X137.03 Y127.53 E0.03837
G1 X136.911 Y128.29 E0.03838
G1 X136.709 Y129.045 E0.03899
G1 X136.372 Y130.084 E0.05449
G1 X136.097 Y130.802 E0.03836
G1 X135.749 Y131.488 E0.03838
G1 X135.319 Y132.152 E0.03947
G1 X134.675 Y133.038 E0.05465
G1 X134.191 Y133.636 E0.03838
G1 X133.647 Y134.18 E0.03838
G1 X133.044 Y134.67 E0.03876
G1 X132.158 Y135.315 E0.05468
G1 X131.514 Y135.734 E0.03833
G1 X130.829 Y136.085 E0.0384
G1 X130.088 Y136.37 E0.03961
G1 X129.047 Y136.708 E0.0546
G1 X128.304 Y136.907 E0.03837
G1 X127.545 Y137.028 E0.03834
G1 X126.762 Y137.07 E0.03912
G1 X125.665 Y137.07 E0.05473
G1 X124.897 Y137.03 E0.03837
G1 X124.137 Y136.911 E0.03838
G1 X123.382 Y136.709 E0.03899
G1 X122.34 Y136.371 E0.05465
G1 X121.621 Y136.096 E0.03841
G1 X120.936 Y135.748 E0.03833
G1 X120.272 Y135.318 E0.03947
G1 X119.386 Y134.674 E0.05465
G1 X118.788 Y134.19 E0.03838
G1 X118.501 Y133.917 E0.01976
G1 X75.718 Y91.072 E3.02076
G1 X75.203 Y90.5 E0.0384
G1 X74.751 Y89.878 E0.03836
G1 X74.358 Y89.198 E0.03918
G1 X73.861 Y88.221 E0.05469
G1 X73.549 Y87.518 E0.03837
G1 X73.311 Y86.787 E0.03835
G1 X73.147 Y86.02 E0.03913
G1 X72.977 Y84.943 E0.0544
G1 X72.897 Y84.178 E0.03837
G1 X72.897 Y83.409 E0.03837
G1 X72.977 Y82.64 E0.03857
G1 X73.147 Y81.558 E0.05464
G1 X73.305 Y80.806 E0.03834
G1 X73.541 Y80.074 E0.03837
G1 X73.863 Y79.349 E0.03958
G1 X74.36 Y78.373 E0.05464
G1 X74.744 Y77.707 E0.03835
G1 X75.195 Y77.084 E0.03837
G1 X75.721 Y76.498 E0.03929
G0 F3600 X76.004 Y76.781
G1 F1800 X76.781 Y76.004 E0.05482
G1 X77.338 Y75.504 E0.03734
G1 X77.944 Y75.067 E0.03727
G1 X78.554 Y74.716 E0.03511
G1 X79.528 Y74.22 E0.05453
G1 X80.212 Y73.917 E0.03732
G1 X80.925 Y73.688 E0.03736
G1 X81.612 Y73.544 E0.03502
G1 X82.694 Y73.373 E0.05465
G1 X83.438 Y73.296 E0.03732
G1 X84.186 Y73.298 E0.03732
G1 X84.881 Y73.373 E0.03488
G1 X85.962 Y73.544 E0.0546
G1 X86.693 Y73.7 E0.03729
G1 X87.404 Y73.934 E0.03734
G1 X88.042 Y74.219 E0.03486
G1 X89.017 Y74.715 E0.05458
G1 X89.665 Y75.089 E0.03733
G1 X90.269 Y75.531 E0.03734
G1 X90.789 Y76.001 E0.03497
G1 X91.495 Y76.706 E0.04978
G1 X91.471 Y76.478 E0.01144
G1 X91.473 Y75.73 E0.03732
G1 X91.547 Y75.045 E0.03437
G1 X91.717 Y73.963 E0.05464
G1 X91.872 Y73.231 E0.03733
G1 X92.105 Y72.52 E0.03733
G1 X92.395 Y71.87 E0.03551
G1 X92.893 Y70.893 E0.05471
G1 X93.268 Y70.246 E0.03731
G1 X93.71 Y69.642 E0.03734
G1 X94.18 Y69.122 E0.03497
G1 X94.956 Y68.346 E0.05475
G1 X95.513 Y67.846 E0.03734
G1 X96.119 Y67.409 E0.03727
G1 X96.732 Y67.057 E0.03527
G1 X97.707 Y66.561 E0.05458
G1 X98.391 Y66.258 E0.03732
G1 X99.103 Y66.029 E0.03731
G1 X99.787 Y65.886 E0.03486
G1 X100.868 Y65.715 E0.0546
G1 X101.612 Y65.638 E0.03732
G1 X102.36 Y65.64 E0.03732
G1 X103.055 Y65.715 E0.03488
G1 X104.137 Y65.886 E0.05465
G1 X104.868 Y66.042 E0.03729
G1 X105.579 Y66.275 E0.03733
G1 X106.221 Y66.562 E0.03508
G1 X107.195 Y67.058 E0.05453
G1 X107.842 Y67.433 E0.03731
G1 X108.446 Y67.874 E0.03731
G1 X108.964 Y68.343 E0.03486
G1 X151.809 Y111.126 E3.02076
G1 X152.525 Y111.963 E0.05495
G1 X153.169 Y112.849 E0.05465
G1 X153.576 Y113.477 E0.03734
G1 X153.914 Y114.145 E0.03735
G1 X154.165 Y114.805 E0.03523
G1 X154.503 Y115.847 E0.05465
G1 X154.696 Y116.57 E0.03733
G1 X154.81 Y117.309 E0.0373
G1 X154.845 Y118.007 E0.03487
G1 X154.845 Y119.104 E0.05473
G1 X154.805 Y119.851 E0.03732
G1 X154.686 Y120.589 E0.03729
G1 X154.504 Y121.264 E0.03488
G1 X154.167 Y122.303 E0.05449
G1 X153.898 Y123.001 E0.03732
G1 X153.557 Y123.666 E0.03728
G1 X153.17 Y124.259 E0.03533
G1 X152.526 Y125.145 E0.05465
G1 X152.055 Y125.725 E0.03728
G1 X151.524 Y126.253 E0.03736
G1 X150.987 Y126.686 E0.03442
G1 X150.102 Y127.331 E0.05463
G1 X149.475 Y127.739 E0.03732
G1 X148.808 Y128.077 E0.03731
G1 X148.139 Y128.332 E0.03572
G1 X147.097 Y128.67 E0.05465
G1 X146.374 Y128.863 E0.03733
G1 X145.635 Y128.977 E0.0373
G1 X144.937 Y129.012 E0.03487
G1 X143.84 Y129.012 E0.05473
G1 X143.093 Y128.972 E0.03732
G1 X142.355 Y128.853 E0.03729
G1 X141.678 Y128.67 E0.03499
G1 X140.637 Y128.332 E0.0546
G1 X139.939 Y128.063 E0.03732
G1 X139.274 Y127.721 E0.03731
G1 X138.683 Y127.336 E0.03519
G1 X137.797 Y126.692 E0.05465
G1 X136.96 Y125.976 E0.05495
G1 X136.67 Y125.686 E0.02046
G1 X136.67 Y126.762 E0.05368
G1 X136.63 Y127.509 E0.03732
G1 X136.511 Y128.247 E0.03729
G1 X136.329 Y128.922 E0.03488
G1 X135.992 Y129.961 E0.05449
G1 X135.723 Y130.659 E0.03732
G1 X135.382 Y131.324 E0.03728
G1 X134.995 Y131.917 E0.03533
G1 X134.351 Y132.803 E0.05465
G1 X133.88 Y133.383 E0.03728
G1 X133.349 Y133.911 E0.03736
G1 X132.809 Y134.346 E0.03459
G1 X131.923 Y134.991 E0.05468
G1 X131.295 Y135.399 E0.03736
G1 X130.628 Y135.737 E0.03731
G1 X129.965 Y135.99 E0.0354
G1 X128.924 Y136.328 E0.0546
G1 X128.201 Y136.521 E0.03733
G1 X127.462 Y136.635 E0.0373
G1 X126.762 Y136.67 E0.03497
G1 X125.665 Y136.67 E0.05473
G1 X124.918 Y136.63 E0.03732
G1 X124.18 Y136.511 E0.03729
G1 X123.505 Y136.328 E0.03489
G1 X122.463 Y135.99 E0.05465
G1 X121.765 Y135.722 E0.0373
G1 X121.099 Y135.38 E0.03735
G1 X120.507 Y134.994 E0.03526
G1 X119.621 Y134.35 E0.05465
G1 X118.784 Y133.634 E0.05495
G1 X76.001 Y90.789 E3.02076
G1 X75.501 Y90.232 E0.03734
G1 X75.064 Y89.625 E0.03732
G1 X74.715 Y89.017 E0.03498
G1 X74.218 Y88.04 E0.05469
G1 X73.915 Y87.356 E0.03732
G1 X73.686 Y86.644 E0.03731
G1 X73.543 Y85.957 E0.03501
G1 X73.373 Y84.88 E0.0544
G1 X73.296 Y84.136 E0.03732
G1 X73.298 Y83.388 E0.03732
G1 X73.372 Y82.703 E0.03437
G1 X73.542 Y81.621 E0.05464
G1 X73.697 Y80.889 E0.03733
G1 X73.93 Y80.178 E0.03733
G1 X74.219 Y79.531 E0.03535
G1 X74.716 Y78.555 E0.05464
G1 X75.091 Y77.907 E0.03735
G1 X75.532 Y77.303 E0.03731
G1 X76.004 Y76.781 E0.03511
G0 F3600 X76.287 Y77.064
G1 F1800 X77.064 Y76.287 E0.05482
G1 X77.605 Y75.803 E0.03622
G1 X78.196 Y75.38 E0.03626
G1 X78.736 Y75.073 E0.03099
G1 X79.71 Y74.577 E0.05453
G1 X80.374 Y74.283 E0.03623
G1 X81.067 Y74.064 E0.03626
G1 X81.675 Y73.939 E0.03097
G1 X82.757 Y73.768 E0.05465
G1 X83.479 Y73.694 E0.03621
G1 X84.206 Y73.7 E0.03627
G1 X84.818 Y73.768 E0.03072
G1 X85.899 Y73.939 E0.0546
G1 X86.609 Y74.092 E0.03624
G1 X87.298 Y74.322 E0.03624
G1 X87.861 Y74.575 E0.03079
G1 X88.836 Y75.071 E0.05458
G1 X89.464 Y75.436 E0.03624
G1 X90.048 Y75.867 E0.03621
G1 X90.507 Y76.284 E0.03094
G1 X92.048 Y77.822 E0.10862
G1 X91.943 Y77.16 E0.03344
G1 X91.869 Y76.437 E0.03626
G1 X91.875 Y75.711 E0.03622
G1 X91.942 Y75.107 E0.03032
G1 X92.112 Y74.025 E0.05464
G1 X92.264 Y73.314 E0.03627
G1 X92.493 Y72.625 E0.03622
G1 X92.752 Y72.052 E0.03137
G1 X93.25 Y71.075 E0.05471
G1 X93.615 Y70.447 E0.03624
G1 X94.047 Y69.863 E0.03624
G1 X94.463 Y69.405 E0.03087
G1 X95.239 Y68.629 E0.05475
G1 X95.78 Y68.145 E0.03622
G1 X96.371 Y67.722 E0.03626
G1 X96.913 Y67.413 E0.03113
G1 X97.888 Y66.917 E0.05458
G1 X98.553 Y66.624 E0.03625
G1 X99.246 Y66.406 E0.03624
G1 X99.85 Y66.281 E0.03077
G1 X100.931 Y66.11 E0.0546
G1 X101.653 Y66.036 E0.03621
G1 X102.38 Y66.042 E0.03627
G1 X102.992 Y66.11 E0.03072
G1 X104.074 Y66.281 E0.05465
G1 X104.784 Y66.434 E0.03624
G1 X105.473 Y66.663 E0.03622
G1 X106.039 Y66.919 E0.03099
G1 X107.013 Y67.415 E0.05453
G1 X107.641 Y67.779 E0.03621
G1 X108.225 Y68.211 E0.03624
G1 X108.682 Y68.626 E0.0308
G1 X151.527 Y111.409 E3.02076
G1 X152.202 Y112.199 E0.05184
G1 X152.846 Y113.085 E0.05465
G1 X153.24 Y113.695 E0.03623
G1 X153.564 Y114.344 E0.03619
G1 X153.785 Y114.929 E0.0312
G1 X154.123 Y115.971 E0.05465
G1 X154.309 Y116.673 E0.03623
G1 X154.416 Y117.391 E0.03622
G1 X154.445 Y118.007 E0.03077
G1 X154.445 Y119.104 E0.05473
G1 X154.405 Y119.829 E0.03623
G1 X154.286 Y120.546 E0.03626
G1 X154.123 Y121.14 E0.03073
G1 X153.786 Y122.179 E0.05449
G1 X153.524 Y122.857 E0.03626
G1 X153.19 Y123.502 E0.03624
G1 X152.847 Y124.023 E0.03112
G1 X152.203 Y124.909 E0.05465
G1 X151.744 Y125.473 E0.03628
G1 X151.226 Y125.982 E0.03623
G1 X150.751 Y126.363 E0.03038
G1 X149.866 Y127.008 E0.05463
G1 X149.257 Y127.403 E0.03621
G1 X148.607 Y127.728 E0.03626
G1 X148.015 Y127.952 E0.03158
G1 X146.973 Y128.29 E0.05465
G1 X146.271 Y128.476 E0.03623
G1 X145.553 Y128.583 E0.03622
G1 X144.937 Y128.612 E0.03077
G1 X143.84 Y128.612 E0.05473
G1 X143.115 Y128.572 E0.03623
G1 X142.398 Y128.453 E0.03626
G1 X141.802 Y128.289 E0.03084
G1 X140.761 Y127.951 E0.0546
G1 X140.083 Y127.689 E0.03626
G1 X139.439 Y127.355 E0.03619
G1 X138.919 Y127.013 E0.03105
G1 X138.033 Y126.369 E0.05465
G1 X137.243 Y125.694 E0.05184
G1 X136.178 Y124.628 E0.07518
G1 X136.241 Y125.049 E0.02124
G1 X136.27 Y125.665 E0.03077
G1 X136.27 Y126.762 E0.05473
G1 X136.23 Y127.487 E0.03623
G1 X136.111 Y128.204 E0.03626
G1 X135.948 Y128.798 E0.03073
G1 X135.611 Y129.837 E0.05449
G1 X135.349 Y130.515 E0.03626
G1 X135.015 Y131.16 E0.03624
G1 X134.672 Y131.681 E0.03112
G1 X134.028 Y132.567 E0.05465
G1 X133.569 Y133.131 E0.03628
