;FLAVOR:RepRap
;TIME:4426
;Filament used: 2.02832m
;Layer height: 0.1
;Generated with Cura_SteamEngine 3.0.3
T0
M190 S100
M104 S240
M109 S240
M82 ; absolute extrusion mode
G21 ;metric values
G90 ;absolute positioning
M82 ;set extruder to absolute mode
M107 ;start with the fan off
G28 X0 Y0 ;move X/Y to min endstops
G28 Z0 ;move Z to min endstops
G1 Z15.0 F9000 ;move the platform down 15mm
G92 E0 ;zero the extruded length
G1 F200 E3 ;extrude 3mm of feed stock
G92 E0 ;zero the extruded length again
G1 F9000
;Put printing message on LCD screen
M117 Printing...
M83 ; relative extrusion mode
;LAYER_COUNT:578
;LAYER:0
M107
G0 F3600 X88.579 Y89.824 Z0.3
;TYPE:SKIRT
G1 F1800 X89.239 Y89.285 E0.04251
G1 X89.745 Y88.916 E0.03124
G1 X90.406 Y88.483 E0.03942
G1 X91.107 Y88.12 E0.03938
G1 X91.934 Y87.799 E0.04426
G1 X92.529 Y87.606 E0.03121
G1 X93.292 Y87.4 E0.03943
G1 X94.071 Y87.273 E0.03938
G1 X94.926 Y87.225 E0.04272
G1 X114.739 Y87.2 E0.98848
G1 X115.528 Y87.239 E0.03941
G1 X115.969 Y87.296 E0.02218
G1 X116.588 Y87.394 E0.03127
G1 X117.36 Y87.557 E0.03936
G1 X118.113 Y87.797 E0.03943
G1 X118.901 Y88.144 E0.04296
G1 X119.458 Y88.427 E0.03117
G1 X120.143 Y88.82 E0.0394
G1 X120.785 Y89.28 E0.0394
G1 X121.44 Y89.866 E0.04385
G1 X121.884 Y90.31 E0.03133
G1 X122.414 Y90.896 E0.03942
G1 X122.881 Y91.532 E0.03937
G1 X123.32 Y92.287 E0.04357
G1 X123.603 Y92.843 E0.03113
G1 X123.925 Y93.564 E0.0394
G1 X124.173 Y94.314 E0.03941
G1 X124.356 Y95.159 E0.04313
G1 X124.454 Y95.777 E0.03122
G1 X124.538 Y96.563 E0.03944
G1 X124.55 Y97.011 E0.02236
G1 X124.525 Y113.326 E0.81396
G1 X124.484 Y114.115 E0.03942
G1 X124.363 Y114.895 E0.03938
G1 X124.146 Y115.717 E0.04241
G1 X123.954 Y116.31 E0.0311
G1 X123.673 Y117.048 E0.0394
G1 X123.319 Y117.753 E0.03936
G1 X122.841 Y118.495 E0.04403
G1 X122.473 Y119.001 E0.03121
G1 X121.977 Y119.615 E0.03938
G1 X121.421 Y120.176 E0.03941
G1 X120.761 Y120.715 E0.04251
G1 X120.255 Y121.084 E0.03124
G1 X119.594 Y121.517 E0.03942
G1 X118.893 Y121.88 E0.03938
G1 X118.066 Y122.201 E0.04426
G1 X117.471 Y122.394 E0.03121
G1 X116.708 Y122.6 E0.03943
G1 X115.929 Y122.727 E0.03938
G1 X115.074 Y122.775 E0.04272
G1 X95.261 Y122.8 E0.98848
G1 X94.472 Y122.761 E0.03941
G1 X94.031 Y122.704 E0.02218
G1 X93.412 Y122.606 E0.03127
G1 X92.64 Y122.443 E0.03936
G1 X91.887 Y122.203 E0.03943
G1 X91.094 Y121.853 E0.04325
G1 X90.536 Y121.569 E0.03124
G1 X89.851 Y121.176 E0.0394
G1 X89.21 Y120.716 E0.03936
G1 X88.559 Y120.133 E0.0436
G1 X88.116 Y119.69 E0.03126
G1 X87.586 Y119.104 E0.03942
G1 X87.119 Y118.468 E0.03937
G1 X86.677 Y117.708 E0.04386
G1 X86.393 Y117.149 E0.03128
G1 X86.071 Y116.428 E0.0394
G1 X85.824 Y115.678 E0.03939
G1 X85.642 Y114.831 E0.04322
G1 X85.545 Y114.216 E0.03106
G1 X85.462 Y113.431 E0.03938
G1 X85.45 Y112.989 E0.02206
G1 X85.475 Y96.674 E0.81396
G1 X85.516 Y95.885 E0.03942
G1 X85.637 Y95.105 E0.03938
G1 X85.854 Y94.283 E0.04241
G1 X86.046 Y93.69 E0.0311
G1 X86.327 Y92.952 E0.0394
G1 X86.681 Y92.247 E0.03936
G1 X87.159 Y91.505 E0.04403
G1 X87.527 Y90.999 E0.03121
G1 X88.023 Y90.385 E0.03938
G1 X88.579 Y89.824 E0.03941
G0 F3600 X88.878 Y90.093
G1 F1800 X89.475 Y89.608 E0.03837
G1 X89.981 Y89.239 E0.03124
G1 X90.625 Y88.819 E0.03836
G1 X91.309 Y88.468 E0.03836
G1 X92.058 Y88.179 E0.04005
G1 X92.653 Y87.986 E0.03121
G1 X93.396 Y87.787 E0.03837
G1 X94.155 Y87.666 E0.03834
G1 X94.927 Y87.625 E0.03857
G1 X114.74 Y87.6 E0.98848
G1 X115.508 Y87.639 E0.03837
G1 X115.906 Y87.691 E0.02003
G1 X116.525 Y87.789 E0.03127
G1 X117.278 Y87.949 E0.03841
G1 X118.009 Y88.185 E0.03832
G1 X118.72 Y88.501 E0.03882
G1 X119.277 Y88.784 E0.03117
G1 X119.944 Y89.167 E0.03837
G1 X120.567 Y89.618 E0.03837
G1 X121.158 Y90.148 E0.0396
G1 X121.602 Y90.592 E0.03133
G1 X122.116 Y91.164 E0.03837
G1 X122.569 Y91.786 E0.03839
G1 X122.964 Y92.468 E0.03932
G1 X123.247 Y93.024 E0.03113
G1 X123.56 Y93.727 E0.03839
G1 X123.798 Y94.458 E0.03835
G1 X123.961 Y95.222 E0.03897
G1 X124.059 Y95.84 E0.03122
G1 X124.139 Y96.605 E0.03837
G1 X124.15 Y97.01 E0.02021
G1 X124.125 Y113.325 E0.81396
G1 X124.084 Y114.093 E0.03837
G1 X123.963 Y114.853 E0.03839
G1 X123.765 Y115.593 E0.03822
G1 X123.573 Y116.186 E0.0311
G1 X123.299 Y116.905 E0.03839
G1 X122.951 Y117.591 E0.03838
G1 X122.518 Y118.259 E0.03972
G1 X122.15 Y118.765 E0.03121
G1 X121.666 Y119.363 E0.03838
G1 X121.122 Y119.907 E0.03838
G1 X120.525 Y120.392 E0.03837
G1 X120.019 Y120.761 E0.03124
G1 X119.375 Y121.181 E0.03836
G1 X118.691 Y121.532 E0.03836
G1 X117.942 Y121.821 E0.04005
G1 X117.347 Y122.014 E0.03121
G1 X116.604 Y122.213 E0.03837
G1 X115.845 Y122.334 E0.03834
G1 X115.073 Y122.375 E0.03857
G1 X95.26 Y122.4 E0.98848
G1 X94.492 Y122.361 E0.03837
G1 X94.094 Y122.309 E0.02003
G1 X93.475 Y122.211 E0.03127
G1 X92.722 Y122.051 E0.03841
G1 X91.991 Y121.815 E0.03832
G1 X91.275 Y121.497 E0.03909
G1 X90.717 Y121.213 E0.03124
G1 X90.051 Y120.829 E0.03835
G1 X89.428 Y120.378 E0.03837
G1 X88.841 Y119.851 E0.03936
G1 X88.398 Y119.408 E0.03126
G1 X87.884 Y118.836 E0.03837
G1 X87.431 Y118.214 E0.03839
G1 X87.034 Y117.527 E0.03959
G1 X86.75 Y116.968 E0.03128
G1 X86.437 Y116.265 E0.03839
G1 X86.2 Y115.533 E0.03839
G1 X86.037 Y114.769 E0.03897
G1 X85.94 Y114.154 E0.03106
G1 X85.86 Y113.389 E0.03837
G1 X85.85 Y112.99 E0.01991
G1 X85.875 Y96.675 E0.81396
G1 X85.916 Y95.907 E0.03837
G1 X86.037 Y95.147 E0.03839
G1 X86.235 Y94.407 E0.03822
G1 X86.427 Y93.814 E0.0311
G1 X86.701 Y93.095 E0.03839
G1 X87.049 Y92.409 E0.03838
G1 X87.482 Y91.741 E0.03972
G1 X87.85 Y91.235 E0.03121
G1 X88.334 Y90.637 E0.03838
G1 X88.878 Y90.093 E0.03838
G0 F3600 X89.176 Y90.362
G1 F1800 X89.71 Y89.931 E0.03424
G1 X90.216 Y89.562 E0.03124
G1 X90.844 Y89.154 E0.03736
G1 X91.511 Y88.816 E0.03731
G1 X92.181 Y88.56 E0.03578
G1 X92.776 Y88.367 E0.03121
G1 X93.499 Y88.174 E0.03733
G1 X94.238 Y88.06 E0.0373
G1 X94.927 Y88.025 E0.03442
G1 X114.74 Y88 E0.98848
G1 X115.844 Y88.086 E0.05525
G1 X116.463 Y88.184 E0.03127
G1 X117.194 Y88.34 E0.03729
G1 X117.905 Y88.574 E0.03734
G1 X118.539 Y88.857 E0.03464
G1 X119.096 Y89.14 E0.03117
G1 X119.744 Y89.514 E0.03733
G1 X120.348 Y89.955 E0.03731
G1 X120.875 Y90.431 E0.03543
G1 X121.319 Y90.875 E0.03133
G1 X121.819 Y91.432 E0.03734
G1 X122.256 Y92.038 E0.03727
G1 X122.607 Y92.65 E0.0352
G1 X122.89 Y93.206 E0.03113
G1 X123.194 Y93.89 E0.03734
G1 X123.422 Y94.602 E0.0373
G1 X123.566 Y95.285 E0.03482
G1 X123.664 Y95.903 E0.03122
G1 X123.75 Y97.01 E0.05539
G1 X123.725 Y113.325 E0.81396
G1 X123.684 Y114.072 E0.03732
G1 X123.563 Y114.81 E0.03731
G1 X123.385 Y115.47 E0.0341
G1 X123.193 Y116.063 E0.0311
G1 X122.925 Y116.762 E0.03735
G1 X122.583 Y117.427 E0.03731
G1 X122.194 Y118.024 E0.03555
G1 X121.826 Y118.53 E0.03121
G1 X121.354 Y119.111 E0.03735
G1 X120.824 Y119.638 E0.03729
G1 X120.29 Y120.069 E0.03424
G1 X119.784 Y120.438 E0.03124
G1 X119.156 Y120.846 E0.03736
G1 X118.489 Y121.184 E0.03731
G1 X117.819 Y121.44 E0.03578
G1 X117.224 Y121.633 E0.03121
G1 X116.501 Y121.826 E0.03733
G1 X115.762 Y121.94 E0.0373
G1 X115.073 Y121.975 E0.03442
G1 X95.26 Y122 E0.98848
G1 X94.156 Y121.914 E0.05525
G1 X93.537 Y121.816 E0.03127
G1 X92.806 Y121.66 E0.03729
G1 X92.095 Y121.426 E0.03734
G1 X91.457 Y121.14 E0.03488
G1 X90.899 Y120.856 E0.03124
G1 X90.251 Y120.482 E0.03733
G1 X89.647 Y120.041 E0.03731
G1 X89.124 Y119.568 E0.03518
G1 X88.681 Y119.125 E0.03126
G1 X88.181 Y118.568 E0.03734
G1 X87.744 Y117.962 E0.03727
G1 X87.39 Y117.346 E0.03545
G1 X87.106 Y116.787 E0.03128
G1 X86.804 Y116.103 E0.0373
G1 X86.576 Y115.39 E0.03735
G1 X86.432 Y114.707 E0.03482
G1 X86.335 Y114.092 E0.03106
G1 X86.25 Y112.99 E0.05514
G1 X86.275 Y96.675 E0.81396
G1 X86.316 Y95.928 E0.03732
G1 X86.437 Y95.19 E0.03731
G1 X86.615 Y94.53 E0.0341
G1 X86.807 Y93.937 E0.0311
G1 X87.075 Y93.238 E0.03735
G1 X87.417 Y92.573 E0.03731
G1 X87.806 Y91.976 E0.03555
G1 X88.174 Y91.47 E0.03121
G1 X88.646 Y90.889 E0.03735
G1 X89.176 Y90.362 E0.03729
G0 F3600 X89.474 Y90.633
G1 F1800 X89.946 Y90.254 E0.0302
G1 X90.452 Y89.885 E0.03124
G1 X91.062 Y89.49 E0.03626
G1 X91.711 Y89.165 E0.03621
G1 X92.305 Y88.94 E0.03169
G1 X92.9 Y88.747 E0.03121
G1 X93.602 Y88.561 E0.03623
G1 X94.32 Y88.454 E0.03622
G1 X94.928 Y88.425 E0.03037
G1 X114.741 Y88.4 E0.98848
G1 X115.781 Y88.481 E0.05204
G1 X116.4 Y88.579 E0.03127
G1 X117.11 Y88.732 E0.03624
G1 X117.799 Y88.962 E0.03624
G1 X118.358 Y89.214 E0.03059
G1 X118.915 Y89.497 E0.03117
G1 X119.543 Y89.861 E0.03621
G1 X120.128 Y90.292 E0.03625
G1 X120.592 Y90.714 E0.03129
G1 X121.036 Y91.158 E0.03133
G1 X121.52 Y91.699 E0.03622
G1 X121.943 Y92.29 E0.03626
G1 X122.251 Y92.831 E0.03106
G1 X122.534 Y93.387 E0.03113
G1 X122.827 Y94.052 E0.03625
G1 X123.046 Y94.744 E0.03621
G1 X123.171 Y95.347 E0.03072
G1 X123.269 Y95.965 E0.03122
G1 X123.35 Y97.009 E0.05224
G1 X123.325 Y113.324 E0.81396
G1 X123.284 Y114.049 E0.03623
G1 X123.163 Y114.766 E0.03628
G1 X123.004 Y115.347 E0.03005
G1 X122.812 Y115.94 E0.0311
G1 X122.551 Y116.618 E0.03625
G1 X122.216 Y117.263 E0.03626
G1 X121.871 Y117.789 E0.03138
G1 X121.503 Y118.295 E0.03121
G1 X121.044 Y118.858 E0.03624
G1 X120.526 Y119.367 E0.03623
G1 X120.054 Y119.746 E0.0302
G1 X119.548 Y120.115 E0.03124
G1 X118.938 Y120.51 E0.03626
G1 X118.289 Y120.835 E0.03621
G1 X117.695 Y121.06 E0.03169
G1 X117.1 Y121.253 E0.03121
G1 X116.398 Y121.439 E0.03623
G1 X115.68 Y121.546 E0.03622
G1 X115.072 Y121.575 E0.03037
G1 X95.259 Y121.6 E0.98848
G1 X94.219 Y121.519 E0.05204
G1 X93.6 Y121.421 E0.03127
G1 X92.89 Y121.268 E0.03624
G1 X92.201 Y121.038 E0.03624
G1 X91.638 Y120.784 E0.03081
G1 X91.08 Y120.5 E0.03124
G1 X90.452 Y120.135 E0.03624
G1 X89.868 Y119.704 E0.03621
G1 X89.407 Y119.285 E0.03108
G1 X88.964 Y118.842 E0.03126
G1 X88.48 Y118.301 E0.03622
G1 X88.057 Y117.71 E0.03626
G1 X87.747 Y117.164 E0.03132
G1 X87.463 Y116.605 E0.03128
G1 X87.17 Y115.941 E0.03621
G1 X86.952 Y115.248 E0.03624
G1 X86.828 Y114.644 E0.03076
G1 X86.731 Y114.029 E0.03106
G1 X86.65 Y112.991 E0.05194
G1 X86.675 Y96.676 E0.81396
G1 X86.716 Y95.951 E0.03623
G1 X86.837 Y95.234 E0.03628
G1 X86.996 Y94.653 E0.03005
G1 X87.188 Y94.06 E0.0311
G1 X87.449 Y93.382 E0.03625
G1 X87.784 Y92.737 E0.03626
G1 X88.129 Y92.211 E0.03138
G1 X88.497 Y91.705 E0.03121
G1 X88.956 Y91.142 E0.03624
G1 X89.474 Y90.633 E0.03623
G0 F3600 X89.771 Y90.905
G1 F1800 X90.182 Y90.578 E0.0262
G1 X90.688 Y90.209 E0.03124
G1 X91.279 Y89.827 E0.03511
G1 X91.91 Y89.514 E0.03514
G1 X92.428 Y89.32 E0.0276
G1 X93.023 Y89.127 E0.03121
G1 X93.704 Y88.949 E0.03512
G1 X94.401 Y88.848 E0.03514
G1 X94.928 Y88.825 E0.02632
G1 X114.741 Y88.8 E0.98848
G1 X115.719 Y88.876 E0.04894
G1 X116.338 Y88.974 E0.03127
G1 X117.025 Y89.124 E0.03508
G1 X117.692 Y89.35 E0.03514
G1 X118.176 Y89.571 E0.02655
G1 X118.733 Y89.854 E0.03117
G1 X119.342 Y90.208 E0.03514
G1 X119.906 Y90.628 E0.03508
G1 X120.309 Y90.997 E0.02726
G1 X120.753 Y91.441 E0.03133
G1 X121.222 Y91.966 E0.03512
G1 X121.628 Y92.541 E0.03512
G1 X121.894 Y93.013 E0.02703
G1 X122.177 Y93.569 E0.03113
G1 X122.461 Y94.213 E0.03511
G1 X122.669 Y94.886 E0.03514
G1 X122.775 Y95.41 E0.02667
G1 X122.873 Y96.028 E0.03122
G1 X122.95 Y97.009 E0.04909
G1 X122.925 Y113.324 E0.81396
G1 X122.884 Y114.026 E0.03508
G1 X122.763 Y114.72 E0.03515
G1 X122.624 Y115.224 E0.02608
G1 X122.432 Y115.817 E0.0311
G1 X122.177 Y116.473 E0.03511
G1 X121.85 Y117.096 E0.0351
G1 X121.547 Y117.554 E0.0274
G1 X121.179 Y118.06 E0.03121
G1 X120.733 Y118.605 E0.03513
G1 X120.229 Y119.095 E0.03507
G1 X119.818 Y119.422 E0.0262
G1 X119.312 Y119.791 E0.03124
G1 X118.721 Y120.173 E0.03511
G1 X118.09 Y120.486 E0.03514
G1 X117.572 Y120.68 E0.0276
G1 X116.977 Y120.873 E0.03121
G1 X116.296 Y121.051 E0.03512
G1 X115.599 Y121.152 E0.03514
G1 X115.072 Y121.175 E0.02632
G1 X95.259 Y121.2 E0.98848
G1 X94.281 Y121.124 E0.04894
G1 X93.662 Y121.026 E0.03127
G1 X92.975 Y120.876 E0.03508
G1 X92.308 Y120.65 E0.03514
G1 X91.82 Y120.428 E0.02675
G1 X91.262 Y120.144 E0.03124
G1 X90.653 Y119.789 E0.03517
G1 X90.089 Y119.368 E0.03511
G1 X89.69 Y119.002 E0.02701
G1 X89.247 Y118.559 E0.03126
G1 X88.778 Y118.034 E0.03512
G1 X88.372 Y117.459 E0.03512
G1 X88.103 Y116.983 E0.02728
G1 X87.819 Y116.424 E0.03128
G1 X87.537 Y115.78 E0.03507
G1 X87.329 Y115.107 E0.03514
G1 X87.223 Y114.582 E0.02672
G1 X87.126 Y113.967 E0.03106
G1 X87.05 Y112.991 E0.04884
G1 X87.075 Y96.676 E0.81396
G1 X87.116 Y95.974 E0.03508
G1 X87.237 Y95.28 E0.03515
G1 X87.376 Y94.776 E0.02608
G1 X87.568 Y94.183 E0.0311
G1 X87.823 Y93.527 E0.03511
G1 X88.15 Y92.904 E0.0351
G1 X88.453 Y92.446 E0.0274
G1 X88.821 Y91.94 E0.03121
G1 X89.267 Y91.395 E0.03513
G1 X89.771 Y90.905 E0.03507
G0 F3600 X90.067 Y91.177
G1 F1800 X90.418 Y90.901 E0.02228
G1 X90.924 Y90.532 E0.03124
G1 X91.496 Y90.164 E0.03393
G1 X92.108 Y89.865 E0.03398
G1 X92.551 Y89.701 E0.02357
G1 X93.146 Y89.508 E0.03121
G1 X93.805 Y89.336 E0.03398
G1 X94.48 Y89.243 E0.03399
G1 X94.929 Y89.225 E0.02242
G1 X114.742 Y89.2 E0.98848
G1 X115.656 Y89.271 E0.04574
G1 X116.275 Y89.369 E0.03127
G1 X116.94 Y89.515 E0.03397
G1 X117.583 Y89.738 E0.03395
G1 X117.995 Y89.927 E0.02261
G1 X118.552 Y90.21 E0.03117
G1 X119.14 Y90.554 E0.03399
G1 X119.684 Y90.964 E0.03399
G1 X120.026 Y91.28 E0.02323
G1 X120.47 Y91.724 E0.03133
G1 X120.923 Y92.233 E0.03399
G1 X121.312 Y92.791 E0.03394
G1 X121.538 Y93.194 E0.02305
G1 X121.821 Y93.75 E0.03113
G1 X122.094 Y94.374 E0.03398
G1 X122.291 Y95.025 E0.03393
G1 X122.38 Y95.473 E0.02279
G1 X122.478 Y96.091 E0.03122
G1 X122.55 Y97.008 E0.04589
G1 X122.525 Y113.323 E0.81396
G1 X122.484 Y114.003 E0.03399
G1 X122.364 Y114.673 E0.03396
G1 X122.243 Y115.101 E0.02219
G1 X122.051 Y115.694 E0.0311
G1 X121.804 Y116.328 E0.03395
G1 X121.484 Y116.929 E0.03397
G1 X121.224 Y117.318 E0.02334
G1 X120.856 Y117.824 E0.03121
G1 X120.424 Y118.351 E0.034
G1 X119.933 Y118.823 E0.03398
G1 X119.582 Y119.099 E0.02228
G1 X119.076 Y119.468 E0.03124
G1 X118.504 Y119.836 E0.03393
G1 X117.892 Y120.135 E0.03398
G1 X117.449 Y120.299 E0.02357
G1 X116.854 Y120.492 E0.03121
G1 X116.195 Y120.664 E0.03398
G1 X115.52 Y120.757 E0.03399
G1 X115.071 Y120.775 E0.02242
G1 X95.258 Y120.8 E0.98848
G1 X94.344 Y120.729 E0.04574
G1 X93.725 Y120.631 E0.03127
G1 X93.06 Y120.485 E0.03397
G1 X92.417 Y120.262 E0.03395
G1 X92.001 Y120.071 E0.02284
G1 X91.443 Y119.787 E0.03124
G1 X90.856 Y119.443 E0.03394
G1 X90.312 Y119.033 E0.03399
G1 X89.973 Y118.719 E0.02305
G1 X89.53 Y118.276 E0.03126
G1 X89.077 Y117.767 E0.03399
G1 X88.688 Y117.209 E0.03394
G1 X88.46 Y116.802 E0.02327
G1 X88.176 Y116.243 E0.03128
G1 X87.904 Y115.619 E0.03396
G1 X87.707 Y114.967 E0.03398
G1 X87.618 Y114.52 E0.02274
G1 X87.521 Y113.905 E0.03106
G1 X87.45 Y112.992 E0.04569
G1 X87.475 Y96.677 E0.81396
G1 X87.516 Y95.997 E0.03399
G1 X87.636 Y95.327 E0.03396
G1 X87.757 Y94.899 E0.02219
G1 X87.949 Y94.306 E0.0311
G1 X88.196 Y93.672 E0.03395
G1 X88.516 Y93.071 E0.03397
G1 X88.776 Y92.682 E0.02334
G1 X89.144 Y92.176 E0.03121
G1 X89.576 Y91.649 E0.034
G1 X90.067 Y91.177 E0.03398
G0 F3600 X90.362 Y91.452
G1 F1800 X90.653 Y91.224 E0.01844
G1 X91.159 Y90.855 E0.03124
G1 X91.713 Y90.501 E0.0328
G1 X92.305 Y90.217 E0.03276
G1 X92.675 Y90.081 E0.01967
G1 X93.27 Y89.888 E0.03121
G1 X93.906 Y89.724 E0.03277
G1 X94.557 Y89.638 E0.03276
G1 X94.929 Y89.625 E0.01857
G1 X114.742 Y89.6 E0.98848
G1 X115.593 Y89.666 E0.04258
G1 X116.212 Y89.764 E0.03127
G1 X116.854 Y89.906 E0.0328
G1 X117.473 Y90.125 E0.03276
G1 X117.814 Y90.284 E0.01877
G1 X118.371 Y90.567 E0.03117
G1 X118.938 Y90.899 E0.03278
G1 X119.459 Y91.298 E0.03274
G1 X119.743 Y91.563 E0.01938
G1 X120.187 Y92.007 E0.03133
G1 X120.623 Y92.499 E0.0328
G1 X120.995 Y93.04 E0.03276
G1 X121.181 Y93.375 E0.01912
G1 X121.464 Y93.931 E0.03113
G1 X121.726 Y94.534 E0.0328
G1 X121.913 Y95.164 E0.03279
G1 X121.985 Y95.535 E0.01885
G1 X122.083 Y96.153 E0.03122
G1 X122.15 Y97.007 E0.04274
G1 X122.125 Y113.322 E0.81396
G1 X122.084 Y113.978 E0.03279
G1 X121.964 Y114.624 E0.03278
G1 X121.862 Y114.977 E0.01833
G1 X121.67 Y115.57 E0.0311
G1 X121.43 Y116.182 E0.0328
G1 X121.118 Y116.76 E0.03277
G1 X120.9 Y117.083 E0.01944
G1 X120.532 Y117.589 E0.03121
G1 X120.114 Y118.096 E0.03278
G1 X119.638 Y118.548 E0.03275
G1 X119.347 Y118.776 E0.01844
