;FLAVOR:RepRap
;TIME:4205
;Filament used: 2.36149m
;Layer height: 0.1
;Generated with Cura_SteamEngine 3.0.3
T0
M190 S100
M104 S240
M109 S240
M82 ; absolute extrusion mode
G21 ;metric values
G90 ;absolute positioning
M82 ;set extruder to absolute mode
M107 ;start with the fan off
G28 X0 Y0 ;move X/Y to min endstops
G28 Z0 ;move Z to min endstops
G1 Z15.0 F9000 ;move the platform down 15mm
G92 E0 ;zero the extruded length
G1 F200 E3 ;extrude 3mm of feed stock
G92 E0 ;zero the extruded length again
G1 F9000
;Put printing message on LCD screen
M117 Printing...
M83 ; relative extrusion mode
;LAYER_COUNT:68
;LAYER:0
M107
G0 F3600 X70.547 Y85.462 Z0.3
;TYPE:SKIRT
G1 F1800 X71.183 Y84.995 E0.03937
G1 X71.935 Y84.557 E0.04342
G1 X72.62 Y84.208 E0.03835
G1 X73.341 Y83.886 E0.0394
G1 X74.091 Y83.638 E0.03941
G1 X74.943 Y83.454 E0.04349
G1 X75.702 Y83.334 E0.03834
G1 X76.487 Y83.25 E0.03939
G1 X77.277 Y83.246 E0.03941
G1 X78.137 Y83.333 E0.04312
G1 X78.897 Y83.453 E0.03839
G1 X79.669 Y83.616 E0.03936
G1 X80.422 Y83.856 E0.03943
G1 X81.233 Y84.214 E0.04423
G1 X81.917 Y84.564 E0.03833
G1 X82.601 Y84.959 E0.03941
G1 X83.241 Y85.421 E0.03938
G1 X83.876 Y85.989 E0.0425
G1 X125.188 Y127.247 E2.91288
G1 X125.718 Y127.833 E0.03942
G1 X126.024 Y128.233 E0.02513
G1 X126.471 Y128.859 E0.03838
G1 X126.897 Y129.524 E0.0394
G1 X127.253 Y130.229 E0.0394
G1 X127.541 Y130.98 E0.04013
G1 X127.779 Y131.712 E0.0384
G1 X127.985 Y132.475 E0.03943
G1 X128.112 Y133.254 E0.03938
G1 X128.161 Y134.124 E0.04347
G1 X128.161 Y134.895 E0.03847
G1 X128.121 Y135.684 E0.03941
G1 X128.002 Y136.464 E0.03936
G1 X127.779 Y137.307 E0.0435
G1 X127.542 Y138.036 E0.03824
G1 X127.26 Y138.773 E0.03937
G1 X126.905 Y139.479 E0.03942
G1 X126.437 Y140.205 E0.04309
G1 X125.985 Y140.828 E0.0384
G1 X125.49 Y141.442 E0.03935
G1 X124.935 Y142.004 E0.03941
G1 X124.266 Y142.551 E0.04311
G1 X123.643 Y143.005 E0.03846
G1 X122.982 Y143.437 E0.0394
G1 X122.281 Y143.8 E0.03938
G1 X121.455 Y144.121 E0.04421
G1 X120.724 Y144.358 E0.03834
G1 X119.961 Y144.563 E0.03942
G1 X119.182 Y144.69 E0.03938
G1 X118.318 Y144.738 E0.04317
G1 X117.547 Y144.738 E0.03847
G1 X116.758 Y144.698 E0.03941
G1 X115.978 Y144.579 E0.03936
G1 X115.144 Y144.359 E0.04303
G1 X114.62 Y144.189 E0.02748
G1 X114.62 Y144.707 E0.02584
G1 X114.58 Y145.496 E0.03941
G1 X114.461 Y146.276 E0.03936
G1 X114.238 Y147.119 E0.0435
G1 X114.001 Y147.848 E0.03824
G1 X113.719 Y148.585 E0.03937
G1 X113.364 Y149.291 E0.03942
G1 X112.896 Y150.017 E0.04309
G1 X112.444 Y150.64 E0.0384
G1 X111.949 Y151.254 E0.03935
G1 X111.394 Y151.816 E0.03941
G1 X110.718 Y152.368 E0.04354
G1 X110.095 Y152.821 E0.03843
G1 X109.434 Y153.252 E0.03937
G1 X108.732 Y153.614 E0.03941
G1 X107.923 Y153.929 E0.04331
G1 X107.192 Y154.167 E0.03835
G1 X106.429 Y154.373 E0.03943
G1 X105.65 Y154.501 E0.03939
G1 X104.777 Y154.55 E0.04362
G1 X104.006 Y154.55 E0.03847
G1 X103.217 Y154.51 E0.03941
G1 X102.437 Y154.391 E0.03936
G1 X101.594 Y154.168 E0.0435
G1 X100.862 Y153.93 E0.0384
G1 X100.125 Y153.648 E0.03937
G1 X99.419 Y153.293 E0.03942
G1 X98.878 Y152.955 E0.03183
G1 X98.346 Y152.592 E0.03213
G1 X97.717 Y152.115 E0.03938
G1 X97.224 Y151.662 E0.0334
G1 X55.87 Y110.267 E2.91919
G1 X55.341 Y109.68 E0.03942
G1 X54.874 Y109.044 E0.03937
G1 X54.432 Y108.283 E0.04391
G1 X54.083 Y107.595 E0.03849
G1 X53.762 Y106.873 E0.03942
G1 X53.515 Y106.123 E0.03939
G1 X53.334 Y105.28 E0.04302
G1 X53.215 Y104.525 E0.03813
G1 X53.132 Y103.74 E0.03938
G1 X53.128 Y102.95 E0.03941
G1 X53.214 Y102.104 E0.04242
G1 X53.333 Y101.344 E0.03838
G1 X53.494 Y100.571 E0.03939
G1 X53.733 Y99.819 E0.03937
G1 X54.091 Y99.006 E0.04432
G1 X54.441 Y98.32 E0.03842
G1 X54.835 Y97.636 E0.03938
G1 X55.296 Y96.995 E0.03939
G1 X55.874 Y96.35 E0.04321
G1 X56.42 Y95.804 E0.03852
G1 X57.006 Y95.274 E0.03942
G1 X57.642 Y94.807 E0.03937
G1 X58.39 Y94.371 E0.04319
G1 X59.074 Y94.022 E0.03831
G1 X59.795 Y93.699 E0.03942
G1 X60.544 Y93.451 E0.03936
G1 X61.402 Y93.265 E0.0438
G1 X62.162 Y93.145 E0.03839
G1 X62.948 Y93.062 E0.03943
G1 X63.737 Y93.058 E0.03936
G1 X64.597 Y93.146 E0.04313
G1 X65.356 Y93.266 E0.03834
G1 X66.129 Y93.428 E0.0394
G1 X66.671 Y93.601 E0.02838
G1 X66.669 Y93.137 E0.02315
G1 X66.755 Y92.291 E0.04242
G1 X66.874 Y91.532 E0.03833
G1 X67.036 Y90.759 E0.0394
G1 X67.275 Y90.006 E0.03941
G1 X67.63 Y89.199 E0.04398
G1 X67.98 Y88.512 E0.03847
G1 X68.374 Y87.828 E0.03938
G1 X68.834 Y87.186 E0.0394
G1 X69.415 Y86.538 E0.04342
G1 X69.961 Y85.992 E0.03852
G1 X70.547 Y85.462 E0.03942
G0 F3600 X70.815 Y85.76
G1 F1800 X71.437 Y85.307 E0.03839
G1 X72.117 Y84.913 E0.03921
G1 X72.802 Y84.564 E0.03835
G1 X73.504 Y84.251 E0.03835
G1 X74.235 Y84.013 E0.03835
G1 X75.005 Y83.849 E0.03928
G1 X75.764 Y83.729 E0.03834
G1 X76.529 Y83.648 E0.03838
G1 X77.298 Y83.648 E0.03837
G1 X78.074 Y83.729 E0.03893
G1 X78.834 Y83.849 E0.03839
G1 X79.587 Y84.008 E0.0384
G1 X80.318 Y84.244 E0.03832
G1 X81.051 Y84.57 E0.04002
G1 X81.735 Y84.92 E0.03833
G1 X82.4 Y85.306 E0.03836
G1 X83.022 Y85.758 E0.03836
G1 X83.593 Y86.272 E0.03833
G1 X124.905 Y127.53 E2.91288
G1 X125.42 Y128.101 E0.03836
G1 X125.698 Y128.466 E0.02289
G1 X126.145 Y129.092 E0.03838
G1 X126.559 Y129.74 E0.03836
G1 X126.903 Y130.428 E0.03838
G1 X127.16 Y131.104 E0.03608
G1 X127.398 Y131.836 E0.0384
G1 X127.598 Y132.579 E0.03839
G1 X127.719 Y133.338 E0.03834
G1 X127.761 Y134.124 E0.03927
G1 X127.761 Y134.895 E0.03847
G1 X127.721 Y135.663 E0.03837
G1 X127.602 Y136.423 E0.03838
G1 X127.398 Y137.183 E0.03926
G1 X127.161 Y137.912 E0.03824
G1 X126.886 Y138.63 E0.03836
G1 X126.537 Y139.316 E0.0384
G1 X126.114 Y139.97 E0.03886
G1 X125.662 Y140.593 E0.0384
G1 X125.178 Y141.191 E0.03838
G1 X124.635 Y141.736 E0.03838
G1 X124.03 Y142.227 E0.03887
G1 X123.407 Y142.681 E0.03846
G1 X122.763 Y143.102 E0.03839
G1 X122.078 Y143.452 E0.03838
G1 X121.331 Y143.74 E0.03994
G1 X120.6 Y143.977 E0.03834
G1 X119.857 Y144.176 E0.03837
G1 X119.098 Y144.297 E0.03834
G1 X118.318 Y144.338 E0.03897
G1 X117.547 Y144.338 E0.03847
G1 X116.779 Y144.298 E0.03837
G1 X116.019 Y144.179 E0.03838
G1 X115.268 Y143.978 E0.03879
G1 X114.536 Y143.741 E0.03839
G1 X114.203 Y143.614 E0.01778
G1 X114.22 Y143.936 E0.01609
G1 X114.22 Y144.707 E0.03847
G1 X114.18 Y145.475 E0.03837
G1 X114.061 Y146.235 E0.03838
G1 X113.857 Y146.995 E0.03926
G1 X113.62 Y147.724 E0.03824
G1 X113.345 Y148.442 E0.03836
G1 X112.996 Y149.128 E0.0384
G1 X112.573 Y149.782 E0.03886
G1 X112.121 Y150.405 E0.0384
G1 X111.637 Y151.003 E0.03838
G1 X111.094 Y151.548 E0.03838
G1 X110.483 Y152.044 E0.03926
G1 X109.86 Y152.497 E0.03843
G1 X109.215 Y152.916 E0.03837
G1 X108.53 Y153.267 E0.0384
G1 X107.799 Y153.548 E0.03907
G1 X107.068 Y153.786 E0.03835
G1 X106.325 Y153.986 E0.03839
G1 X105.566 Y154.108 E0.03835
G1 X104.777 Y154.15 E0.03942
G1 X104.006 Y154.15 E0.03847
G1 X103.238 Y154.11 E0.03837
G1 X102.478 Y153.991 E0.03838
G1 X101.718 Y153.787 E0.03926
G1 X100.986 Y153.549 E0.0384
G1 X100.268 Y153.274 E0.03836
G1 X99.582 Y152.925 E0.0384
G1 X99.103 Y152.625 E0.0282
G1 X98.571 Y152.262 E0.03213
G1 X97.959 Y151.796 E0.03838
G1 X97.507 Y151.379 E0.03068
G1 X56.153 Y109.984 E2.91919
G1 X55.638 Y109.412 E0.0384
G1 X55.186 Y108.79 E0.03836
G1 X54.789 Y108.102 E0.03963
G1 X54.44 Y107.414 E0.03849
G1 X54.128 Y106.711 E0.03837
G1 X53.891 Y105.979 E0.03839
G1 X53.729 Y105.218 E0.03882
G1 X53.61 Y104.463 E0.03813
G1 X53.53 Y103.698 E0.03837
G1 X53.53 Y102.929 E0.03837
G1 X53.609 Y102.166 E0.03827
G1 X53.728 Y101.406 E0.03838
G1 X53.886 Y100.654 E0.03834
G1 X54.122 Y99.921 E0.03842
G1 X54.447 Y99.188 E0.04
G1 X54.797 Y98.502 E0.03842
G1 X55.182 Y97.836 E0.03838
G1 X55.634 Y97.213 E0.0384
G1 X56.156 Y96.632 E0.03897
G1 X56.702 Y96.086 E0.03852
G1 X57.274 Y95.572 E0.03837
G1 X57.896 Y95.119 E0.03839
G1 X58.572 Y94.727 E0.03899
G1 X59.256 Y94.378 E0.03831
G1 X59.958 Y94.065 E0.03835
G1 X60.689 Y93.826 E0.03837
G1 X61.465 Y93.661 E0.03958
G1 X62.225 Y93.541 E0.03839
G1 X62.99 Y93.46 E0.03838
G1 X63.759 Y93.46 E0.03837
G1 X64.535 Y93.541 E0.03893
G1 X65.294 Y93.661 E0.03834
G1 X66.046 Y93.82 E0.03835
G1 X66.778 Y94.057 E0.03839
G1 X67.104 Y94.202 E0.0178
G1 X67.071 Y93.885 E0.0159
G1 X67.071 Y93.116 E0.03837
G1 X67.15 Y92.353 E0.03827
G1 X67.269 Y91.594 E0.03833
G1 X67.428 Y90.841 E0.0384
G1 X67.664 Y90.109 E0.03837
G1 X67.986 Y89.381 E0.03971
G1 X68.336 Y88.694 E0.03847
G1 X68.721 Y88.028 E0.03838
G1 X69.172 Y87.405 E0.03837
G1 X69.697 Y86.82 E0.03922
G1 X70.243 Y86.274 E0.03852
G1 X70.815 Y85.76 E0.03837
G0 F3600 X71.083 Y86.057
G1 F1800 X71.689 Y85.62 E0.03727
G1 X72.298 Y85.27 E0.03504
G1 X72.983 Y84.921 E0.03835
G1 X73.667 Y84.617 E0.03734
G1 X74.379 Y84.389 E0.0373
G1 X75.068 Y84.244 E0.03513
G1 X75.827 Y84.124 E0.03834
G1 X76.571 Y84.047 E0.03732
G1 X77.319 Y84.049 E0.03732
G1 X78.012 Y84.124 E0.03478
G1 X78.772 Y84.244 E0.03839
G1 X79.503 Y84.4 E0.03729
G1 X80.214 Y84.633 E0.03733
G1 X80.869 Y84.926 E0.0358
G1 X81.553 Y85.276 E0.03833
G1 X82.199 Y85.652 E0.03729
G1 X82.802 Y86.095 E0.03733
G1 X83.311 Y86.555 E0.03423
G1 X124.623 Y127.813 E2.91288
G1 X125.123 Y128.369 E0.03731
G1 X125.373 Y128.698 E0.02062
G1 X125.82 Y129.324 E0.03838
G1 X126.221 Y129.955 E0.0373
G1 X126.553 Y130.626 E0.03735
G1 X126.78 Y131.228 E0.0321
G1 X127.018 Y131.96 E0.0384
G1 X127.211 Y132.682 E0.03729
G1 X127.326 Y133.422 E0.03736
G1 X127.361 Y134.124 E0.03507
G1 X127.361 Y134.895 E0.03847
G1 X127.321 Y135.642 E0.03732
G1 X127.202 Y136.38 E0.03729
G1 X127.018 Y137.059 E0.0351
G1 X126.781 Y137.788 E0.03824
G1 X126.512 Y138.486 E0.03732
G1 X126.17 Y139.152 E0.03735
G1 X125.79 Y139.735 E0.03472
G1 X125.338 Y140.358 E0.0384
G1 X124.867 Y140.939 E0.03731
G1 X124.336 Y141.466 E0.03732
G1 X123.795 Y141.904 E0.03473
G1 X123.172 Y142.358 E0.03846
G1 X122.544 Y142.766 E0.03736
G1 X121.877 Y143.104 E0.03731
G1 X121.208 Y143.36 E0.03574
G1 X120.477 Y143.597 E0.03834
G1 X119.754 Y143.789 E0.03732
G1 X119.015 Y143.903 E0.0373
G1 X118.318 Y143.938 E0.03482
G1 X117.547 Y143.938 E0.03847
G1 X116.8 Y143.898 E0.03732
G1 X116.062 Y143.779 E0.03729
G1 X115.391 Y143.598 E0.03467
G1 X114.659 Y143.361 E0.03839
G1 X113.96 Y143.093 E0.03735
G1 X113.746 Y142.983 E0.012
G1 X113.785 Y143.234 E0.01267
G1 X113.82 Y143.936 E0.03507
G1 X113.82 Y144.707 E0.03847
G1 X113.78 Y145.454 E0.03732
G1 X113.661 Y146.192 E0.03729
G1 X113.477 Y146.871 E0.0351
G1 X113.24 Y147.6 E0.03824
G1 X112.971 Y148.298 E0.03732
G1 X112.629 Y148.964 E0.03735
G1 X112.249 Y149.547 E0.03472
G1 X111.797 Y150.17 E0.0384
G1 X111.326 Y150.751 E0.03731
G1 X110.795 Y151.278 E0.03732
G1 X110.248 Y151.721 E0.03512
G1 X109.625 Y152.174 E0.03843
G1 X108.997 Y152.581 E0.03734
G1 X108.329 Y152.918 E0.03733
G1 X107.675 Y153.168 E0.03493
G1 X106.944 Y153.406 E0.03835
G1 X106.221 Y153.599 E0.03733
G1 X105.482 Y153.714 E0.03731
G1 X104.777 Y153.75 E0.03522
G1 X104.006 Y153.75 E0.03847
G1 X103.259 Y153.71 E0.03732
G1 X102.521 Y153.591 E0.03729
G1 X101.842 Y153.407 E0.0351
G1 X101.11 Y153.169 E0.0384
G1 X100.412 Y152.9 E0.03732
G1 X99.746 Y152.558 E0.03735
G1 X99.329 Y152.294 E0.02462
G1 X98.797 Y151.931 E0.03213
G1 X98.202 Y151.477 E0.03734
G1 X97.79 Y151.096 E0.028
G1 X56.436 Y109.701 E2.91919
G1 X55.936 Y109.145 E0.03731
G1 X55.499 Y108.538 E0.03732
G1 X55.145 Y107.921 E0.03549
G1 X54.796 Y107.233 E0.03849
G1 X54.494 Y106.548 E0.03735
G1 X54.266 Y105.836 E0.0373
G1 X54.124 Y105.156 E0.03466
G1 X54.005 Y104.401 E0.03813
G1 X53.929 Y103.657 E0.03731
G1 X53.932 Y102.909 E0.03732
G1 X54.004 Y102.228 E0.03416
G1 X54.123 Y101.468 E0.03838
G1 X54.278 Y100.736 E0.03733
G1 X54.511 Y100.025 E0.03733
G1 X54.804 Y99.37 E0.0358
G1 X55.154 Y98.684 E0.03842
G1 X55.529 Y98.036 E0.03735
G1 X55.971 Y97.433 E0.0373
G1 X56.439 Y96.915 E0.03483
G1 X56.985 Y96.369 E0.03852
G1 X57.542 Y95.869 E0.03734
G1 X58.148 Y95.432 E0.03727
G1 X58.754 Y95.084 E0.03486
G1 X59.438 Y94.735 E0.03831
G1 X60.121 Y94.431 E0.0373
G1 X60.833 Y94.202 E0.03731
G1 X61.527 Y94.056 E0.03538
G1 X62.287 Y93.936 E0.03839
G1 X63.031 Y93.859 E0.03732
G1 X63.779 Y93.861 E0.03732
G1 X64.472 Y93.936 E0.03478
G1 X65.231 Y94.056 E0.03834
G1 X65.963 Y94.212 E0.03734
G1 X66.673 Y94.445 E0.03728
G1 X67.323 Y94.737 E0.03555
G1 X67.591 Y94.874 E0.01502
G1 X67.546 Y94.587 E0.01449
G1 X67.469 Y93.843 E0.03732
G1 X67.473 Y93.095 E0.03732
G1 X67.545 Y92.415 E0.03411
G1 X67.664 Y91.656 E0.03833
G1 X67.82 Y90.924 E0.03734
G1 X68.052 Y90.213 E0.03731
G1 X68.343 Y89.562 E0.03558
G1 X68.693 Y88.875 E0.03847
G1 X69.068 Y88.228 E0.03731
G1 X69.509 Y87.624 E0.03731
G1 X69.98 Y87.103 E0.03504
G1 X70.526 Y86.557 E0.03852
G1 X71.083 Y86.057 E0.03734
G0 F3600 X71.35 Y86.356
G1 F1800 X71.941 Y85.933 E0.03626
G1 X72.48 Y85.626 E0.03095
G1 X73.165 Y85.277 E0.03835
G1 X73.829 Y84.984 E0.03621
G1 X74.522 Y84.765 E0.03626
G1 X75.13 Y84.639 E0.03098
G1 X75.889 Y84.519 E0.03834
G1 X76.612 Y84.445 E0.03626
G1 X77.338 Y84.451 E0.03622
G1 X77.949 Y84.519 E0.03067
G1 X78.709 Y84.639 E0.03839
G1 X79.42 Y84.791 E0.03627
G1 X80.109 Y85.021 E0.03624
G1 X80.686 Y85.283 E0.03162
G1 X81.37 Y85.633 E0.03833
G1 X81.998 Y85.998 E0.03624
G1 X82.581 Y86.431 E0.03623
G1 X83.028 Y86.838 E0.03016
G1 X124.34 Y128.096 E2.91288
G1 X124.825 Y128.637 E0.03625
G1 X125.047 Y128.931 E0.01838
G1 X125.494 Y129.557 E0.03838
G1 X125.883 Y130.17 E0.03622
G1 X126.202 Y130.823 E0.03626
G1 X126.4 Y131.351 E0.02813
G1 X126.638 Y132.083 E0.0384
G1 X126.824 Y132.785 E0.03623
G1 X126.932 Y133.504 E0.03627
G1 X126.961 Y134.124 E0.03097
G1 X126.961 Y134.895 E0.03847
G1 X126.921 Y135.62 E0.03623
G1 X126.802 Y136.337 E0.03626
G1 X126.638 Y136.936 E0.03098
G1 X126.401 Y137.665 E0.03824
G1 X126.138 Y138.342 E0.03623
G1 X125.803 Y138.986 E0.03622
G1 X125.466 Y139.5 E0.03066
G1 X125.014 Y140.123 E0.0384
G1 X124.556 Y140.686 E0.03621
G1 X124.038 Y141.196 E0.03627
G1 X123.559 Y141.581 E0.03066
G1 X122.936 Y142.035 E0.03846
G1 X122.326 Y142.43 E0.03626
G1 X121.677 Y142.755 E0.03621
G1 X121.085 Y142.979 E0.03158
G1 X120.354 Y143.216 E0.03834
G1 X119.651 Y143.402 E0.03628
G1 X118.933 Y143.509 E0.03622
G1 X118.318 Y143.538 E0.03072
G1 X117.547 Y143.538 E0.03847
G1 X116.822 Y143.498 E0.03623
G1 X116.105 Y143.379 E0.03626
G1 X115.514 Y143.217 E0.03057
G1 X114.782 Y142.98 E0.03839
G1 X114.104 Y142.719 E0.03625
G1 X113.459 Y142.384 E0.03626
G1 X113.179 Y142.206 E0.01655
G1 X113.283 Y142.597 E0.02019
G1 X113.391 Y143.316 E0.03627
G1 X113.42 Y143.936 E0.03097
G1 X113.42 Y144.707 E0.03847
G1 X113.38 Y145.432 E0.03623
G1 X113.261 Y146.149 E0.03626
G1 X113.097 Y146.748 E0.03098
G1 X112.86 Y147.477 E0.03824
G1 X112.597 Y148.154 E0.03623
G1 X112.262 Y148.798 E0.03622
G1 X111.925 Y149.312 E0.03066
G1 X111.473 Y149.935 E0.0384
G1 X111.015 Y150.498 E0.03621
G1 X110.497 Y151.008 E0.03627
G1 X110.012 Y151.397 E0.03102
G1 X109.389 Y151.85 E0.03843
G1 X108.779 Y152.244 E0.03623
G1 X108.13 Y152.569 E0.03621
G1 X107.551 Y152.788 E0.03088
G1 X106.82 Y153.026 E0.03835
G1 X106.118 Y153.212 E0.03623
G1 X105.4 Y153.321 E0.03623
G1 X104.777 Y153.35 E0.03112
G1 X104.006 Y153.35 E0.03847
G1 X103.281 Y153.31 E0.03623
G1 X102.564 Y153.191 E0.03626
G1 X101.965 Y153.027 E0.03098
G1 X101.233 Y152.789 E0.0384
G1 X100.556 Y152.526 E0.03623
G1 X99.911 Y152.191 E0.03626
G1 X99.554 Y151.964 E0.02111
G1 X99.022 Y151.601 E0.03213
G1 X98.446 Y151.159 E0.03622
G1 X98.073 Y150.814 E0.02535
G1 X56.719 Y109.419 E2.91919
G1 X56.234 Y108.877 E0.03629
G1 X55.813 Y108.286 E0.0362
G1 X55.502 Y107.74 E0.03135
G1 X55.153 Y107.052 E0.03849
G1 X54.861 Y106.387 E0.03623
G1 X54.643 Y105.694 E0.03624
G1 X54.519 Y105.094 E0.03057
G1 X54.4 Y104.339 E0.03813
G1 X54.327 Y103.616 E0.03625
G1 X54.333 Y102.89 E0.03622
G1 X54.399 Y102.29 E0.03011
G1 X54.518 Y101.53 E0.03838
G1 X54.67 Y100.82 E0.03622
G1 X54.899 Y100.13 E0.03627
G1 X55.16 Y99.551 E0.03169
G1 X55.51 Y98.865 E0.03842
G1 X55.875 Y98.238 E0.0362
G1 X56.307 Y97.654 E0.03624
G1 X56.722 Y97.198 E0.03076
G1 X57.268 Y96.652 E0.03852
G1 X57.809 Y96.168 E0.03622
G1 X58.4 Y95.745 E0.03626
G1 X58.935 Y95.44 E0.03072
G1 X59.619 Y95.091 E0.03831
G1 X60.284 Y94.797 E0.03627
G1 X60.976 Y94.578 E0.03621
G1 X61.59 Y94.451 E0.03128
G1 X62.35 Y94.331 E0.03839
G1 X63.072 Y94.257 E0.03621
