;FLAVOR:RepRap
;TIME:2870
;Filament used: 0.644992m
;Layer height: 0.1
;Generated with Cura_SteamEngine 3.0.3
T0
M190 S70
M104 S200
M109 S200
M82 ; absolute extrusion mode
G21 ;metric values
G90 ;absolute positioning
M82 ;set extruder to absolute mode
M107 ;start with the fan off
G28 X0 Y0 ;move X/Y to min endstops
G28 Z0 ;move Z to min endstops
G1 Z15.0 F9000 ;move the platform down 15mm
G92 E0 ;zero the extruded length
G1 F200 E3 ;extrude 3mm of feed stock
G92 E0 ;zero the extruded length again
G1 F9000
M117 Printing...
G5
M83 ; relative extrusion mode
;LAYER_COUNT:568
;LAYER:0
M107
G0 F3600 X100.496 Y102.9 Z0.3
;TYPE:WALL-INNER
G1 F1800 X100.759 Y102.9 E0.01837
G1 X101.028 Y102.9 E0.01879
G1 X109.02 Y102.9 E0.55821
G1 X109.092 Y102.9 E0.00503
G1 X109.402 Y102.9 E0.02165
G1 X109.504 Y102.9 E0.00712
G1 X109.402 Y102.989
G1 X109.092 Y103.375 E0.01694
G1 X109.057 Y103.437 E0.00465
G1 X108.853 Y103.802 E0.02921
G1 X108.688 Y104.267 E0.03446
G1 X108.605 Y104.753 E0.03444
G1 X108.605 Y105.247 E0.0345
G1 X108.688 Y105.733 E0.03444
G1 X108.853 Y106.198 E0.03446
G1 X109.057 Y106.563 E0.02921
G1 X109.092 Y106.625 E0.00497
G1 X109.402 Y107.011 E0.03458
G1 X109.504 Y107.1 E0.00946
G1 X109.402 Y107.1
G1 X109.092 Y107.1
G1 X109.02 Y107.1 E0.0047
G1 X101.028 Y107.1 E0.55821
G1 X100.759 Y107.1 E0.01879
G1 X100.496 Y107.1 E0.01837
G1 X100.759 Y106.825 E0.00021
G1 X100.91 Y106.603 E0.01452
G1 X101.037 Y106.417 E0.01573
G1 X101.239 Y105.967 E0.03445
G1 X101.363 Y105.492 E0.03429
G1 X101.405 Y105 E0.03449
G1 X101.363 Y104.508 E0.03449
G1 X101.239 Y104.033 E0.03429
G1 X101.037 Y103.583 E0.03445
G1 X100.91 Y103.397 E0.01573
G1 X100.759 Y103.175 E0.0107
G1 X100.496 Y102.9 E0.00403
G0 F3600 X100.048 Y103.241
G1 F1800 X99.728 Y103.006 E0.02773
G1 X99.511 Y102.895 E0.01702
G1 X99.374 Y102.826 E0.01071
G1 X98.994 Y102.71 E0.02775
G1 X98.6 Y102.658 E0.02776
G1 X98.541 Y102.66 E0.00412
G1 X98.201 Y102.676 E0.02377
G1 X98.156 Y102.685 E0.00321
G1 X97.812 Y102.76 E0.02459
G1 X97.798 Y102.766 E0.00106
G1 X97.446 Y102.908 E0.02651
G1 X97.108 Y103.115 E0.02768
G1 X96.829 Y103.36 E0.02593
G1 X96.808 Y103.378 E0.00193
G1 X96.597 Y103.641 E0.02355
G1 X96.558 Y103.689 E0.00432
G1 X96.413 Y103.948 E0.02073
G1 X96.365 Y104.034 E0.00688
G1 X96.276 Y104.286 E0.01867
G1 X96.232 Y104.409 E0.00912
G1 X96.193 Y104.643 E0.01657
G1 X96.165 Y104.801 E0.01121
G1 X96.165 Y105 E0.0139
G1 X96.165 Y105.199 E0.0139
G1 X96.192 Y105.357 E0.0112
G1 X96.232 Y105.591 E0.01658
G1 X96.275 Y105.714 E0.0091
G1 X96.365 Y105.966 E0.01869
G1 X96.412 Y106.051 E0.00678
G1 X96.558 Y106.311 E0.02083
G1 X96.595 Y106.357 E0.00412
G1 X96.808 Y106.622 E0.02375
G1 X96.829 Y106.64 E0.00193
G1 X97.108 Y106.885 E0.02593
G1 X97.446 Y107.092 E0.02768
G1 X97.797 Y107.233 E0.02642
G1 X97.812 Y107.24 E0.00116
G1 X98.156 Y107.314 E0.02458
G1 X98.201 Y107.324 E0.00322
G1 X98.541 Y107.339 E0.02377
G1 X98.6 Y107.342 E0.00413
G1 X98.994 Y107.29 E0.02776
G1 X99.374 Y107.174 E0.02775
G1 X99.511 Y107.105 E0.01071
G1 X99.728 Y106.994 E0.01702
G1 X100.048 Y106.759 E0.02773
G1 X100.322 Y106.472 E0.02771
G1 X100.546 Y106.143 E0.0278
G1 X100.709 Y105.78 E0.02779
G1 X100.809 Y105.397 E0.02765
G1 X100.843 Y105 E0.02783
G1 X100.809 Y104.603 E0.02783
G1 X100.709 Y104.22 E0.02765
G1 X100.546 Y103.857 E0.02779
G1 X100.322 Y103.528 E0.0278
G1 X100.048 Y103.241 E0.02771
G0 F3600 X100.114 Y103.166
G0 X99.528 Y102.44
G0 X99.528 Y102.34
G1 F1800 X110.453 Y102.34 E0.76307
G1 X110.812 Y102.34 E0.02507
G1 X111.201 Y102.34 E0.02717
G1 X111.474 Y102.34 E0.01907
G1 X111.623 Y102.351 E0.01044
G1 X111.912 Y102.374 E0.02025
G1 X112.065 Y102.411 E0.01099
G1 X112.322 Y102.473 E0.01847
G1 X112.491 Y102.543 E0.01278
G1 X112.708 Y102.633 E0.01641
G1 X112.888 Y102.743 E0.01473
G1 X113.058 Y102.847 E0.01392
G1 X113.246 Y103.008 E0.01729
G1 X113.379 Y103.121 E0.01219
G1 X113.555 Y103.327 E0.01892
G1 X113.653 Y103.442 E0.01055
G1 X113.808 Y103.696 E0.02078
G1 X113.867 Y103.792 E0.00787
G1 X113.995 Y104.102 E0.02343
G1 X114.027 Y104.178 E0.00576
G1 X114.112 Y104.53 E0.02529
G1 X114.126 Y104.588 E0.00417
G1 X114.156 Y104.976 E0.02718
G1 X114.158 Y105 E0.00168
G1 X114.157 Y105.023 E0.00161
G1 X114.126 Y105.412 E0.02726
G1 X114.113 Y105.469 E0.00408
G1 X114.027 Y105.822 E0.02538
G1 X113.996 Y105.898 E0.00573
G1 X113.867 Y106.208 E0.02345
G1 X113.809 Y106.303 E0.00777
G1 X113.653 Y106.558 E0.02088
G1 X113.557 Y106.671 E0.01036
G1 X113.379 Y106.879 E0.01912
G1 X113.248 Y106.991 E0.01204
G1 X113.058 Y107.153 E0.01744
G1 X112.889 Y107.256 E0.01382
G1 X112.708 Y107.367 E0.01483
G1 X112.491 Y107.457 E0.01641
G1 X112.322 Y107.527 E0.01278
G1 X112.066 Y107.588 E0.01838
G1 X111.912 Y107.626 E0.01108
G1 X111.624 Y107.648 E0.02017
G1 X111.474 Y107.66 E0.01051
G1 X111.201 Y107.66 E0.01907
G1 X110.812 Y107.66 E0.02717
G1 X110.453 Y107.66 E0.02507
G1 X99.528 Y107.66 E0.76307
G1 X99.374 Y107.66 E0.00878
G1 X98.994 Y107.66 E0.01447
G1 X98.6 Y107.66 E0.00661
G1 X98.526 Y107.66
G1 X98.177 Y107.633 E0.00231
G1 X98.088 Y107.626
G1 X97.739 Y107.542 E0.0028
G1 X97.678 Y107.527
G1 X97.326 Y107.381 E0.0053
G1 X97.292 Y107.367
G1 X97.282 Y107.361
G1 X96.942 Y107.153 E0.00413
G1 X96.907 Y107.123
G1 X96.621 Y106.879 E0.00088
G1 X96.573 Y106.823
G1 X96.347 Y106.558
G1 X96.295 Y106.473 E0.00257
G1 X96.133 Y106.208
G1 X96.082 Y106.084 E0.00343
G1 X95.973 Y105.822
G1 X95.935 Y105.663 E0.00417
G1 X95.874 Y105.412
G1 X95.86 Y105.224 E0.00487
G1 X95.842 Y105
G1 X95.859 Y104.778 E0.00591
G1 X95.874 Y104.588
G1 X95.934 Y104.337
G1 X95.973 Y104.178
G1 X96.081 Y103.917 E0.00775
G1 X96.133 Y103.792
G1 X96.294 Y103.529 E0.00859
G1 X96.347 Y103.442
G1 X96.572 Y103.178 E0.00993
G1 X96.621 Y103.121
G1 X96.905 Y102.879 E0.01087
G1 X96.942 Y102.847
G1 X97.281 Y102.64 E0.00606
G1 X97.292 Y102.633
G1 X97.326 Y102.619
G1 X97.678 Y102.473 E0.00149
G1 X97.739 Y102.459 E0.0017
G1 X98.088 Y102.374 E0.00278
G1 X98.176 Y102.368 E0.0023
G1 X98.526 Y102.34
G1 X98.6 Y102.34
G1 X98.994 Y102.34 E0.00357
G1 X99.374 Y102.34 E0.0162
G1 X99.528 Y102.34 E0.01007
G0 F3600 X99.528 Y102.44
G0 X109.136 Y104.384
G0 X109.232 Y104.409
G1 F1800 X109.165 Y104.801 E0.02778
G1 X109.165 Y105.199 E0.0278
G1 X109.232 Y105.591 E0.02778
G1 X109.365 Y105.966 E0.02779
G1 X109.558 Y106.311 E0.02761
G1 X109.808 Y106.622 E0.02787
G1 X110.108 Y106.885 E0.02787
G1 X110.446 Y107.092 E0.02768
G1 X110.479 Y107.106 E0.0025
G1 X110.812 Y107.24 E0.02199
G1 X111.201 Y107.324 E0.0103
G1 X111.489 Y107.336 E0.00299
G1 X111.6 Y107.342
G1 X111.869 Y107.307
G1 X111.994 Y107.29
G1 X112.227 Y107.219
G1 X112.374 Y107.174
G1 X112.561 Y107.079
G1 X112.728 Y106.994 E0.0013
G1 X112.865 Y106.893
G1 X113.048 Y106.759 E0.00205
G1 X113.146 Y106.657
G1 X113.322 Y106.472 E0.00148
G1 X113.386 Y106.377
G1 X113.546 Y106.143 E0.00364
G1 X113.575 Y106.078
G1 X113.709 Y105.78
G1 X113.718 Y105.743
G1 X113.809 Y105.397 E0.00102
G1 X113.81 Y105.386
G1 X113.843 Y105
G1 X113.811 Y104.615 E0.00043
G1 X113.809 Y104.603
G1 X113.719 Y104.258 E0.0049
G1 X113.709 Y104.22
G1 X113.576 Y103.922 E0.00267
G1 X113.546 Y103.857
G1 X113.388 Y103.624 E0.0004
G1 X113.322 Y103.528
G1 X113.146 Y103.344
G1 X113.048 Y103.241 E0.00289
G1 X112.867 Y103.108
G1 X112.728 Y103.006 E0.00099
G1 X112.563 Y102.922
G1 X112.374 Y102.826 E0.00176
G1 X112.229 Y102.782
G1 X111.994 Y102.71 E0.00258
G1 X111.87 Y102.694
G1 X111.6 Y102.658
G1 X111.489 Y102.663
G1 X111.201 Y102.676
G1 X110.812 Y102.76 E0.01659
G1 X110.479 Y102.894 E0.02199
G1 X110.446 Y102.908 E0.0025
G1 X110.108 Y103.115 E0.02768
G1 X109.808 Y103.378 E0.02787
G1 X109.558 Y103.689 E0.02787
G1 X109.365 Y104.034 E0.02761
G1 X109.232 Y104.409 E0.02779
G0 F3600 X109.136 Y104.384
G0 X109.525 Y103.667
G0 X110.085 Y103.083
G0 X110.801 Y102.722
G0 X111.244 Y102.573
G0 X111.273 Y103.233
;TYPE:WALL-OUTER
G1 F1800 X110.978 Y103.297 E0.02108
G1 X110.699 Y103.41 E0.02102
G1 X110.441 Y103.568 E0.02113
G1 X110.214 Y103.767 E0.02109
G1 X110.024 Y104.003 E0.02116
G1 X109.877 Y104.266 E0.02104
G1 X109.776 Y104.551 E0.02112
G1 X109.725 Y104.849 E0.02112
G1 X109.725 Y105.151 E0.02109
G1 X109.776 Y105.449 E0.02112
G1 X109.877 Y105.734 E0.02112
G1 X110.024 Y105.997 E0.02104
G1 X110.214 Y106.233 E0.02116
G1 X110.441 Y106.432 E0.02109
G1 X110.699 Y106.59 E0.02113
G1 X110.978 Y106.703 E0.02102
G1 X111.273 Y106.767 E0.02108
G1 X111.576 Y106.78 E0.02118
G1 X111.875 Y106.741 E0.02106
G1 X112.164 Y106.653 E0.0211
G1 X112.433 Y106.516 E0.02109
G1 X112.677 Y106.337 E0.02114
G1 X112.885 Y106.119 E0.02105
G1 X113.055 Y105.869 E0.02112
G1 X113.179 Y105.593 E0.02113
G1 X113.255 Y105.302 E0.02101
G1 X113.281 Y105 E0.02117
G1 X113.255 Y104.698 E0.02117
G1 X113.179 Y104.407 E0.02101
G1 X113.055 Y104.131 E0.02113
G1 X112.885 Y103.881 E0.02112
G1 X112.677 Y103.663 E0.02105
G1 X112.433 Y103.484 E0.02114
G1 X112.164 Y103.347 E0.02109
G1 X111.875 Y103.259 E0.0211
G1 X111.576 Y103.22 E0.02106
G1 X111.273 Y103.233 E0.02118
G0 F3600 X111.077 Y103.275
G0 X110.937 Y102.631
G0 X111.897 Y102.472
G0 X112.005 Y101.82
G1 F1800 X112.492 Y101.937 E0.03498
G1 X112.962 Y102.132 E0.03554
G1 X113.391 Y102.395 E0.03515
G1 X113.776 Y102.724 E0.03537
G1 X114.105 Y103.109 E0.03537
G1 X114.368 Y103.538 E0.03515
G1 X114.563 Y104.008 E0.03554
G1 X114.68 Y104.495 E0.03498
G1 X114.719 Y105 E0.03538
G1 X114.68 Y105.505 E0.03538
G1 X114.563 Y105.992 E0.03498
G1 X114.368 Y106.462 E0.03554
G1 X114.105 Y106.891 E0.03515
G1 X113.776 Y107.276 E0.03537
G1 X113.391 Y107.605 E0.03537
G1 X112.962 Y107.868 E0.03515
G1 X112.492 Y108.063 E0.03554
G1 X112.005 Y108.18 E0.03498
G1 X111.491 Y108.22 E0.03601
G1 X98.509 Y108.22 E0.90674
G1 X97.995 Y108.18 E0.03601
G1 X97.508 Y108.063 E0.03498
G1 X97.038 Y107.868 E0.03554
G1 X96.609 Y107.605 E0.03515
G1 X96.224 Y107.276 E0.03537
G1 X95.895 Y106.891 E0.03537
G1 X95.632 Y106.462 E0.03515
G1 X95.437 Y105.992 E0.03554
G1 X95.32 Y105.505 E0.03498
G1 X95.281 Y105 E0.03538
G1 X95.32 Y104.495 E0.03538
G1 X95.437 Y104.008 E0.03498
G1 X95.632 Y103.538 E0.03554
G1 X95.895 Y103.109 E0.03515
G1 X96.224 Y102.724 E0.03537
G1 X96.609 Y102.395 E0.03537
G1 X97.038 Y102.132 E0.03515
G1 X97.508 Y101.937 E0.03554
G1 X97.995 Y101.82 E0.03498
G1 X98.509 Y101.78 E0.03601
G1 X111.491 Y101.78 E0.90674
G1 X112.005 Y101.82 E0.03601
G0 F3600 X112.199 Y101.866
G0 X112.044 Y102.508
G0 X98.244 Y102.573
G0 X98.273 Y103.233
G1 F1800 X97.978 Y103.297 E0.02108
G1 X97.699 Y103.41 E0.02102
G1 X97.441 Y103.568 E0.02113
G1 X97.214 Y103.767 E0.02109
G1 X97.024 Y104.003 E0.02116
G1 X96.877 Y104.266 E0.02104
G1 X96.776 Y104.551 E0.02112
G1 X96.725 Y104.849 E0.02112
G1 X96.725 Y105.151 E0.02109
G1 X96.776 Y105.449 E0.02112
G1 X96.877 Y105.734 E0.02112
G1 X97.024 Y105.997 E0.02104
G1 X97.214 Y106.233 E0.02116
G1 X97.441 Y106.432 E0.02109
G1 X97.699 Y106.59 E0.02113
G1 X97.978 Y106.703 E0.02102
G1 X98.273 Y106.767 E0.02108
G1 X98.576 Y106.78 E0.02118
G1 X98.875 Y106.741 E0.02106
G1 X99.164 Y106.653 E0.0211
G1 X99.433 Y106.516 E0.02109
G1 X99.677 Y106.337 E0.02114
G1 X99.885 Y106.119 E0.02105
G1 X100.055 Y105.869 E0.02112
G1 X100.179 Y105.593 E0.02113
G1 X100.255 Y105.302 E0.02101
G1 X100.281 Y105 E0.02117
G1 X100.255 Y104.698 E0.02117
G1 X100.179 Y104.407 E0.02101
G1 X100.055 Y104.131 E0.02113
G1 X99.885 Y103.881 E0.02112
G1 X99.677 Y103.663 E0.02105
G1 X99.433 Y103.484 E0.02114
G1 X99.164 Y103.347 E0.02109
G1 X98.875 Y103.259 E0.0211
G1 X98.576 Y103.22 E0.02106
G1 X98.273 Y103.233 E0.02118
G0 F3600 X98.077 Y103.275
G0 X97.937 Y102.631
G0 X99.002 Y102.671
G0 X101.595 Y103.46
;TYPE:WALL-INNER
G1 F1800 X108.403 Y103.46 E0.47551
G1 X108.341 Y103.57 E0.00882
G1 X108.144 Y104.125 E0.04113
G1 X108.045 Y104.705 E0.0411
G1 X108.045 Y105.295 E0.04121
G1 X108.144 Y105.875 E0.0411
G1 X108.341 Y106.43 E0.04113
G1 X108.403 Y106.54 E0.00882
G1 X101.595 Y106.54 E0.47551
G1 X101.769 Y106.153 E0.02964
G1 X101.917 Y105.588 E0.04079
G1 X101.967 Y105 E0.04122
G1 X101.917 Y104.412 E0.04122
G1 X101.769 Y103.847 E0.04079
G1 X101.595 Y103.46 E0.02964
G0 F3600 X102.07 Y106.029
;TYPE:SKIN
G1 F1800 X102.319 Y106.279 E0.02465
G0 F3600 X103.111 Y106.279
G1 F1800 X102.196 Y105.364 E0.09038
G1 X102.126 Y105.294
G0 F3600 X102.191 Y104.566
G1 F1800 X103.903 Y106.279 E0.16916
G1 X103.973 Y106.349
G0 F3600 X104.695 Y106.279
G1 F1800 X102.135 Y103.719 E0.25287
G1 X102.065 Y103.649
G0 F3600 X102.927 Y103.719
G1 F1800 X105.487 Y106.279 E0.25287
G1 X105.557 Y106.349
G0 F3600 X106.279 Y106.279
G1 F1800 X103.719 Y103.719 E0.25287
G1 X103.649 Y103.649
G0 F3600 X104.511 Y103.719
G1 F1800 X107.071 Y106.279 E0.25287
G1 X107.141 Y106.349
G0 F3600 X107.863 Y106.279
G1 F1800 X105.303 Y103.719 E0.25287
G1 X105.233 Y103.649
G0 F3600 X106.095 Y103.719
G1 F1800 X107.803 Y105.427 E0.16871
G1 X107.873 Y105.497
G0 F3600 X107.794 Y104.626
G1 F1800 X106.887 Y103.719 E0.08959
G1 X106.817 Y103.649
G0 F3600 X107.679 Y103.719
G1 F1800 X107.924 Y103.964 E0.0242
G0 F3600 X98.624 Y102.5
;TIME_ELAPSED:10.843489
;LAYER:1
M140 S70
M106 S255
G0 F5400 X98.624 Y102.5 Z0.4
;TYPE:WALL-INNER
G1 F2100 X99.028 Y102.5 E0.00672
G1 X99.434 Y102.5 E0.00675
G1 X99.811 Y102.5 E0.00627
G1 X99.859 Y102.5 E0.0008
G1 X110.135 Y102.5 E0.17089
G1 X110.374 Y102.5 E0.00397
G1 X110.766 Y102.501 E0.00652
G1 X111.18 Y102.502 E0.00688
G1 X111.497 Y102.503 E0.00527
G1 X111.18 Y102.517
G1 X110.766 Y102.606 E0.00116
G1 X110.374 Y102.765 E0.00346
G1 X110.171 Y102.889 E0.00331
G1 X110.013 Y102.986 E0.00308
G1 X109.692 Y103.267 E0.00709
G1 X109.427 Y103.598 E0.00705
G1 X109.218 Y103.967 E0.00705
G1 X109.078 Y104.369 E0.00708
G1 X109.005 Y104.788 E0.00707
G1 X109.005 Y105.212 E0.00705
G1 X109.078 Y105.631 E0.00707
G1 X109.218 Y106.033 E0.00708
G1 X109.427 Y106.402 E0.00705
G1 X109.692 Y106.733 E0.00705
G1 X110.013 Y107.014 E0.00709
G1 X110.166 Y107.108 E0.00299
G1 X110.374 Y107.235 E0.00405
G1 X110.766 Y107.394 E0.00703
G1 X111.18 Y107.483 E0.00704
G1 X111.497 Y107.497 E0.00528
G1 X111.18 Y107.497
G1 X110.766 Y107.497 E0.00098
G1 X110.375 Y107.497 E0.00327
G1 X110.131 Y107.497 E0.00339
G1 X99.865 Y107.497 E0.17072
G1 X99.812 Y107.497 E0.00088
G1 X99.435 Y107.498 E0.00627
G1 X99.029 Y107.499 E0.00675
G1 X98.624 Y107.5 E0.00674
G1 X99.028 Y107.446 E0.00048
G1 X99.434 Y107.324 E0.00215
G1 X99.811 Y107.132 E0.00492
G1 X99.853 Y107.101 E0.00083
G1 X100.154 Y106.88 E0.00621
G1 X100.447 Y106.572 E0.00707
G1 X100.686 Y106.222 E0.00705
G1 X100.861 Y105.833 E0.00709
G1 X100.968 Y105.424 E0.00703
G1 X101.005 Y105 E0.00708
G1 X100.968 Y104.576 E0.00708
G1 X100.861 Y104.167 E0.00703
G1 X100.686 Y103.778 E0.00709
G1 X100.447 Y103.428 E0.00705
G1 X100.154 Y103.12 E0.00707
G1 X99.849 Y102.896 E0.00629
G1 X99.811 Y102.868 E0.00075
G1 X99.434 Y102.676 E0.00497
G1 X99.028 Y102.554 E0.00218
G1 X98.624 Y102.5 E0.0005
G0 F5400 X98.591 Y102.899
G1 F2100 X98.231 Y102.915 E0.00599
G1 X97.884 Y102.99 E0.0059
G1 X97.555 Y103.123 E0.0059
G1 X97.251 Y103.309 E0.00593
G1 X96.982 Y103.545 E0.00595
G1 X96.759 Y103.823 E0.00593
G1 X96.584 Y104.133 E0.00592
G1 X96.466 Y104.47 E0.00594
G1 X96.405 Y104.822 E0.00594
G1 X96.405 Y105.178 E0.00592
G1 X96.466 Y105.53 E0.00594
G1 X96.584 Y105.867 E0.00594
G1 X96.759 Y106.177 E0.00592
G1 X96.982 Y106.455 E0.00593
G1 X97.251 Y106.691 E0.00595
G1 X97.555 Y106.877 E0.00593
G1 X97.884 Y107.01 E0.0059
G1 X98.231 Y107.085 E0.0059
G1 X98.591 Y107.101 E0.00599
G1 X98.943 Y107.054 E0.00591
G1 X99.284 Y106.951 E0.00592
G1 X99.601 Y106.79 E0.00591
G1 X99.889 Y106.579 E0.00594
G1 X100.135 Y106.32 E0.00594
G1 X100.336 Y106.026 E0.00592
G1 X100.482 Y105.7 E0.00594
G1 X100.572 Y105.356 E0.00591
G1 X100.603 Y105 E0.00594
G1 X100.572 Y104.644 E0.00594
G1 X100.482 Y104.3 E0.00591
G1 X100.336 Y103.974 E0.00594
G1 X100.135 Y103.68 E0.00592
G1 X99.889 Y103.421 E0.00594
G1 X99.601 Y103.21 E0.00594
G1 X99.284 Y103.049 E0.00591
G1 X98.943 Y102.946 E0.00592
G1 X98.591 Y102.899 E0.00591
G0 F5400 X98.595 Y102.8
G0 X98.524 Y102.199
G0 X98.521 Y102.1
G1 F2100 X111.479 Y102.1 E0.21549
G1 X111.956 Y102.138 E0.00796
G1 X112.389 Y102.241 E0.0074
G1 X112.821 Y102.42 E0.00778
G1 X113.202 Y102.653 E0.00743
G1 X113.549 Y102.951 E0.00761
G1 X113.847 Y103.298 E0.00761
G1 X114.08 Y103.679 E0.00743
