;FLAVOR:RepRap
;TIME:4587
;Filament used: 2.18599m
;Layer height: 0.1
;Generated with Cura_SteamEngine 3.0.3
T0
M190 S60
M104 S200
M109 S200
M82 ; absolute extrusion mode
G21 ;metric values
G90 ;absolute positioning
M82 ;set extruder to absolute mode
M107 ;start with the fan off
G28 X0 Y0 ;move X/Y to min endstops
G28 Z0 ;move Z to min endstops
G1 Z15.0 F9000 ;move the platform down 15mm
G92 E0 ;zero the extruded length
G1 F200 E3 ;extrude 3mm of feed stock
G92 E0 ;zero the extruded length again
G1 F9000
M117 Printing...
G5
M83 ; relative extrusion mode
;LAYER_COUNT:138
;LAYER:0
M107
G0 F3600 X63.888 Y68.501 Z0.3
;TYPE:SKIRT
G1 F1800 X68.506 Y63.888 E0.32565
G1 X68.912 Y63.538 E0.02674
G1 X69.366 Y63.253 E0.02674
G1 X69.858 Y63.038 E0.02679
G1 X70.376 Y62.899 E0.02676
G1 X70.908 Y62.838 E0.02672
G1 X71.444 Y62.857 E0.02676
G1 X71.972 Y62.955 E0.02679
G1 X72.478 Y63.13 E0.02671
G1 X72.953 Y63.379 E0.02676
G1 X73.386 Y63.696 E0.02677
G1 X73.595 Y63.889 E0.01419
G1 X147.681 Y137.963 E5.22674
G1 X148.031 Y138.37 E0.02678
G1 X148.317 Y138.823 E0.02673
G1 X148.532 Y139.315 E0.02679
G1 X148.672 Y139.832 E0.02672
G1 X148.733 Y140.365 E0.02677
G1 X148.715 Y140.901 E0.02676
G1 X148.617 Y141.428 E0.02674
G1 X148.441 Y141.935 E0.02678
G1 X148.193 Y142.41 E0.02673
G1 X147.876 Y142.844 E0.02681
G1 X147.681 Y143.055 E0.01433
G1 X143.054 Y147.68 E0.32639
G1 X142.648 Y148.03 E0.02674
G1 X142.194 Y148.316 E0.02677
G1 X141.702 Y148.53 E0.02677
G1 X141.185 Y148.67 E0.02672
G1 X140.652 Y148.731 E0.02677
G1 X140.116 Y148.712 E0.02676
G1 X139.589 Y148.614 E0.02674
G1 X139.082 Y148.439 E0.02676
G1 X138.607 Y148.19 E0.02676
G1 X138.174 Y147.874 E0.02674
G1 X137.963 Y147.679 E0.01433
G1 X63.886 Y73.593 E5.22685
G1 X63.536 Y73.187 E0.02674
G1 X63.251 Y72.733 E0.02674
G1 X63.036 Y72.242 E0.02674
G1 X62.896 Y71.724 E0.02677
G1 X62.835 Y71.191 E0.02677
G1 X62.853 Y70.655 E0.02676
G1 X62.952 Y70.128 E0.02675
G1 X63.127 Y69.621 E0.02676
G1 X63.375 Y69.146 E0.02673
G1 X63.692 Y68.713 E0.02677
G1 X63.888 Y68.501 E0.0144
G0 F3600 X64.17 Y68.784
G1 F1800 X68.788 Y64.171 E0.32565
G1 X69.173 Y63.843 E0.02523
G1 X69.605 Y63.58 E0.02523
G1 X70.073 Y63.388 E0.02524
G1 X70.565 Y63.272 E0.02522
G1 X71.069 Y63.235 E0.02521
G1 X71.573 Y63.278 E0.02524
G1 X72.063 Y63.4 E0.02519
G1 X72.529 Y63.597 E0.02524
G1 X72.957 Y63.866 E0.02522
G1 X73.313 Y64.172 E0.02342
G1 X147.399 Y138.246 E5.22674
G1 X147.727 Y138.631 E0.02523
G1 X147.99 Y139.062 E0.02519
G1 X148.182 Y139.53 E0.02524
G1 X148.299 Y140.022 E0.02523
G1 X148.336 Y140.526 E0.02521
G1 X148.293 Y141.03 E0.02524
G1 X148.172 Y141.52 E0.02518
G1 X147.975 Y141.986 E0.02524
G1 X147.707 Y142.415 E0.02524
G1 X147.398 Y142.772 E0.02356
G1 X142.771 Y147.397 E0.32639
G1 X142.387 Y147.725 E0.0252
G1 X141.955 Y147.989 E0.02526
G1 X141.487 Y148.181 E0.02524
G1 X140.995 Y148.297 E0.02522
G1 X140.491 Y148.334 E0.02521
G1 X139.987 Y148.291 E0.02524
G1 X139.497 Y148.17 E0.02518
G1 X139.031 Y147.972 E0.02526
G1 X138.603 Y147.704 E0.02519
G1 X138.246 Y147.397 E0.02349
G1 X64.169 Y73.311 E5.22685
G1 X63.841 Y72.926 E0.02523
G1 X63.578 Y72.494 E0.02523
G1 X63.385 Y72.027 E0.02521
G1 X63.269 Y71.535 E0.02522
G1 X63.232 Y71.031 E0.02521
G1 X63.275 Y70.527 E0.02524
G1 X63.396 Y70.036 E0.02523
G1 X63.593 Y69.571 E0.02519
G1 X63.862 Y69.142 E0.02526
G1 X64.17 Y68.784 E0.02356
G1 F3600 E-5
G0 F3600 X66.099 Y70.427
G0 X66.72 Y71.048
G0 X66.912 Y71.12
G0 X66.841 Y71.189
;TYPE:WALL-OUTER
G1 F3600 E5
G1 F1800 X66.7 Y71.048 E0.00995
G1 X66.841 Y70.907 E0.00642
G1 X71.05 Y66.703 E0.29679
G1 X144.727 Y140.369 E5.19792
G1 X144.868 Y140.51 E0.00995
G1 X144.727 Y140.651 E0.00642
G1 X140.652 Y144.726 E0.28751
G1 X140.511 Y144.867 E0.00995
G1 X140.37 Y144.726 E0.00642
G1 X66.841 Y71.189 E5.18815
G0 F3600 X66.7 Y71.048
G0 X67.265 Y71.049
;TYPE:WALL-INNER
G1 F1800 X71.05 Y67.267 E0.26695
G1 X144.304 Y140.51 E5.16808
G1 X140.511 Y144.303 E0.26762
G1 X67.265 Y71.049 E5.16818
G0 F3600 X140.582 Y143.976
;TYPE:SKIN
G1 F1800 X67.587 Y70.981 E5.15019
G1 X67.517 Y70.911
G0 F3600 X67.87 Y70.698
G1 F1800 X140.865 Y143.693 E5.15019
G1 X140.935 Y143.763
G0 F3600 X141.148 Y143.411
G1 F1800 X68.153 Y70.415 E5.15023
G1 X68.083 Y70.345
G0 F3600 X68.435 Y70.132
G1 F1800 X141.431 Y143.128 E5.15026
G1 X141.501 Y143.198
G0 F3600 X141.714 Y142.845
G1 F1800 X68.718 Y69.85 E5.15023
G1 X68.648 Y69.78
G0 F3600 X69.001 Y69.567
G1 F1800 X141.996 Y142.562 E5.15019
G1 X142.066 Y142.632
G0 F3600 X142.279 Y142.279
G1 F1800 X69.285 Y69.285 E5.15012
G1 X69.215 Y69.215
G0 F3600 X69.567 Y69.002
G1 F1800 X142.562 Y141.996 E5.15016
G1 X142.632 Y142.066
G0 F3600 X142.845 Y141.714
G1 F1800 X69.85 Y68.719 E5.15019
G1 X69.78 Y68.649
G0 F3600 X70.133 Y68.436
G1 F1800 X143.128 Y141.431 E5.15019
G1 X143.198 Y141.501
G0 F3600 X143.411 Y141.148
G1 F1800 X70.416 Y68.153 E5.15019
G1 X70.346 Y68.083
G0 F3600 X70.699 Y67.87
G1 F1800 X143.693 Y140.865 E5.15016
G1 X143.763 Y140.935
G0 F3600 X143.976 Y140.582
G1 F1800 X70.982 Y67.588 E5.15012
G1 X70.912 Y67.518
G0 F3600 X71.05 Y66.803
G0 X71.088 Y66.628
;TIME_ELAPSED:79.525595
;LAYER:1
M140 S60
M106 S255
G0 F5400 X71.088 Y66.628 Z0.4
;TYPE:WALL-OUTER
G1 F1800 X144.783 Y140.313 E1.73308
G1 X144.924 Y140.454 E0.00332
G1 X144.783 Y140.595 E0.00214
G1 X140.594 Y144.784 E0.09852
G1 X140.453 Y144.925 E0.00332
G1 X140.312 Y144.784 E0.00214
G1 X66.493 Y70.948 E1.73631
G1 X70.806 Y66.628 E0.10152
G1 X70.947 Y66.487 E0.00332
G1 X71.088 Y66.628 E0.00214
G0 F5400 X71.229 Y66.769
G0 X70.949 Y67.053
;TYPE:WALL-INNER
G1 F2100 X144.36 Y140.454 E1.7264
G1 X140.453 Y144.361 E0.09189
G1 X67.057 Y70.948 E1.72636
G1 X70.949 Y67.053 E0.09157
G0 F5400 X71.117 Y67.474
;TYPE:SKIN
G1 F1800 X67.478 Y71.114 E0.0856
G1 X67.408 Y71.184
G0 F5400 X67.761 Y71.397
G1 F1800 X71.4 Y67.757 E0.0856
G1 X71.47 Y67.687
G0 F5400 X71.683 Y68.04
G1 F1800 X68.044 Y71.68 E0.0856
G1 X67.974 Y71.75
G0 F5400 X68.327 Y71.962
G1 F1800 X71.966 Y68.323 E0.08558
G1 X72.036 Y68.253
G0 F5400 X72.249 Y68.606
G1 F1800 X68.609 Y72.245 E0.0856
G1 X68.539 Y72.315
G0 F5400 X68.892 Y72.528
G1 F1800 X72.532 Y68.889 E0.0856
G1 X72.602 Y68.819
G0 F5400 X72.815 Y69.172
G1 F1800 X69.175 Y72.811 E0.0856
G1 X69.105 Y72.881
G0 F5400 X69.458 Y73.094
G1 F1800 X73.097 Y69.454 E0.0856
G1 X73.167 Y69.384
G0 F5400 X73.38 Y69.737
G1 F1800 X69.741 Y73.377 E0.0856
G1 X69.671 Y73.447
G0 F5400 X70.024 Y73.66
G1 F1800 X73.663 Y70.02 E0.0856
G1 X73.733 Y69.95
G0 F5400 X73.946 Y70.303
G1 F1800 X70.306 Y73.942 E0.0856
G1 X70.236 Y74.012
G0 F5400 X70.589 Y74.225
G1 F1800 X74.229 Y70.586 E0.0856
G1 X74.299 Y70.516
G0 F5400 X74.512 Y70.869
G1 F1800 X70.872 Y74.508 E0.0856
G1 X70.802 Y74.578
G0 F5400 X71.155 Y74.791
G1 F1800 X74.794 Y71.151 E0.0856
G1 X74.864 Y71.081
G0 F5400 X75.077 Y71.434
G1 F1800 X71.438 Y75.074 E0.0856
G1 X71.368 Y75.144
G0 F5400 X71.721 Y75.357
G1 F1800 X75.36 Y71.717 E0.0856
G1 X75.43 Y71.647
G0 F5400 X75.643 Y72
G1 F1800 X72.003 Y75.639 E0.0856
G1 X71.933 Y75.709
G0 F5400 X72.286 Y75.922
G1 F1800 X75.926 Y72.283 E0.0856
G1 X75.996 Y72.213
G0 F5400 X76.209 Y72.566
G1 F1800 X72.569 Y76.205 E0.0856
G1 X72.499 Y76.275
G0 F5400 X72.852 Y76.488
G1 F1800 X76.491 Y72.848 E0.0856
G1 X76.561 Y72.778
G0 F5400 X76.774 Y73.131
G1 F1800 X73.135 Y76.771 E0.0856
G1 X73.065 Y76.841
G0 F5400 X73.417 Y77.054
G1 F1800 X77.057 Y73.414 E0.08561
G1 X77.127 Y73.344
G0 F5400 X77.34 Y73.697
G1 F1800 X73.7 Y77.337 E0.08561
G1 X73.63 Y77.407
G0 F5400 X73.983 Y77.62
G1 F1800 X77.623 Y73.98 E0.08561
G1 X77.693 Y73.91
G0 F5400 X77.906 Y74.263
G1 F1800 X74.266 Y77.903 E0.08561
G1 X74.196 Y77.973
G0 F5400 X74.548 Y78.186
G1 F1800 X78.189 Y74.546 E0.08562
G1 X78.259 Y74.476
G0 F5400 X78.471 Y74.828
G1 F1800 X74.831 Y78.469 E0.08562
G1 X74.761 Y78.539
G0 F5400 X75.114 Y78.751
G1 F1800 X78.754 Y75.111 E0.08561
G1 X78.824 Y75.041
G0 F5400 X79.037 Y75.394
G1 F1800 X75.397 Y79.034 E0.08561
G1 X75.327 Y79.104
G0 F5400 X75.68 Y79.317
G1 F1800 X79.32 Y75.677 E0.08561
G1 X79.39 Y75.607
G0 F5400 X79.603 Y75.96
G1 F1800 X75.963 Y79.6 E0.08561
G1 X75.893 Y79.67
G0 F5400 X76.245 Y79.883
G1 F1800 X79.886 Y76.243 E0.08562
G1 X79.956 Y76.173
G0 F5400 X80.168 Y76.525
G1 F1800 X76.528 Y80.166 E0.08562
G1 X76.458 Y80.236
G0 F5400 X76.811 Y80.448
G1 F1800 X80.451 Y76.808 E0.08561
G1 X80.521 Y76.738
G0 F5400 X80.734 Y77.091
G1 F1800 X77.094 Y80.731 E0.08561
G1 X77.024 Y80.801
G0 F5400 X77.377 Y81.014
G1 F1800 X81.017 Y77.374 E0.08561
G1 X81.087 Y77.304
G0 F5400 X81.3 Y77.657
G1 F1800 X77.66 Y81.297 E0.08561
G1 X77.59 Y81.367
G0 F5400 X77.942 Y81.58
G1 F1800 X81.583 Y77.939 E0.08563
G1 X81.653 Y77.869
G0 F5400 X81.866 Y78.222
G1 F1800 X78.225 Y81.863 E0.08563
G1 X78.155 Y81.933
G0 F5400 X78.508 Y82.146
G1 F1800 X82.149 Y78.505 E0.08563
G1 X82.219 Y78.435
G0 F5400 X82.432 Y78.787
G1 F1800 X78.791 Y82.428 E0.08563
G1 X78.721 Y82.498
G0 F5400 X79.074 Y82.711
G1 F1800 X82.715 Y79.07 E0.08563
G1 X82.785 Y79
G0 F5400 X82.998 Y79.353
G1 F1800 X79.357 Y82.994 E0.08563
G1 X79.287 Y83.064
G0 F5400 X79.639 Y83.278
G1 F1800 X83.28 Y79.636 E0.08564
G1 X83.35 Y79.566
G0 F5400 X83.563 Y79.919
G1 F1800 X79.922 Y83.56 E0.08563
G1 X79.852 Y83.63
G0 F5400 X80.205 Y83.843
G1 F1800 X83.846 Y80.202 E0.08563
G1 X83.916 Y80.132
G0 F5400 X84.129 Y80.485
G1 F1800 X80.487 Y84.126 E0.08564
G1 X80.417 Y84.196
G0 F5400 X80.77 Y84.409
G1 F1800 X84.412 Y80.767 E0.08565
G1 X84.482 Y80.697
G0 F5400 X84.695 Y81.05
G1 F1800 X81.053 Y84.692 E0.08565
G1 X80.983 Y84.762
G0 F5400 X81.336 Y84.975
G1 F1800 X84.977 Y81.333 E0.08564
G1 X85.047 Y81.263
G0 F5400 X85.26 Y81.616
G1 F1800 X81.619 Y85.257 E0.08563
G1 X81.549 Y85.327
G0 F5400 X81.902 Y85.54
G1 F1800 X85.543 Y81.899 E0.08563
G1 X85.613 Y81.829
G0 F5400 X85.826 Y82.182
G1 F1800 X82.184 Y85.823 E0.08564
G1 X82.114 Y85.893
G0 F5400 X82.467 Y86.106
G1 F1800 X86.109 Y82.464 E0.08565
G1 X86.179 Y82.394
G0 F5400 X86.392 Y82.747
G1 F1800 X82.75 Y86.389 E0.08565
G1 X82.68 Y86.459
G0 F5400 X83.033 Y86.672
G1 F1800 X86.675 Y83.03 E0.08565
G1 X86.745 Y82.96
G0 F5400 X86.957 Y83.313
G1 F1800 X83.316 Y86.955 E0.08564
G1 X83.246 Y87.025
G0 F5400 X83.599 Y87.237
G1 F1800 X87.24 Y83.596 E0.08563
G1 X87.31 Y83.526
G0 F5400 X87.523 Y83.879
G1 F1800 X83.881 Y87.52 E0.08564
G1 X83.811 Y87.59
G0 F5400 X84.164 Y87.803
G1 F1800 X87.806 Y84.161 E0.08565
G1 X87.876 Y84.091
G0 F5400 X88.089 Y84.444
G1 F1800 X84.447 Y88.086 E0.08565
G1 X84.377 Y88.156
G0 F5400 X84.73 Y88.369
G1 F1800 X88.372 Y84.727 E0.08565
G1 X88.442 Y84.657
G0 F5400 X88.654 Y85.01
G1 F1800 X85.013 Y88.652 E0.08564
G1 X84.943 Y88.722
G0 F5400 X85.296 Y88.934
G1 F1800 X88.937 Y85.293 E0.08563
G1 X89.007 Y85.223
G0 F5400 X89.22 Y85.576
G1 F1800 X85.579 Y89.217 E0.08563
G1 X85.509 Y89.287
G0 F5400 X85.861 Y89.501
G1 F1800 X89.503 Y85.859 E0.08565
G1 X89.573 Y85.789
G0 F5400 X89.786 Y86.141
G1 F1800 X86.143 Y89.784 E0.08568
G1 X86.073 Y89.854
G0 F5400 X86.426 Y90.067
G1 F1800 X90.069 Y86.424 E0.08568
G1 X90.139 Y86.354
G0 F5400 X90.351 Y86.707
G1 F1800 X86.709 Y90.349 E0.08565
G1 X86.639 Y90.419
G0 F5400 X86.992 Y90.632
G1 F1800 X90.634 Y86.99 E0.08565
G1 X90.704 Y86.92
G0 F5400 X90.917 Y87.273
G1 F1800 X87.275 Y90.915 E0.08565
G1 X87.205 Y90.985
G0 F5400 X87.558 Y91.198
G1 F1800 X91.2 Y87.556 E0.08565
G1 X91.27 Y87.486
G0 F5400 X91.483 Y87.838
G1 F1800 X87.841 Y91.481 E0.08567
G1 X87.771 Y91.551
G0 F5400 X88.123 Y91.764
G1 F1800 X91.766 Y88.121 E0.08568
G1 X91.836 Y88.051
G0 F5400 X92.049 Y88.403
G1 F1800 X88.406 Y92.046 E0.08568
G1 X88.336 Y92.116
G0 F5400 X88.689 Y92.329
G1 F1800 X92.332 Y88.686 E0.08568
G1 X92.402 Y88.616
G0 F5400 X92.615 Y88.969
G1 F1800 X88.972 Y92.612 E0.08568
G1 X88.902 Y92.682
G0 F5400 X89.255 Y92.895
G1 F1800 X92.898 Y89.252 E0.08568
G1 X92.968 Y89.182
G0 F5400 X93.181 Y89.535
G1 F1800 X89.538 Y93.178 E0.08568
G1 X89.468 Y93.248
G0 F5400 X89.82 Y93.461
G1 F1800 X93.463 Y89.818 E0.08568
G1 X93.533 Y89.748
G0 F5400 X93.746 Y90.1
G1 F1800 X90.103 Y93.743 E0.08568
G1 X90.033 Y93.813
G0 F5400 X90.386 Y94.026
G1 F1800 X94.029 Y90.383 E0.08568
G1 X94.099 Y90.313
G0 F5400 X94.312 Y90.666
G1 F1800 X90.669 Y94.309 E0.08568
G1 X90.599 Y94.379
G0 F5400 X90.952 Y94.592
G1 F1800 X94.595 Y90.949 E0.08568
G1 X94.665 Y90.879
G0 F5400 X94.878 Y91.232
G1 F1800 X91.235 Y94.875 E0.08568
G1 X91.165 Y94.945
G0 F5400 X91.518 Y95.158
G1 F1800 X95.161 Y91.515 E0.08568
G1 X95.231 Y91.445
G0 F5400 X95.443 Y91.798
G1 F1800 X91.8 Y95.441 E0.08568
G1 X91.73 Y95.511
G0 F5400 X92.082 Y95.724
G1 F1800 X95.726 Y92.08 E0.0857
G1 X95.796 Y92.01
G0 F5400 X96.009 Y92.363
G1 F1800 X92.365 Y96.007 E0.0857
G1 X92.295 Y96.077
G0 F5400 X92.648 Y96.29
G1 F1800 X96.292 Y92.646 E0.0857
G1 X96.362 Y92.576
G0 F5400 X96.575 Y92.929
G1 F1800 X92.931 Y96.573 E0.0857
G1 X92.861 Y96.643
G0 F5400 X93.214 Y96.855
G1 F1800 X96.858 Y93.212 E0.08569
G1 X96.928 Y93.142
G0 F5400 X97.14 Y93.495
G1 F1800 X93.497 Y97.138 E0.08568
G1 X93.427 Y97.208
G0 F5400 X93.78 Y97.421
G1 F1800 X97.423 Y93.777 E0.08569
G1 X97.493 Y93.707
G0 F5400 X97.706 Y94.06
G1 F1800 X94.062 Y97.704 E0.0857
G1 X93.992 Y97.774
G0 F5400 X94.345 Y97.987
G1 F1800 X97.989 Y94.343 E0.0857
G1 X98.059 Y94.273
G0 F5400 X98.272 Y94.626
G1 F1800 X94.628 Y98.27 E0.0857
G1 X94.558 Y98.34
G0 F5400 X94.911 Y98.553
G1 F1800 X98.555 Y94.909 E0.0857
G1 X98.625 Y94.839
G0 F5400 X98.837 Y95.192
G1 F1800 X95.194 Y98.835 E0.08568
G1 X95.124 Y98.905
G0 F5400 X95.477 Y99.118
G1 F1800 X99.12 Y95.474 E0.08569
G1 X99.19 Y95.404
G0 F5400 X99.403 Y95.757
G1 F1800 X95.759 Y99.401 E0.0857
G1 X95.689 Y99.471
G0 F5400 X96.042 Y99.684
G1 F1800 X99.686 Y96.04 E0.0857
G1 X99.756 Y95.97
G0 F5400 X99.969 Y96.323
G1 F1800 X96.325 Y99.967 E0.0857
G1 X96.255 Y100.037
G0 F5400 X96.608 Y100.25
G1 F1800 X100.252 Y96.606 E0.0857
G1 X100.322 Y96.536
G0 F5400 X100.535 Y96.889
G1 F1800 X96.891 Y100.532 E0.08569
G1 X96.821 Y100.602
G0 F5400 X97.174 Y100.815
G1 F1800 X100.817 Y97.172 E0.08568
G1 X100.887 Y97.102
G0 F5400 X101.1 Y97.454
G1 F1800 X97.456 Y101.098 E0.0857
G1 X97.386 Y101.168
G0 F5400 X97.739 Y101.381
G1 F1800 X101.383 Y97.737 E0.0857
G1 X101.453 Y97.667
G0 F5400 X101.666 Y98.02
G1 F1800 X98.021 Y101.664 E0.08571
G1 X97.951 Y101.734
G0 F5400 X98.304 Y101.947
G1 F1800 X101.949 Y98.303 E0.08571
G1 X102.019 Y98.233
G0 F5400 X102.232 Y98.586
G1 F1800 X98.587 Y102.23 E0.08571
G1 X98.517 Y102.3
G0 F5400 X98.87 Y102.513
G1 F1800 X102.515 Y98.868 E0.08572
G1 X102.585 Y98.798
G0 F5400 X102.798 Y99.151
G1 F1800 X99.153 Y102.796 E0.08572
G1 X99.083 Y102.866
G0 F5400 X99.436 Y103.079
G1 F1800 X103.081 Y99.434 E0.08572
G1 X103.151 Y99.364
G0 F5400 X103.364 Y99.716
G1 F1800 X99.719 Y103.362 E0.08574
G1 X99.649 Y103.432
G0 F5400 X100.001 Y103.644
G1 F1800 X103.647 Y99.999 E0.08574
G1 X103.717 Y99.929
G0 F5400 X103.929 Y100.282
G1 F1800 X100.284 Y103.927 E0.08572
G1 X100.214 Y103.997
G0 F5400 X100.567 Y104.21
G1 F1800 X104.212 Y100.565 E0.08572
G1 X104.282 Y100.495
G0 F5400 X104.495 Y100.848
G1 F1800 X100.85 Y104.493 E0.08572
G1 X100.78 Y104.563
G0 F5400 X101.133 Y104.776
G1 F1800 X104.778 Y101.131 E0.08572
G1 X104.848 Y101.061
G0 F5400 X105.061 Y101.413
G1 F1800 X101.416 Y105.059 E0.08574
G1 X101.346 Y105.129
G0 F5400 X101.698 Y105.341
G1 F1800 X105.344 Y101.696 E0.08574
G1 X105.414 Y101.626
G0 F5400 X105.626 Y101.979
G1 F1800 X101.981 Y105.624 E0.08572
G1 X101.911 Y105.694
G0 F5400 X102.264 Y105.907
G1 F1800 X105.909 Y102.262 E0.08572
G1 X105.979 Y102.192
G0 F5400 X106.192 Y102.545
G1 F1800 X102.547 Y106.19 E0.08572
G1 X102.477 Y106.26
G0 F5400 X102.83 Y106.473
G1 F1800 X106.475 Y102.828 E0.08572
G1 X106.545 Y102.758
G0 F5400 X106.758 Y103.111
G1 F1800 X103.113 Y106.756 E0.08572
G1 X103.043 Y106.826
G0 F5400 X103.395 Y107.038
G1 F1800 X107.041 Y103.393 E0.08574
G1 X107.111 Y103.323
G0 F5400 X107.323 Y103.676
G1 F1800 X103.678 Y107.321 E0.08572
G1 X103.608 Y107.391
G0 F5400 X103.96 Y107.605
G1 F1800 X107.606 Y103.959 E0.08575
G1 X107.676 Y103.889
G0 F5400 X107.889 Y104.242
G1 F1800 X104.243 Y107.888 E0.08575
G1 X104.173 Y107.958
G0 F5400 X104.526 Y108.171
G1 F1800 X108.172 Y104.525 E0.08575
G1 X108.242 Y104.455
G0 F5400 X108.455 Y104.808
G1 F1800 X104.809 Y108.453 E0.08574
G1 X104.739 Y108.523
