;FLAVOR:RepRap
;TIME:645
;Filament used: 0.291884m
;Layer height: 0.1
;Generated with Cura_SteamEngine 3.0.3
T0
M190 S60
M104 S200
M109 S200
M82 ; absolute extrusion mode
G21 ;metric values
G90 ;absolute positioning
M82 ;set extruder to absolute mode
M107 ;start with the fan off
G28 X0 Y0 ;move X/Y to min endstops
G28 Z0 ;move Z to min endstops
G1 Z15.0 F9000 ;move the platform down 15mm
G92 E0 ;zero the extruded length
G1 F200 E3 ;extrude 3mm of feed stock
G92 E0 ;zero the extruded length again
G1 F9000
M117 Printing...
G5
M83 ; relative extrusion mode
;LAYER_COUNT:68
;LAYER:0
M107
G0 F3600 X100.748 Y95.434 Z0.3
;TYPE:SKIRT
G1 F1800 X101.17 Y95.018 E0.02956
G1 X101.644 Y94.662 E0.02957
G1 X102.05 Y94.427 E0.0234
G1 X102.3 Y94.3 E0.01399
G1 X102.846 Y94.068 E0.0296
G1 X103.418 Y93.911 E0.02959
G1 X104.005 Y93.832 E0.02955
G1 X104.331 Y93.823 E0.01627
G1 X108.879 Y93.862 E0.22691
G1 X109.47 Y93.907 E0.02957
G1 X110.05 Y94.031 E0.02959
G1 X110.608 Y94.232 E0.02959
G1 X111.133 Y94.506 E0.02954
G1 X111.618 Y94.849 E0.02964
G1 X111.868 Y95.069 E0.01661
G1 X112.08 Y95.27 E0.01457
G1 X112.482 Y95.706 E0.02959
G1 X112.822 Y96.192 E0.02959
G1 X113.093 Y96.719 E0.02956
G1 X113.312 Y97.356 E0.03361
G1 X114.518 Y101.997 E0.23923
G1 X114.628 Y102.58 E0.0296
G1 X114.659 Y103.111 E0.02654
G1 X114.641 Y113.779 E0.53223
G1 X114.6 Y114.371 E0.02961
G1 X114.48 Y114.952 E0.0296
G1 X114.283 Y115.511 E0.02957
G1 X114.012 Y116.039 E0.02961
G1 X113.673 Y116.525 E0.02956
G1 X113.272 Y116.962 E0.02959
G1 X112.816 Y117.34 E0.02955
G1 X112.505 Y117.545 E0.01858
G1 X112.225 Y117.713 E0.01629
G1 X111.697 Y117.983 E0.02959
G1 X111.138 Y118.18 E0.02957
G1 X110.656 Y118.285 E0.02461
G1 X110.331 Y118.337 E0.01642
G1 X109.635 Y118.392 E0.03483
G1 X100.233 Y118.389 E0.46907
G1 X99.641 Y118.349 E0.0296
G1 X99.089 Y118.237 E0.0281
G1 X98.833 Y118.168 E0.01323
G1 X98.272 Y117.976 E0.02958
G1 X97.742 Y117.71 E0.02959
G1 X97.265 Y117.384 E0.02882
G1 X97.016 Y117.189 E0.01578
G1 X96.575 Y116.793 E0.02957
G1 X96.191 Y116.341 E0.02959
G1 X95.872 Y115.842 E0.02955
G1 X95.622 Y115.304 E0.0296
G1 X95.447 Y114.737 E0.0296
G1 X95.35 Y114.152 E0.02958
G1 X95.329 Y113.725 E0.02133
G1 X95.33 Y103.225 E0.52385
G1 X95.37 Y102.633 E0.0296
G1 X95.489 Y102.052 E0.02959
G1 X95.685 Y101.493 E0.02955
G1 X95.955 Y100.964 E0.02963
G1 X96.435 Y100.309 E0.04051
G1 X100.748 Y95.434 E0.32474
G0 F3600 X101.047 Y95.7
G1 F1800 X101.451 Y95.304 E0.02822
G1 X101.906 Y94.969 E0.02819
G1 X102.231 Y94.784 E0.01866
G1 X102.481 Y94.657 E0.01399
G1 X103.002 Y94.437 E0.02822
G1 X103.549 Y94.293 E0.02822
G1 X104.327 Y94.223 E0.03897
G1 X108.875 Y94.262 E0.22691
G1 X109.439 Y94.307 E0.02823
G1 X109.99 Y94.431 E0.02818
G1 X110.519 Y94.631 E0.02822
G1 X111.014 Y94.904 E0.0282
G1 X111.593 Y95.359 E0.03674
G1 X111.805 Y95.56 E0.01457
G1 X112.187 Y95.977 E0.02821
G1 X112.506 Y96.444 E0.02822
G1 X112.756 Y96.951 E0.0282
G1 X112.924 Y97.457 E0.0266
G1 X114.13 Y102.098 E0.23923
G1 X114.234 Y102.654 E0.02822
G1 X114.259 Y103.111 E0.02283
G1 X114.241 Y113.779 E0.53223
G1 X114.2 Y114.343 E0.02821
G1 X114.08 Y114.895 E0.02818
G1 X113.883 Y115.425 E0.02821
G1 X113.614 Y115.922 E0.02819
G1 X113.277 Y116.376 E0.02821
G1 X112.88 Y116.778 E0.02819
G1 X112.299 Y117.202 E0.03588
G1 X112.019 Y117.37 E0.01629
G1 X111.515 Y117.626 E0.0282
G1 X110.98 Y117.808 E0.02819
G1 X110.593 Y117.89 E0.01974
G1 X110.268 Y117.942 E0.01642
G1 X109.635 Y117.992 E0.03168
G1 X100.233 Y117.989 E0.46907
G1 X99.669 Y117.949 E0.02821
G1 X99.193 Y117.851 E0.02425
G1 X98.937 Y117.782 E0.01323
G1 X98.403 Y117.597 E0.02819
G1 X97.9 Y117.338 E0.02823
G1 X97.512 Y117.069 E0.02355
G1 X97.263 Y116.874 E0.01578
G1 X96.843 Y116.495 E0.02822
G1 X96.482 Y116.061 E0.02816
G1 X96.185 Y115.579 E0.02825
G1 X95.959 Y115.061 E0.0282
G1 X95.808 Y114.516 E0.02821
G1 X95.729 Y113.725 E0.03966
G1 X95.73 Y103.225 E0.52385
G1 X95.77 Y102.661 E0.02821
G1 X95.889 Y102.108 E0.02822
G1 X96.085 Y101.578 E0.02819
G1 X96.354 Y101.08 E0.02824
G1 X96.734 Y100.575 E0.03153
G1 X101.047 Y95.7 E0.32474
G0 F3600 X101.347 Y95.965
G1 F1800 X101.731 Y95.591 E0.02674
G1 X102.167 Y95.278 E0.02678
G1 X102.413 Y95.14 E0.01407
G1 X102.663 Y95.013 E0.01399
G1 X103.157 Y94.807 E0.0267
G1 X103.678 Y94.676 E0.0268
G1 X104.324 Y94.623 E0.03234
G1 X108.872 Y94.662 E0.22691
G1 X109.406 Y94.707 E0.02674
G1 X109.928 Y94.83 E0.02676
G1 X110.426 Y95.03 E0.02677
G1 X110.889 Y95.301 E0.02677
G1 X111.318 Y95.65 E0.02759
G1 X111.53 Y95.851 E0.01457
G1 X111.891 Y96.247 E0.02673
G1 X112.188 Y96.694 E0.02677
G1 X112.416 Y97.179 E0.02674
G1 X112.537 Y97.558 E0.01985
G1 X113.743 Y102.199 E0.23923
G1 X113.839 Y102.726 E0.02672
G1 X113.859 Y103.11 E0.01918
G1 X113.841 Y113.778 E0.53223
G1 X113.8 Y114.313 E0.02677
G1 X113.68 Y114.836 E0.02677
G1 X113.484 Y115.335 E0.02675
G1 X113.216 Y115.799 E0.02673
G1 X112.882 Y116.219 E0.02677
G1 X112.489 Y116.584 E0.02676
G1 X112.093 Y116.859 E0.02405
G1 X111.813 Y117.027 E0.01629
G1 X111.334 Y117.268 E0.02675
G1 X110.824 Y117.435 E0.02677
G1 X110.53 Y117.495 E0.01497
G1 X110.205 Y117.547 E0.01642
G1 X109.635 Y117.592 E0.02853
G1 X100.233 Y117.589 E0.46907
G1 X99.698 Y117.549 E0.02677
G1 X99.297 Y117.465 E0.02044
G1 X99.041 Y117.396 E0.01323
G1 X98.535 Y117.218 E0.02676
G1 X98.061 Y116.967 E0.02676
G1 X97.758 Y116.754 E0.01848
G1 X97.509 Y116.559 E0.01578
G1 X97.113 Y116.198 E0.02673
G1 X96.775 Y115.782 E0.02674
G1 X96.502 Y115.32 E0.02677
G1 X96.301 Y114.823 E0.02675
G1 X96.175 Y114.302 E0.02674
G1 X96.129 Y113.725 E0.02888
G1 X96.13 Y103.225 E0.52385
G1 X96.17 Y102.69 E0.02677
G1 X96.289 Y102.167 E0.02676
G1 X96.484 Y101.668 E0.02673
G1 X96.752 Y101.203 E0.02678
G1 X97.034 Y100.84 E0.02293
G1 X101.347 Y95.965 E0.32474
G0 F3600 X101.646 Y96.23
G1 F1800 X102.01 Y95.879 E0.02523
G1 X102.594 Y95.497 E0.03482
G1 X102.844 Y95.37 E0.01399
G1 X103.311 Y95.177 E0.02521
G1 X103.803 Y95.061 E0.02522
G1 X104.32 Y95.023 E0.02586
G1 X108.868 Y95.062 E0.22691
G1 X109.372 Y95.106 E0.02524
G1 X109.862 Y95.229 E0.0252
G1 X110.327 Y95.428 E0.02523
G1 X110.755 Y95.698 E0.02525
G1 X111.043 Y95.94 E0.01877
G1 X111.255 Y96.141 E0.01457
G1 X111.593 Y96.517 E0.02522
G1 X111.868 Y96.941 E0.02521
G1 X112.072 Y97.403 E0.0252
G1 X112.15 Y97.658 E0.0133
G1 X113.356 Y102.299 E0.23923
G1 X113.444 Y102.797 E0.02523
G1 X113.459 Y103.109 E0.01558
G1 X113.441 Y113.777 E0.53223
G1 X113.4 Y114.281 E0.02523
G1 X113.281 Y114.773 E0.02525
G1 X113.085 Y115.239 E0.02522
G1 X112.819 Y115.668 E0.02518
G1 X112.488 Y116.051 E0.02525
G1 X112.101 Y116.376 E0.02521
G1 X111.887 Y116.516 E0.01276
G1 X111.607 Y116.684 E0.01629
G1 X111.155 Y116.909 E0.02519
G1 X110.467 Y117.1 E0.03562
G1 X110.142 Y117.152 E0.01642
G1 X109.635 Y117.192 E0.02537
G1 X100.233 Y117.189 E0.46907
G1 X99.729 Y117.149 E0.02522
G1 X99.401 Y117.079 E0.01673
G1 X99.145 Y117.01 E0.01323
G1 X98.669 Y116.84 E0.02522
G1 X98.225 Y116.597 E0.02525
G1 X98.005 Y116.439 E0.01351
G1 X97.756 Y116.244 E0.01578
G1 X97.384 Y115.902 E0.02521
G1 X97.07 Y115.506 E0.02521
G1 X96.823 Y115.065 E0.02522
G1 X96.648 Y114.59 E0.02525
G1 X96.55 Y114.094 E0.02522
G1 X96.529 Y113.725 E0.01844
G1 X96.53 Y103.225 E0.52385
G1 X96.57 Y102.721 E0.02522
G1 X96.689 Y102.229 E0.02525
G1 X96.884 Y101.763 E0.0252
G1 X97.149 Y101.333 E0.0252
G1 X97.333 Y101.105 E0.01462
G1 X101.646 Y96.23 E0.32474
G1 F3600 E-5
G0 F3600 X103.074 Y99.084
G0 X103.939 Y99.509
G0 X103.99 Y103.49
G0 X103.92 Y103.42
;TYPE:WALL-OUTER
G1 F3600 E5
G1 F1800 X103.92 Y99.509 E0.19512
G1 X103.934 Y99.184 E0.01623
G1 X103.995 Y98.857 E0.0166
G1 X104.018 Y98.785 E0.00377
G1 X104.118 Y98.552 E0.01265
G1 X104.185 Y98.476 E0.00505
G1 X104.256 Y98.428 E0.00428
G1 X104.321 Y98.413 E0.00333
G1 X105.8 Y98.422 E0.07379
G1 X105.8 Y104.8 E0.3182
G1 X101.3 Y104.8 E0.22451
G1 X101.3 Y112.2 E0.36919
G1 X108.7 Y112.2 E0.36919
G1 X108.7 Y104.8 E0.36919
G1 X107.2 Y104.8 E0.07484
G1 X107.2 Y98.423 E0.31815
G1 X108.677 Y98.412 E0.07369
G1 X108.744 Y98.428 E0.00344
G1 X108.813 Y98.474 E0.00414
G1 X108.89 Y98.564 E0.00591
G1 X109.002 Y98.847 E0.01518
G1 X109.066 Y99.184 E0.01711
G1 X109.08 Y99.5 E0.01578
G1 X109.08 Y101.592 E0.10437
G1 X109.094 Y101.822 E0.0115
G1 X109.139 Y102.057 E0.01194
G1 X109.211 Y102.282 E0.01179
G1 X109.311 Y102.498 E0.01188
G1 X109.437 Y102.699 E0.01184
G1 X109.586 Y102.884 E0.01185
G1 X109.757 Y103.05 E0.01189
G1 X109.948 Y103.192 E0.01187
G1 X110.079 Y103.266 E0.00751
G1 X110.08 Y113.66 E0.51856
G1 X110.014 Y113.711 E0.00416
G1 X109.888 Y113.77 E0.00694
G1 X109.743 Y113.798 E0.00737
G1 X100.273 Y113.799 E0.47246
G1 X100.253 Y113.799 E0.001
G1 X100.169 Y113.785 E0.00425
G1 X100.072 Y113.755 E0.00507
G1 X99.952 Y113.688 E0.00686
G1 X99.92 Y113.66 E0.00212
G1 X99.92 Y113.64 E0.001
G1 X99.92 Y103.42 E0.50988
G1 X103.92 Y103.42 E0.19956
G0 F3600 X103.92 Y103.22
G0 X104.32 Y103.82
;TYPE:WALL-INNER
G1 F1800 X104.32 Y99.526 E0.21423
G1 X104.332 Y99.233 E0.01463
G1 X104.397 Y98.917 E0.0161
G1 X104.441 Y98.814 E0.00559
G1 X105.4 Y98.82 E0.04785
G1 X105.4 Y104.4 E0.27839
G1 X100.9 Y104.4 E0.22451
G1 X100.9 Y112.6 E0.4091
G1 X109.1 Y112.6 E0.4091
G1 X109.1 Y104.4 E0.4091
G1 X107.6 Y104.4 E0.07484
G1 X107.6 Y98.82 E0.27839
G1 X108.558 Y98.813 E0.0478
G1 X108.618 Y98.964 E0.00811
G1 X108.666 Y99.216 E0.0128
G1 X108.68 Y99.5 E0.01419
G1 X108.68 Y101.604 E0.10497
G1 X108.696 Y101.872 E0.01339
G1 X108.751 Y102.155 E0.01438
G1 X108.837 Y102.428 E0.01428
G1 X108.959 Y102.69 E0.01442
G1 X109.111 Y102.931 E0.01422
G1 X109.29 Y103.154 E0.01427
G1 X109.497 Y103.356 E0.01443
G1 X109.679 Y103.491 E0.01131
G1 X109.68 Y113.398 E0.49426
G1 X100.32 Y113.399 E0.46697
G1 X100.32 Y103.82 E0.4779
G1 X104.32 Y103.82 E0.19956
G0 F3600 X101.272 Y104.772
G0 X101.272 Y112.228
G0 X108.728 Y112.228
G0 X108.728 Y104.772
G0 X108.048 Y98.997
;TYPE:SKIN
G1 F1800 X108.497 Y99.446 E0.03168
G0 F3600 X108.499 Y100.013
G1 F1800 X107.779 Y99.294 E0.05076
G1 X107.709 Y99.224
G0 F3600 X107.779 Y99.859
G1 F1800 X108.499 Y100.579 E0.0508
G1 X108.569 Y100.649
G0 F3600 X108.499 Y101.145
G1 F1800 X107.779 Y100.425 E0.0508
G1 X107.709 Y100.355
G0 F3600 X107.779 Y100.991
G1 F1800 X108.506 Y101.718 E0.05129
G1 X108.576 Y101.788
G0 F3600 X108.646 Y102.423
G1 F1800 X107.779 Y101.556 E0.06117
G1 X107.709 Y101.486
G0 F3600 X107.779 Y102.122
G1 F1800 X109.499 Y103.842 E0.12136
G1 X109.569 Y103.912
G0 F3600 X109.499 Y104.407
G1 F1800 X107.779 Y102.688 E0.12132
G1 X107.709 Y102.618
G0 F3600 X107.779 Y103.253
G1 F1800 X108.745 Y104.219 E0.06816
G1 X108.815 Y104.289
G0 F3600 X108.179 Y104.219
G1 F1800 X107.779 Y103.819 E0.02822
G0 F3600 X109.279 Y104.753
G0 X109.389 Y104.863
G1 F1800 X109.389 Y105.429 E0.01553
G1 X109.389 Y105.994 E0.0155
G1 X109.389 Y106.56 E0.01553
G1 X109.389 Y107.126 E0.01553
G1 X109.389 Y107.691 E0.0155
G1 X109.389 Y108.257 E0.01553
G1 X109.389 Y108.824 E0.01556
G1 X109.389 Y109.389 E0.0155
G1 X109.389 Y109.955 E0.01553
G1 X109.389 Y110.521 E0.01553
G1 X109.389 Y111.086 E0.0155
G1 X109.389 Y111.652 E0.01553
G1 X109.389 Y112.218 E0.01553
G1 X109.389 Y112.783 E0.0155
G1 X109.038 Y112.998 E0.02326
G1 X108.472 Y112.998 E0.03092
G1 X107.907 Y112.998 E0.03087
G1 X107.341 Y112.998 E0.03092
G1 X106.775 Y112.998 E0.03092
G1 X106.21 Y112.998 E0.03087
G1 X105.644 Y112.998 E0.03092
G1 X105.078 Y112.998 E0.03092
G1 X104.513 Y112.998 E0.03087
G1 X103.947 Y112.998 E0.03092
G1 X103.381 Y112.998 E0.03092
G1 X102.815 Y112.998 E0.03092
G1 X102.25 Y112.998 E0.03087
G1 X101.684 Y112.998 E0.03092
G1 X101.118 Y112.998 E0.03092
G0 F3600 X100.61 Y112.489
G1 F1800 X100.61 Y111.923 E0.01553
G1 X100.61 Y111.358 E0.0155
G1 X100.61 Y110.792 E0.01553
G1 X100.61 Y110.226 E0.01553
G1 X100.61 Y109.661 E0.0155
G1 X100.61 Y109.095 E0.01553
G1 X100.61 Y108.529 E0.01553
G1 X100.61 Y107.964 E0.0155
G1 X100.61 Y107.398 E0.01553
G1 X100.61 Y106.832 E0.01553
G1 X100.61 Y106.267 E0.0155
G1 X100.61 Y105.701 E0.01553
G1 X100.61 Y105.135 E0.01553
G1 X100.61 Y104.57 E0.0155
G1 X100.714 Y104.109 E0.01544
G1 X101.28 Y104.109 E0.01553
G1 X101.846 Y104.109 E0.01553
G1 X102.411 Y104.109 E0.0155
G1 X102.977 Y104.109 E0.01553
G1 X103.543 Y104.109 E0.01553
G1 X104.109 Y104.109 E0.01553
G1 X104.641 Y104.076 E0.01782
G0 F3600 X105.219 Y104.088
G1 F1800 X104.499 Y103.367 E0.05084
G1 X104.429 Y103.297
G0 F3600 X104.499 Y102.802
G1 F1800 X105.219 Y103.522 E0.0508
G1 X105.289 Y103.592
G0 F3600 X105.219 Y102.956
G1 F1800 X104.499 Y102.236 E0.0508
G1 X104.429 Y102.166
G0 F3600 X104.499 Y101.67
G1 F1800 X105.219 Y102.391 E0.05084
G1 X105.289 Y102.461
G0 F3600 X105.219 Y101.825
G1 F1800 X104.499 Y101.104 E0.05084
G1 X104.429 Y101.034
G0 F3600 X104.499 Y100.539
G1 F1800 X105.219 Y101.259 E0.0508
G1 X105.289 Y101.329
G0 F3600 X105.219 Y100.694
G1 F1800 X104.499 Y99.973 E0.05084
G1 X104.429 Y99.903
G0 F3600 X104.504 Y99.412
G1 F1800 X105.219 Y100.128 E0.05048
G1 X105.289 Y100.198
G0 F3600 X105.219 Y99.562
G1 F1800 X104.652 Y98.995 E0.04
G1 X104.582 Y98.925
G0 F3600 X105.772 Y104.772
G0 X101.272 Y104.772
G0 X100.5 Y112.945
G1 F1800 X100.772 Y113.217 E0.01919
G0 F3600 X101.23 Y104.73
G0 X101.3 Y104.8
;TIME_ELAPSED:21.499692
;LAYER:1
M140 S60
M106 S255
G0 F5400 X101.3 Y104.8 Z0.4
;TYPE:WALL-OUTER
G1 F1800 X101.3 Y112.2 E0.12306
G1 X108.7 Y112.2 E0.12306
G1 X108.7 Y104.8 E0.12306
G1 X107.2 Y104.8 E0.02495
G1 X107.2 Y98.184 E0.11002
G1 X108.685 Y98.183 E0.0247
G1 X108.758 Y98.195 E0.00123
G1 X108.823 Y98.23 E0.00123
G1 X108.902 Y98.315 E0.00193
G1 X108.991 Y98.469 E0.00296
G1 X109.023 Y98.545 E0.00137
G1 X109.075 Y98.714 E0.00294
G1 X109.106 Y98.856 E0.00242
G1 X109.149 Y99.181 E0.00545
G1 X109.16 Y99.5 E0.00531
G1 X109.16 Y101.592 E0.03479
G1 X109.174 Y101.813 E0.00368
G1 X109.217 Y102.036 E0.00378
G1 X109.285 Y102.254 E0.0038
G1 X109.382 Y102.459 E0.00377
G1 X109.502 Y102.653 E0.00379
G1 X109.645 Y102.83 E0.00378
G1 X109.809 Y102.989 E0.0038
G1 X109.993 Y103.125 E0.00381
G1 X110.161 Y103.22 E0.00321
G1 X110.16 Y113.578 E0.17225
G1 X110.122 Y113.625 E0.00101
G1 X110.019 Y113.707 E0.00219
G1 X109.84 Y113.783 E0.00323
G1 X109.743 Y113.798 E0.00163
G1 X100.258 Y113.799 E0.15774
G1 X100.161 Y113.784 E0.00163
G1 X100.074 Y113.756 E0.00152
G1 X99.953 Y113.688 E0.00231
G1 X99.879 Y113.626 E0.00161
G1 X99.841 Y113.579 E0.00101
G1 X99.84 Y103.34 E0.17028
G1 X103.839 Y103.339 E0.0665
G1 X103.842 Y99.455 E0.06459
G1 X103.852 Y99.17 E0.00474
G1 X103.91 Y98.789 E0.00641
G1 X103.95 Y98.629 E0.00274
G1 X103.999 Y98.494 E0.00239
G1 X104.053 Y98.39 E0.00195
G1 X104.115 Y98.294 E0.0019
G1 X104.17 Y98.235 E0.00134
G1 X104.242 Y98.196 E0.00136
G1 X104.315 Y98.184 E0.00123
G1 X105.6 Y98.181 E0.02137
G1 X105.8 Y98.181 E0.00333
G1 X105.8 Y98.381 E0.00215
G1 X105.8 Y104.8 E0.10675
G1 X101.3 Y104.8 E0.07484
G0 F5400 X101.3 Y105
G0 X100.9 Y104.4
;TYPE:WALL-INNER
G1 F2100 X100.9 Y112.6 E0.13637
G1 X109.1 Y112.6 E0.13637
G1 X109.1 Y104.4 E0.13637
G1 X107.6 Y104.4 E0.02495
G1 X107.6 Y98.584 E0.09672
G1 X108.596 Y98.583 E0.01656
G1 X108.65 Y98.69 E0.00199
G1 X108.688 Y98.817 E0.0022
G1 X108.712 Y98.924 E0.00182
G1 X108.749 Y99.205 E0.00471
G1 X108.76 Y99.5 E0.00491
G1 X108.76 Y101.604 E0.03499
G1 X108.776 Y101.863 E0.00432
G1 X108.829 Y102.134 E0.00459
G1 X108.911 Y102.4 E0.00463
G1 X109.03 Y102.651 E0.00462
G1 X109.176 Y102.885 E0.00459
G1 X109.349 Y103.1 E0.00459
G1 X109.549 Y103.295 E0.00465
G1 X109.761 Y103.45 E0.00437
G1 X109.76 Y113.383 E0.16519
G1 X109.712 Y113.398 E0.00084
G1 X100.292 Y113.399 E0.15666
G1 X100.241 Y113.39 E0.00086
G1 X100.24 Y103.74 E0.16048
G1 X104.239 Y103.739 E0.0665
G1 X104.242 Y99.469 E0.07101
G1 X104.252 Y99.208 E0.00434
G1 X104.305 Y98.857 E0.0059
G1 X104.332 Y98.748 E0.00187
G1 X104.405 Y98.584 E0.00299
G1 X105.4 Y98.581 E0.01655
G1 X105.4 Y104.4 E0.09677
G1 X100.9 Y104.4 E0.07484
G0 F5400 X103.867 Y103.367
G0 X104.884 Y98.762
;TYPE:SKIN
G1 F1800 X104.433 Y99.213 E0.01061
G0 F5400 X104.421 Y99.791
G1 F1800 X105.219 Y98.992 E0.01878
G1 X105.289 Y98.922
G0 F5400 X105.219 Y99.558
G1 F1800 X104.421 Y100.356 E0.01877
G1 X104.351 Y100.426
G0 F5400 X104.42 Y100.923
G1 F1800 X105.219 Y100.124 E0.01879
G1 X105.289 Y100.054
G0 F5400 X105.219 Y100.689
G1 F1800 X104.42 Y101.488 E0.01879
G1 X104.35 Y101.558
