;FLAVOR:RepRap
;TIME:7795
;Filament used: 3.73198m
;Layer height: 0.1
;Generated with Cura_SteamEngine 3.0.3
T0
M190 S60
M104 S200
M109 S200
M82 ; absolute extrusion mode
G21 ;metric values
G90 ;absolute positioning
M82 ;set extruder to absolute mode
M107 ;start with the fan off
G28 X0 Y0 ;move X/Y to min endstops
G28 Z0 ;move Z to min endstops
G1 Z15.0 F9000 ;move the platform down 15mm
G92 E0 ;zero the extruded length
G1 F200 E3 ;extrude 3mm of feed stock
G92 E0 ;zero the extruded length again
G1 F9000
M117 Printing...
G5
M83 ; relative extrusion mode
;LAYER_COUNT:48
;LAYER:0
M107
G0 F3600 X44.308 Y170.619 Z0.3
;TYPE:SUPPORT
G1 F1800 X44.335 Y170.893 E0.01923
G1 X44.426 Y171.319 E0.03043
G1 X44.621 Y171.806 E0.03664
G1 X44.897 Y172.238 E0.03581
G1 X45.198 Y172.59 E0.03235
G1 X45.533 Y172.922 E0.03294
G1 X45.911 Y173.368 E0.04083
G1 X46.183 Y173.818 E0.03673
G1 X46.386 Y174.311 E0.03724
G1 X46.502 Y174.814 E0.03605
G1 X46.544 Y175.357 E0.03804
G1 X46.501 Y175.913 E0.03895
G1 X46.385 Y176.403 E0.03517
G1 X46.18 Y176.908 E0.03807
G1 X45.885 Y177.382 E0.039
G1 X45.546 Y177.777 E0.03636
G1 X45.148 Y178.116 E0.03652
G1 X44.651 Y178.421 E0.04073
G1 X44.177 Y178.614 E0.03575
G1 X43.633 Y178.739 E0.03899
G1 X43.137 Y178.777 E0.03475
G1 X42.588 Y178.733 E0.03847
G1 X42.066 Y178.607 E0.03751
G1 X41.574 Y178.407 E0.0371
G1 X41.123 Y178.127 E0.03708
G1 X40.702 Y177.767 E0.03869
G1 X40.369 Y177.431 E0.03304
G1 X40 Y177.121 E0.03366
G1 X39.605 Y176.865 E0.03288
G1 X39.102 Y176.658 E0.03799
G1 X38.636 Y176.557 E0.0333
G1 X38.387 Y176.535 E0.01746
G1 X44.308 Y170.619 E0.58462
G0 F3600 X43.2 Y172.065
G1 F1800 X43.2 Y178.532 E0.4517
G0 F3600 X41.6 Y178.14
G1 F1800 X41.6 Y173.664 E0.31263
G0 F3600 X40.863 Y174.4
G1 F1800 X46.159 Y174.4 E0.36991
G0 F3600 X46.233 Y176
G1 F1800 X39.261 Y176 E0.48697
G0 F3600 X40 Y175.262
G1 F1800 X40 Y176.835 E0.10987
G0 F3600 X40.875 Y177.6
G1 F1800 X45.38 Y177.6 E0.31466
G0 F3600 X44.8 Y178.048
G1 F1800 X44.8 Y172.494 E0.38793
G0 F3600 X45.068 Y172.8
G1 F1800 X42.465 Y172.8 E0.18181
G1 F3600 E-5
G0 F3600 X93.735 Y169.748
G0 X93.815 Y169.744
G0 X96.755 Y169.569
G0 X96.835 Y169.564
G0 X97.15 Y169.546
G1 F3600 E5
G1 F1800 X97.145 Y169.451 E0.00664
G1 X97.153 Y169.379 E0.00506
G1 X97.18 Y169.283 E0.00697
G1 X97.214 Y169.212 E0.0055
G1 X97.28 Y169.121 E0.00785
G1 X97.327 Y169.074 E0.00464
G1 X97.398 Y169.024 E0.00607
G1 X97.482 Y168.984 E0.0065
G1 X97.565 Y168.961 E0.00602
G1 X97.644 Y168.952 E0.00555
G1 X97.74 Y168.958 E0.00672
G1 X97.826 Y168.978 E0.00617
G1 X97.901 Y169.011 E0.00572
G1 X97.977 Y169.06 E0.00632
G1 X98.038 Y169.116 E0.00578
G1 X98.099 Y169.194 E0.00692
G1 X98.135 Y169.262 E0.00537
G1 X98.164 Y169.351 E0.00654
G1 X98.176 Y169.43 E0.00558
G1 X98.174 Y169.522 E0.00643
G1 X98.158 Y169.612 E0.00638
G1 X98.127 Y169.694 E0.00612
G1 X98.088 Y169.76 E0.00535
G1 X98.021 Y169.841 E0.00734
G1 X97.963 Y169.889 E0.00526
G1 X97.889 Y169.933 E0.00601
G1 X97.802 Y169.964 E0.00645
G1 X97.716 Y169.982 E0.00614
G1 X97.628 Y169.983 E0.00615
G1 X97.541 Y169.971 E0.00613
G1 X97.456 Y169.942 E0.00627
G1 X97.382 Y169.903 E0.00584
G1 X97.317 Y169.853 E0.00573
G1 X97.25 Y169.78 E0.00692
G1 X97.209 Y169.717 E0.00525
G1 X97.168 Y169.62 E0.00736
G1 X97.15 Y169.546 E0.00532
G0 F3600 X97.419 Y169.6
G1 F1800 X97.901 Y169.6 E0.03367
G0 F3600 X97.6 Y169.733
G1 F1800 X97.6 Y169.203 E0.03702
G1 F3600 E-5
G0 F3600 X97.184 Y168.786
G0 X97.128 Y168.73
G0 X95.03 Y166.631
G0 X94.973 Y166.575
G0 X71.283 Y142.882
G0 X70.204 Y141.804
G0 X36.099 Y175.146
;TYPE:WALL-INNER
G1 F3600 E5
G1 F1800 X35.902 Y175.343 E0.01946
G1 X35.704 Y175.145 E0.01266
G1 X34.657 Y174.098 E0.10342
G1 X174.098 Y34.657 E13.77364
G1 X175.145 Y35.703 E0.10337
G1 X175.343 Y35.901 E0.01956
G1 X175.146 Y36.098 E0.01255
G1 X36.099 Y175.146 E13.73477
G0 F3600 X35.902 Y176.035
G0 X35.902 Y176.135
G1 F1800 X33.866 Y174.099 E0.20111
G1 X33.667 Y173.9 E0.01966
G1 X29.951 Y170.184 E0.36706
G1 X29.789 Y170.022 E0.016
G1 X29.764 Y169.997 E0.00247
G1 X29.814 Y169.946 E0.00499
G1 X29.847 Y169.964
G1 X30.021 Y170.113
G1 X33.738 Y173.83 E0.21605
G1 X33.936 Y174.028 E0.01149
G1 X34.133 Y173.831 E0.01255
G1 X174.098 Y33.865 E13.82545
G1 X175.937 Y35.704 E0.18165
G1 X175.938 Y35.705 E0.0001
G1 X176.135 Y35.901 E0.01941
G1 X175.938 Y36.098 E0.01256
G1 X35.902 Y176.135 E13.83246
G0 F3600 X35.902 Y176.035
G0 X33.47 Y173.702
G0 X33.936 Y173.236
;TYPE:WALL-OUTER
G1 F1800 X34.133 Y173.039 E0.01946
G1 X174.098 Y33.073 E13.82545
G1 X176.729 Y35.704 E0.25988
G1 X176.73 Y35.705 E0.0001
G1 X176.927 Y35.901 E0.01941
G1 X176.73 Y36.098 E0.01256
G1 X36.099 Y176.73 E13.89124
G1 X35.902 Y176.927 E0.01946
G1 X35.704 Y176.729 E0.01266
G1 X28.972 Y169.997 E0.66497
G1 X29.601 Y169.367 E0.06218
G1 X29.644 Y169.338 E0.00362
G1 X29.695 Y169.327 E0.00364
G1 X29.803 Y169.33 E0.00755
G1 X29.931 Y169.368 E0.00933
G1 X30.167 Y169.502 E0.01896
G1 X30.404 Y169.704 E0.02175
G1 X33.739 Y173.039 E0.32942
G1 X33.936 Y173.236 E0.01256
G0 F3600 X34.077 Y173.095
G0 X34.542 Y173.562
G0 X35.449 Y174.098
;TYPE:WALL-INNER
G1 F1800 X174.098 Y35.449 E13.69541
G1 X174.551 Y35.901 E0.0447
G1 X35.902 Y174.551 E13.69546
G1 X35.449 Y174.098 E0.04475
G0 F3600 X36.098 Y173.899
G1 F1800 X36.494 Y173.503 E0.00838
G1 X36.89 Y173.107 E0.00838
G1 X37.286 Y172.711 E0.00838
G1 X37.682 Y172.315 E0.00838
G1 X38.078 Y171.919 E0.00838
G1 X38.474 Y171.523 E0.00838
G1 X38.87 Y171.127 E0.00838
G1 X39.266 Y170.731 E0.00838
G1 X39.662 Y170.335 E0.00838
G1 X40.058 Y169.939 E0.00838
G1 X40.454 Y169.543 E0.00838
G1 X40.85 Y169.148 E0.0083
G1 X41.246 Y168.752 E0.00831
G1 X41.642 Y168.356 E0.00831
G1 X42.038 Y167.96 E0.00831
G1 X42.434 Y167.564 E0.00831
G1 X42.83 Y167.168 E0.00831
G1 X43.226 Y166.772 E0.00831
G1 X43.622 Y166.376 E0.00831
G1 X44.018 Y165.98 E0.00831
G1 X44.414 Y165.584 E0.00838
G1 X44.81 Y165.188 E0.00838
G1 X45.206 Y164.792 E0.00838
G1 X45.602 Y164.396 E0.00838
G1 X45.998 Y164 E0.00838
G1 X46.394 Y163.604 E0.00838
G1 X46.79 Y163.208 E0.00838
G1 X47.186 Y162.812 E0.00838
G1 X47.582 Y162.416 E0.00838
G1 X47.978 Y162.02 E0.00838
G1 X48.374 Y161.624 E0.00838
G1 X48.77 Y161.228 E0.00831
G1 X49.166 Y160.832 E0.00831
G1 X49.562 Y160.436 E0.00831
G1 X49.958 Y160.04 E0.00831
G1 X50.354 Y159.644 E0.00831
G1 X50.75 Y159.248 E0.00831
G1 X51.146 Y158.852 E0.00831
G1 X51.542 Y158.456 E0.00831
G1 X51.937 Y158.06 E0.0083
G1 X52.333 Y157.664 E0.00838
G1 X52.729 Y157.268 E0.00838
G1 X53.125 Y156.872 E0.00838
G1 X53.521 Y156.476 E0.00838
G1 X53.917 Y156.08 E0.00838
G1 X54.313 Y155.684 E0.00838
G1 X54.709 Y155.288 E0.00838
G1 X55.105 Y154.892 E0.00838
G1 X55.501 Y154.496 E0.00838
G1 X55.897 Y154.1 E0.00838
G1 X56.293 Y153.704 E0.00838
G1 X56.689 Y153.308 E0.00838
G1 X57.085 Y152.912 E0.00838
G1 X57.481 Y152.516 E0.00838
G1 X57.877 Y152.12 E0.00838
G1 X58.273 Y151.724 E0.00838
G1 X58.669 Y151.328 E0.00838
G1 X59.065 Y150.932 E0.00838
G1 X59.461 Y150.536 E0.00838
G1 X59.857 Y150.14 E0.00838
G1 X60.253 Y149.744 E0.00838
G1 X60.649 Y149.349 E0.0083
G1 X61.045 Y148.953 E0.00831
G1 X61.441 Y148.557 E0.00831
G1 X61.837 Y148.161 E0.00831
G1 X62.233 Y147.765 E0.00831
G1 X62.629 Y147.369 E0.00831
G1 X63.025 Y146.973 E0.00831
G1 X63.421 Y146.577 E0.00831
G1 X63.817 Y146.181 E0.00838
G1 X64.213 Y145.785 E0.00838
G1 X64.609 Y145.389 E0.00838
G1 X65.005 Y144.993 E0.00838
G1 X65.401 Y144.597 E0.00838
G1 X65.797 Y144.201 E0.00838
G1 X66.193 Y143.805 E0.00838
G1 X66.589 Y143.409 E0.00838
G1 X66.985 Y143.013 E0.00838
G1 X67.381 Y142.617 E0.00838
G1 X67.777 Y142.221 E0.00838
G1 X68.173 Y141.825 E0.00838
G1 X68.569 Y141.429 E0.00831
G1 X68.965 Y141.033 E0.00831
G1 X69.361 Y140.637 E0.00831
G1 X69.757 Y140.241 E0.00831
G1 X70.153 Y139.845 E0.00831
G1 X70.549 Y139.449 E0.00831
G1 X70.945 Y139.053 E0.00831
G1 X71.34 Y138.657 E0.0083
G1 X71.736 Y138.261 E0.00838
G1 X72.132 Y137.865 E0.00838
G1 X72.528 Y137.469 E0.00838
G1 X72.924 Y137.073 E0.00838
G1 X73.32 Y136.677 E0.00838
G1 X73.716 Y136.281 E0.00838
G1 X74.112 Y135.885 E0.00838
G1 X74.508 Y135.489 E0.00838
G1 X74.904 Y135.093 E0.00838
G1 X75.3 Y134.697 E0.00838
G1 X75.696 Y134.301 E0.00838
G1 X76.092 Y133.905 E0.00838
G1 X76.488 Y133.509 E0.00838
G1 X76.884 Y133.113 E0.00838
G1 X77.28 Y132.717 E0.00838
G1 X77.676 Y132.321 E0.00838
G1 X78.072 Y131.925 E0.00838
G1 X78.468 Y131.529 E0.00838
G1 X78.864 Y131.133 E0.00838
G1 X79.26 Y130.737 E0.00838
G1 X79.656 Y130.341 E0.00838
G1 X80.052 Y129.946 E0.0083
G1 X80.448 Y129.55 E0.00831
G1 X80.844 Y129.154 E0.00831
G1 X81.24 Y128.758 E0.00831
G1 X81.636 Y128.362 E0.00831
G1 X82.032 Y127.966 E0.00831
G1 X82.428 Y127.57 E0.00831
G1 X82.824 Y127.174 E0.00831
G1 X83.22 Y126.778 E0.00831
G1 X83.616 Y126.382 E0.00838
G1 X84.012 Y125.986 E0.00838
G1 X84.408 Y125.59 E0.00838
G1 X84.804 Y125.194 E0.00838
G1 X85.2 Y124.798 E0.00838
G1 X85.596 Y124.402 E0.00838
G1 X85.992 Y124.006 E0.00838
G1 X86.388 Y123.61 E0.00838
G1 X86.784 Y123.214 E0.00838
G1 X87.18 Y122.818 E0.00838
G1 X87.576 Y122.422 E0.00838
G1 X87.972 Y122.026 E0.00831
G1 X88.368 Y121.63 E0.00831
G1 X88.764 Y121.234 E0.00831
G1 X89.16 Y120.838 E0.00831
G1 X89.556 Y120.442 E0.00831
G1 X89.952 Y120.046 E0.00831
G1 X90.348 Y119.65 E0.00831
G1 X90.744 Y119.254 E0.00831
G1 X91.139 Y118.858 E0.0083
G1 X91.535 Y118.462 E0.00838
G1 X91.931 Y118.066 E0.00838
G1 X92.327 Y117.67 E0.00838
G1 X92.723 Y117.274 E0.00838
G1 X93.119 Y116.878 E0.00838
G1 X93.515 Y116.482 E0.00838
G1 X93.911 Y116.086 E0.00838
G1 X94.307 Y115.69 E0.00838
G1 X94.703 Y115.294 E0.00838
G1 X95.099 Y114.898 E0.00838
G1 X95.495 Y114.502 E0.00838
G1 X95.891 Y114.106 E0.00838
G1 X96.287 Y113.71 E0.00838
G1 X96.683 Y113.314 E0.00838
G1 X97.079 Y112.918 E0.00838
G1 X97.475 Y112.522 E0.00838
G1 X97.871 Y112.126 E0.00838
G1 X98.267 Y111.73 E0.00838
G1 X98.663 Y111.334 E0.00838
G1 X99.059 Y110.938 E0.00838
G1 X99.455 Y110.542 E0.00838
G1 X99.851 Y110.147 E0.0083
G1 X100.247 Y109.751 E0.00831
G1 X100.643 Y109.355 E0.00831
G1 X101.039 Y108.959 E0.00831
G1 X101.435 Y108.563 E0.00831
G1 X101.831 Y108.167 E0.00831
G1 X102.227 Y107.771 E0.00831
G1 X102.623 Y107.375 E0.00831
G1 X103.019 Y106.979 E0.00838
G1 X103.415 Y106.583 E0.00838
G1 X103.811 Y106.187 E0.00838
G1 X104.207 Y105.791 E0.00838
G1 X104.603 Y105.395 E0.00838
G1 X104.999 Y104.999 E0.00838
G1 X105.395 Y104.603 E0.00838
G1 X105.791 Y104.207 E0.00838
G1 X106.187 Y103.811 E0.00838
G1 X106.583 Y103.415 E0.00838
G1 X106.979 Y103.019 E0.00838
G1 X107.375 Y102.623 E0.00838
G1 X107.771 Y102.227 E0.00831
G1 X108.167 Y101.831 E0.00831
G1 X108.563 Y101.435 E0.00831
G1 X108.959 Y101.039 E0.00831
G1 X109.355 Y100.643 E0.00831
G1 X109.751 Y100.247 E0.00831
G1 X110.147 Y99.851 E0.00831
G1 X110.542 Y99.455 E0.0083
G1 X110.938 Y99.059 E0.00838
G1 X111.334 Y98.663 E0.00838
G1 X111.73 Y98.267 E0.00838
G1 X112.126 Y97.871 E0.00838
G1 X112.522 Y97.475 E0.00838
G1 X112.918 Y97.079 E0.00838
G1 X113.314 Y96.683 E0.00838
G1 X113.71 Y96.287 E0.00838
G1 X114.106 Y95.891 E0.00838
G1 X114.502 Y95.495 E0.00838
G1 X114.898 Y95.099 E0.00838
G1 X115.294 Y94.703 E0.00838
G1 X115.69 Y94.307 E0.00838
G1 X116.086 Y93.911 E0.00838
G1 X116.482 Y93.515 E0.00838
G1 X116.878 Y93.119 E0.00838
G1 X117.274 Y92.723 E0.00838
G1 X117.67 Y92.327 E0.00838
G1 X118.066 Y91.931 E0.00838
G1 X118.462 Y91.535 E0.00838
G1 X118.858 Y91.139 E0.00838
G1 X119.254 Y90.744 E0.0083
G1 X119.65 Y90.348 E0.00831
G1 X120.046 Y89.952 E0.00831
G1 X120.442 Y89.556 E0.00831
G1 X120.838 Y89.16 E0.00831
G1 X121.234 Y88.764 E0.00831
G1 X121.63 Y88.368 E0.00831
G1 X122.026 Y87.972 E0.00831
G1 X122.422 Y87.576 E0.00831
G1 X122.818 Y87.18 E0.00838
G1 X123.214 Y86.784 E0.00838
G1 X123.61 Y86.388 E0.00838
G1 X124.006 Y85.992 E0.00838
G1 X124.402 Y85.596 E0.00838
G1 X124.798 Y85.2 E0.00838
G1 X125.194 Y84.804 E0.00838
G1 X125.59 Y84.408 E0.00838
G1 X125.986 Y84.012 E0.00838
G1 X126.382 Y83.616 E0.00838
G1 X126.778 Y83.22 E0.00838
G1 X127.174 Y82.824 E0.00831
G1 X127.57 Y82.428 E0.00831
G1 X127.966 Y82.032 E0.00831
G1 X128.362 Y81.636 E0.00831
G1 X128.758 Y81.24 E0.00831
G1 X129.154 Y80.844 E0.00831
G1 X129.55 Y80.448 E0.00831
G1 X129.946 Y80.052 E0.00831
G1 X130.341 Y79.656 E0.0083
G1 X130.737 Y79.26 E0.00838
G1 X131.133 Y78.864 E0.00838
G1 X131.529 Y78.468 E0.00838
G1 X131.925 Y78.072 E0.00838
G1 X132.321 Y77.676 E0.00838
G1 X132.717 Y77.28 E0.00838
G1 X133.113 Y76.884 E0.00838
G1 X133.509 Y76.488 E0.00838
G1 X133.905 Y76.092 E0.00838
G1 X134.301 Y75.696 E0.00838
G1 X134.697 Y75.3 E0.00838
G1 X135.093 Y74.904 E0.00838
G1 X135.489 Y74.508 E0.00838
G1 X135.885 Y74.112 E0.00838
G1 X136.281 Y73.716 E0.00838
G1 X136.677 Y73.32 E0.00838
G1 X137.073 Y72.924 E0.00838
G1 X137.469 Y72.528 E0.00838
G1 X137.865 Y72.132 E0.00838
G1 X138.261 Y71.736 E0.00838
G1 X138.657 Y71.34 E0.00838
G1 X139.053 Y70.945 E0.0083
G1 X139.449 Y70.549 E0.00831
G1 X139.845 Y70.153 E0.00831
G1 X140.241 Y69.757 E0.00831
G1 X140.637 Y69.361 E0.00831
G1 X141.033 Y68.965 E0.00831
G1 X141.429 Y68.569 E0.00831
G1 X141.825 Y68.173 E0.00831
G1 X142.221 Y67.777 E0.00838
G1 X142.617 Y67.381 E0.00838
G1 X143.013 Y66.985 E0.00838
G1 X143.409 Y66.589 E0.00838
G1 X143.805 Y66.193 E0.00838
G1 X144.201 Y65.797 E0.00838
G1 X144.597 Y65.401 E0.00838
G1 X144.993 Y65.005 E0.00838
G1 X145.389 Y64.609 E0.00838
G1 X145.785 Y64.213 E0.00838
G1 X146.181 Y63.817 E0.00838
G1 X146.577 Y63.421 E0.00838
G1 X146.973 Y63.025 E0.00831
G1 X147.369 Y62.629 E0.00831
G1 X147.765 Y62.233 E0.00831
G1 X148.161 Y61.837 E0.00831
G1 X148.557 Y61.441 E0.00831
G1 X148.953 Y61.045 E0.00831
G1 X149.349 Y60.649 E0.00831
G1 X149.744 Y60.253 E0.0083
G1 X150.14 Y59.857 E0.00838
G1 X150.536 Y59.461 E0.00838
G1 X150.932 Y59.065 E0.00838
G1 X151.328 Y58.669 E0.00838
G1 X151.724 Y58.273 E0.00838
G1 X152.12 Y57.877 E0.00838
G1 X152.516 Y57.481 E0.00838
G1 X152.912 Y57.085 E0.00838
G1 X153.308 Y56.689 E0.00838
G1 X153.704 Y56.293 E0.00838
G1 X154.1 Y55.897 E0.00838
G1 X154.496 Y55.501 E0.00838
G1 X154.892 Y55.105 E0.00838
G1 X155.288 Y54.709 E0.00838
G1 X155.684 Y54.313 E0.00838
G1 X156.08 Y53.917 E0.00838
G1 X156.476 Y53.521 E0.00838
G1 X156.872 Y53.125 E0.00838
G1 X157.268 Y52.729 E0.00838
G1 X157.664 Y52.333 E0.00838
G1 X158.06 Y51.937 E0.00838
G1 X158.456 Y51.542 E0.0083
G1 X158.852 Y51.146 E0.00831
G1 X159.248 Y50.75 E0.00831
G1 X159.644 Y50.354 E0.00831
G1 X160.04 Y49.958 E0.00831
G1 X160.436 Y49.562 E0.00831
G1 X160.832 Y49.166 E0.00831
G1 X161.228 Y48.77 E0.00831
G1 X161.624 Y48.374 E0.00831
G1 X162.02 Y47.978 E0.00838
G1 X162.416 Y47.582 E0.00838
G1 X162.812 Y47.186 E0.00838
G1 X163.208 Y46.79 E0.00838
G1 X163.604 Y46.394 E0.00838
G1 X164 Y45.998 E0.00838
G1 X164.396 Y45.602 E0.00838
G1 X164.792 Y45.206 E0.00838
G1 X165.188 Y44.81 E0.00838
G1 X165.584 Y44.414 E0.00838
G1 X165.98 Y44.018 E0.00838
G1 X166.376 Y43.622 E0.00831
G1 X166.772 Y43.226 E0.00831
G1 X167.168 Y42.83 E0.00831
G1 X167.564 Y42.434 E0.00831
G1 X167.96 Y42.038 E0.00831
G1 X168.356 Y41.642 E0.00831
G1 X168.752 Y41.246 E0.00831
G1 X169.148 Y40.85 E0.00831
G1 X169.543 Y40.454 E0.0083
G1 X169.939 Y40.058 E0.00838
G1 X170.335 Y39.662 E0.00838
G1 X170.731 Y39.266 E0.00838
G1 X171.127 Y38.87 E0.00838
G1 X171.523 Y38.474 E0.00838
G1 X171.919 Y38.078 E0.00838
G1 X172.315 Y37.682 E0.00838
G1 X172.711 Y37.286 E0.00838
G1 X173.107 Y36.89 E0.00838
G1 X173.503 Y36.494 E0.00838
G1 X173.899 Y36.098 E0.00838
G0 F3600 X173.857 Y36.056
G1 F3600 E-5
G0 F3600 X103.36 Y108.649
G0 X104.438 Y109.726
G0 X166.723 Y87.762
G0 X167.503 Y87.762
G0 X170.883 Y91.142
G0 X170.883 Y91.922
G0 X147.747 Y153.035
G0 X148.825 Y154.113
G0 X149.206 Y154.497
;TYPE:WALL-INNER
G1 F3600 E5
G1 F1800 X149.275 Y154.64 E0.01109
G1 X149.415 Y154.839 E0.01699
G1 X149.557 Y155.041 E0.01725
G1 X149.905 Y155.389 E0.03437
G1 X150.11 Y155.535 E0.01758
G1 X150.309 Y155.676 E0.01703
G1 X150.45 Y155.743 E0.0109
G1 X150.414 Y155.779
G1 X150.242 Y155.951 E0.01219
G1 X113.445 Y192.748 E3.63472
G1 X113.427 Y192.766 E0.00178
G1 X113.352 Y192.841 E0.00741
G1 X113.344 Y192.849 E0.00079
G1 X113.331 Y192.819
G1 X113.066 Y192.406 E0.02448
G1 X113.049 Y192.387 E0.00172
G1 X112.731 Y192.041 E0.03282
G1 X112.473 Y191.842 E0.02276
G1 X112.342 Y191.741 E0.01155
