;FLAVOR:RepRap
;TIME:2582
;Filament used: 1.19243m
;Layer height: 0.1
;Generated with Cura_SteamEngine 3.0.3
T0
M190 S60
M104 S200
M109 S200
M82 ; absolute extrusion mode
G21 ;metric values
G90 ;absolute positioning
M82 ;set extruder to absolute mode
M107 ;start with the fan off
G28 X0 Y0 ;move X/Y to min endstops
G28 Z0 ;move Z to min endstops
G1 Z15.0 F9000 ;move the platform down 15mm
G92 E0 ;zero the extruded length
G1 F200 E3 ;extrude 3mm of feed stock
G92 E0 ;zero the extruded length again
G1 F9000
M117 Printing...
G5
M83 ; relative extrusion mode
;LAYER_COUNT:128
;LAYER:0
M107
G0 F3600 X79.188 Y78.421 Z0.3
;TYPE:SKIRT
G1 F1800 X79.593 Y78.071 E0.02671
G1 X79.944 Y77.841 E0.02094
G1 X80.553 Y77.491 E0.03504
G1 X81.037 Y77.259 E0.02678
G1 X81.298 Y77.168 E0.01379
G1 X82.191 Y76.896 E0.04657
G1 X82.714 Y76.779 E0.02674
G1 X83.237 Y76.74 E0.02617
G1 X84.322 Y76.739 E0.05413
G1 X84.857 Y76.778 E0.02676
G1 X85.267 Y76.864 E0.0209
G1 X85.968 Y77.054 E0.03623
G1 X86.473 Y77.233 E0.02673
G1 X86.717 Y77.351 E0.01352
G1 X87.516 Y77.776 E0.04515
G1 X87.969 Y78.062 E0.02673
G1 X88.235 Y78.28 E0.01716
G1 X89.034 Y79 E0.05366
G1 X89.17 Y79.128 E0.00932
G1 X130.753 Y120.712 E2.93394
G1 X130.858 Y120.822 E0.00759
G1 X131.683 Y121.72 E0.06084
G1 X132.098 Y122.27 E0.03437
G1 X132.392 Y122.748 E0.028
G1 X132.697 Y123.369 E0.03452
G1 X132.951 Y124.046 E0.03607
G1 X133.101 Y124.561 E0.02676
G1 X133.147 Y124.826 E0.01342
G1 X133.27 Y125.731 E0.04557
G1 X133.303 Y126.266 E0.02674
G1 X133.282 Y126.606 E0.01699
G1 X133.205 Y127.313 E0.03548
G1 X133.107 Y127.84 E0.02674
G1 X132.987 Y128.212 E0.0195
G1 X132.587 Y129.255 E0.05573
G1 X132.358 Y129.74 E0.02676
G1 X132.089 Y130.149 E0.02442
G1 X131.543 Y130.865 E0.04492
G1 X131.187 Y131.266 E0.02675
G1 X130.927 Y131.495 E0.01729
G1 X130.355 Y131.952 E0.03653
G1 X129.912 Y132.254 E0.02675
G1 X129.672 Y132.382 E0.01357
G1 X128.855 Y132.776 E0.04525
G1 X128.133 Y133.033 E0.03823
G1 X127.605 Y133.16 E0.02709
G1 X127.076 Y133.246 E0.02674
G1 X126.766 Y133.26 E0.01548
G1 X125.677 Y133.261 E0.05433
G1 X125.142 Y133.222 E0.02676
G1 X124.731 Y133.135 E0.02096
G1 X124.031 Y132.945 E0.03619
G1 X123.285 Y132.65 E0.04002
G1 X122.485 Y132.225 E0.04519
G1 X122.031 Y131.939 E0.02677
G1 X121.812 Y131.763 E0.01402
G1 X121.254 Y131.278 E0.03688
G1 X121.07 Y131.106 E0.01257
G1 X78.771 Y88.798 E2.98474
G1 X78.504 Y88.499 E0.02
G1 X78.048 Y87.928 E0.03646
G1 X77.745 Y87.486 E0.02674
G1 X77.618 Y87.244 E0.01364
G1 X77.226 Y86.43 E0.04507
G1 X76.969 Y85.709 E0.03819
G1 X76.84 Y85.172 E0.02755
G1 X76.754 Y84.643 E0.02674
G1 X76.74 Y84.331 E0.01558
G1 X76.74 Y83.237 E0.05458
G1 X76.78 Y82.702 E0.02677
G1 X76.868 Y82.285 E0.02126
G1 X77.057 Y81.596 E0.03564
G1 X77.351 Y80.856 E0.03973
G1 X77.777 Y80.056 E0.04522
G1 X78.064 Y79.603 E0.02675
G1 X78.405 Y79.207 E0.02607
G1 X79.188 Y78.421 E0.05535
G0 F3600 X79.471 Y78.704
G1 F1800 X79.855 Y78.375 E0.02523
G1 X80.143 Y78.188 E0.01713
G1 X80.752 Y77.838 E0.03504
G1 X81.415 Y77.551 E0.03604
G1 X82.308 Y77.279 E0.04657
G1 X82.801 Y77.17 E0.02519
G1 X83.237 Y77.14 E0.0218
G1 X84.322 Y77.139 E0.05413
G1 X84.826 Y77.178 E0.02522
G1 X85.162 Y77.25 E0.01714
G1 X85.863 Y77.44 E0.03623
G1 X86.529 Y77.704 E0.03574
G1 X87.328 Y78.129 E0.04515
G1 X87.754 Y78.401 E0.02522
G1 X87.967 Y78.577 E0.01378
G1 X88.766 Y79.297 E0.05366
G1 X88.887 Y79.411 E0.00829
G1 X130.47 Y120.995 E2.93394
G1 X130.563 Y121.093 E0.00674
G1 X131.388 Y121.991 E0.06084
G1 X131.758 Y122.48 E0.03059
G1 X132.052 Y122.958 E0.028
G1 X132.322 Y123.51 E0.03066
G1 X132.576 Y124.187 E0.03607
G1 X132.751 Y124.88 E0.03566
G1 X132.874 Y125.785 E0.04557
G1 X132.902 Y126.29 E0.02523
G1 X132.884 Y126.562 E0.0136
G1 X132.807 Y127.269 E0.03548
G1 X132.713 Y127.766 E0.02524
G1 X132.614 Y128.069 E0.0159
G1 X132.214 Y129.112 E0.05573
G1 X131.996 Y129.568 E0.02522
G1 X131.771 Y129.906 E0.02026
G1 X131.225 Y130.622 E0.04492
G1 X130.887 Y130.999 E0.02526
G1 X130.677 Y131.182 E0.0139
G1 X130.105 Y131.639 E0.03653
G1 X129.498 Y132.021 E0.03578
G1 X128.681 Y132.415 E0.04525
G1 X128.039 Y132.644 E0.03401
G1 X127.511 Y132.771 E0.02709
G1 X126.766 Y132.86 E0.03743
G1 X125.677 Y132.861 E0.05433
G1 X125.173 Y132.822 E0.02522
G1 X124.836 Y132.749 E0.0172
G1 X124.136 Y132.559 E0.03619
G1 X123.473 Y132.297 E0.03557
G1 X122.673 Y131.872 E0.04519
G1 X122.075 Y131.461 E0.0362
G1 X121.517 Y130.976 E0.03688
G1 X121.353 Y130.824 E0.01116
G1 X79.054 Y88.516 E2.98474
G1 X78.817 Y88.25 E0.01777
G1 X78.361 Y87.679 E0.03646
G1 X77.978 Y87.07 E0.03589
G1 X77.586 Y86.256 E0.04507
G1 X77.358 Y85.615 E0.03394
G1 X77.229 Y85.078 E0.02755
G1 X77.14 Y84.331 E0.03753
G1 X77.14 Y83.237 E0.05458
G1 X77.18 Y82.733 E0.02522
G1 X77.254 Y82.39 E0.01751
G1 X77.443 Y81.701 E0.03564
G1 X77.704 Y81.044 E0.03527
G1 X78.13 Y80.244 E0.04522
G1 X78.403 Y79.818 E0.02524
G1 X78.688 Y79.49 E0.02168
G1 X79.471 Y78.704 E0.05535
G1 F3600 E-5
G0 F3600 X81.834 Y80.112
G0 X82.295 Y80.865
G0 X84.288 Y80.626
G0 X84.303 Y80.528
;TYPE:WALL-OUTER
G1 F3600 E5
G1 F1800 X84.804 Y80.648 E0.0257
G1 X85.286 Y80.847 E0.02602
G1 X85.725 Y81.116 E0.02569
G1 X86.132 Y81.464 E0.02672
G1 X128.536 Y123.868 E2.99183
G1 X128.884 Y124.275 E0.02672
G1 X129.153 Y124.714 E0.02569
G1 X129.352 Y125.196 E0.02602
G1 X129.472 Y125.697 E0.0257
G1 X129.513 Y126.213 E0.02582
G1 X129.472 Y126.73 E0.02587
G1 X129.353 Y127.228 E0.02554
G1 X129.152 Y127.714 E0.02624
G1 X128.884 Y128.151 E0.02558
G1 X128.546 Y128.546 E0.02594
G1 X128.151 Y128.884 E0.02594
G1 X127.714 Y129.152 E0.02558
G1 X127.228 Y129.353 E0.02624
G1 X126.73 Y129.472 E0.02554
G1 X126.213 Y129.513 E0.02587
G1 X125.697 Y129.472 E0.02582
G1 X125.196 Y129.352 E0.0257
G1 X124.714 Y129.153 E0.02602
G1 X124.275 Y128.884 E0.02569
G1 X123.868 Y128.536 E0.02672
G1 X81.464 Y86.132 E2.99183
G1 X81.116 Y85.725 E0.02672
G1 X80.847 Y85.286 E0.02569
G1 X80.648 Y84.804 E0.02602
G1 X80.528 Y84.303 E0.0257
G1 X80.487 Y83.787 E0.02582
G1 X80.528 Y83.27 E0.02587
G1 X80.647 Y82.772 E0.02554
G1 X80.848 Y82.286 E0.02624
G1 X81.116 Y81.849 E0.02558
G1 X81.455 Y81.453 E0.02601
G1 X81.849 Y81.116 E0.02587
G1 X82.286 Y80.848 E0.02558
G1 X82.772 Y80.647 E0.02624
G1 X83.27 Y80.528 E0.02554
G1 X83.787 Y80.487 E0.02587
G1 X84.303 Y80.528 E0.02582
G0 F3600 X84.497 Y80.574
G0 X84.473 Y80.671
G0 X83.435 Y81.97
G0 X83.454 Y82.068
G1 F1800 X83.169 Y82.149 E0.01478
G1 X82.9 Y82.277 E0.01486
G1 X82.658 Y82.449 E0.01481
G1 X82.449 Y82.658 E0.01475
G1 X82.277 Y82.9 E0.01481
G1 X82.149 Y83.169 E0.01486
G1 X82.068 Y83.454 E0.01478
G1 X82.036 Y83.75 E0.01485
G1 X82.056 Y84.046 E0.0148
G1 X82.124 Y84.335 E0.01481
G1 X82.241 Y84.608 E0.01482
G1 X82.401 Y84.858 E0.01481
G1 X82.602 Y85.076 E0.01479
G1 X82.837 Y85.258 E0.01483
G1 X83.099 Y85.397 E0.0148
G1 X83.381 Y85.49 E0.01481
G1 X83.675 Y85.534 E0.01483
G1 X83.972 Y85.528 E0.01482
G1 X84.264 Y85.471 E0.01484
G1 X84.542 Y85.366 E0.01483
G1 X84.798 Y85.216 E0.0148
G1 X85.025 Y85.025 E0.0148
G1 X85.216 Y84.798 E0.0148
G1 X85.366 Y84.542 E0.0148
G1 X85.471 Y84.264 E0.01483
G1 X85.528 Y83.972 E0.01484
G1 X85.534 Y83.675 E0.01482
G1 X85.49 Y83.381 E0.01483
G1 X85.397 Y83.099 E0.01481
G1 X85.258 Y82.837 E0.0148
G1 X85.076 Y82.602 E0.01483
G1 X84.858 Y82.401 E0.01479
G1 X84.608 Y82.241 E0.01481
G1 X84.335 Y82.124 E0.01482
G1 X84.046 Y82.056 E0.01481
G1 X83.75 Y82.036 E0.0148
G1 X83.454 Y82.068 E0.01485
G0 F3600 X83.262 Y82.122
G0 X83.236 Y82.026
G0 X84.051 Y82.017
G0 X84.626 Y82.206
G0 X85.105 Y82.575
G0 X125.947 Y124.433
G0 X125.961 Y124.531
G1 F1800 X125.681 Y124.598 E0.01436
G1 X125.416 Y124.711 E0.01437
G1 X125.173 Y124.867 E0.01441
G1 X124.96 Y125.063 E0.01444
G1 X124.784 Y125.291 E0.01437
G1 X124.649 Y125.546 E0.01439
G1 X124.559 Y125.819 E0.01434
G1 X124.516 Y126.105 E0.01443
G1 X124.522 Y126.393 E0.01437
G1 X124.577 Y126.677 E0.01443
G1 X124.679 Y126.947 E0.0144
G1 X124.825 Y127.195 E0.01436
G1 X125.011 Y127.416 E0.01441
G1 X125.231 Y127.602 E0.01437
G1 X125.48 Y127.748 E0.0144
G1 X125.75 Y127.849 E0.01438
G1 X126.033 Y127.905 E0.01439
G1 X126.322 Y127.91 E0.01442
G1 X126.606 Y127.868 E0.01432
G1 X126.881 Y127.778 E0.01444
G1 X127.136 Y127.643 E0.01439
G1 X127.364 Y127.466 E0.0144
G1 X127.559 Y127.254 E0.01437
G1 X127.715 Y127.011 E0.01441
G1 X127.829 Y126.746 E0.01439
G1 X127.896 Y126.465 E0.01441
G1 X127.914 Y126.177 E0.0144
G1 X127.883 Y125.89 E0.0144
G1 X127.805 Y125.613 E0.01436
G1 X127.68 Y125.352 E0.01444
G1 X127.513 Y125.117 E0.01438
G1 X127.309 Y124.912 E0.01443
G1 X127.073 Y124.747 E0.01437
G1 X126.814 Y124.622 E0.01435
G1 X126.536 Y124.543 E0.01442
G1 X126.249 Y124.513 E0.0144
G1 X125.961 Y124.531 E0.0144
G0 F3600 X125.766 Y124.577
G0 X125.555 Y124.216
;TYPE:WALL-INNER
G1 F1800 X125.228 Y124.357 E0.01777
G1 X124.927 Y124.549 E0.01781
G1 X124.664 Y124.791 E0.01783
G1 X124.446 Y125.073 E0.01778
G1 X124.279 Y125.388 E0.01779
G1 X124.169 Y125.726 E0.01773
G1 X124.116 Y126.079 E0.01781
G1 X124.122 Y126.435 E0.01776
G1 X124.191 Y126.787 E0.0179
G1 X124.317 Y127.121 E0.01781
G1 X124.497 Y127.427 E0.01771
G1 X124.727 Y127.7 E0.01781
G1 X124.999 Y127.93 E0.01777
G1 X125.308 Y128.11 E0.01784
G1 X125.64 Y128.235 E0.0177
G1 X125.991 Y128.305 E0.01786
G1 X126.348 Y128.31 E0.01781
G1 X126.698 Y128.258 E0.01765
G1 X127.037 Y128.148 E0.01778
G1 X127.354 Y127.981 E0.01788
G1 X127.636 Y127.762 E0.01781
G1 X127.877 Y127.5 E0.01776
G1 X128.069 Y127.199 E0.01781
G1 X128.21 Y126.872 E0.01777
G1 X128.294 Y126.525 E0.01781
G1 X128.316 Y126.167 E0.01789
G1 X128.277 Y125.814 E0.01772
G1 X128.181 Y125.471 E0.01777
G1 X128.026 Y125.148 E0.01787
G1 X127.819 Y124.859 E0.01774
G1 X127.567 Y124.604 E0.01789
G1 X127.275 Y124.401 E0.01774
G1 X126.956 Y124.246 E0.01769
G1 X126.612 Y124.149 E0.01783
G1 X126.257 Y124.111 E0.01781
G1 X125.901 Y124.133 E0.01779
G1 X125.555 Y124.216 E0.01775
G0 F3600 X128.232 Y124.128
G1 F1800 X128.56 Y124.511 E0.02516
G1 X128.796 Y124.896 E0.02253
G1 X128.97 Y125.318 E0.02277
G1 X129.077 Y125.766 E0.02298
G1 X129.113 Y126.213 E0.02237
G1 X129.077 Y126.663 E0.02252
G1 X128.971 Y127.104 E0.02263
G1 X128.794 Y127.532 E0.02311
G1 X128.56 Y127.915 E0.02239
G1 X128.262 Y128.262 E0.02282
G1 X127.915 Y128.56 E0.02282
G1 X127.532 Y128.794 E0.02239
G1 X127.104 Y128.971 E0.02311
G1 X126.663 Y129.077 E0.02263
G1 X126.213 Y129.113 E0.02252
G1 X125.766 Y129.077 E0.02237
G1 X125.318 Y128.97 E0.02298
G1 X124.896 Y128.796 E0.02277
G1 X124.511 Y128.56 E0.02253
G1 X124.128 Y128.232 E0.02516
G1 X81.768 Y85.872 E2.98873
G1 X81.44 Y85.489 E0.02516
G1 X81.204 Y85.104 E0.02253
G1 X81.03 Y84.682 E0.02277
G1 X80.923 Y84.234 E0.02298
G1 X80.887 Y83.787 E0.02237
G1 X80.923 Y83.337 E0.02252
G1 X81.029 Y82.896 E0.02263
G1 X81.206 Y82.468 E0.02311
G1 X81.44 Y82.085 E0.02239
G1 X81.739 Y81.737 E0.02289
G1 X82.085 Y81.44 E0.02275
G1 X82.468 Y81.206 E0.02239
G1 X82.896 Y81.029 E0.02311
G1 X83.337 Y80.923 E0.02263
G1 X83.787 Y80.887 E0.02252
G1 X84.234 Y80.923 E0.02237
G1 X84.682 Y81.03 E0.02298
G1 X85.104 Y81.204 E0.02277
G1 X85.489 Y81.44 E0.02253
G1 X85.872 Y81.768 E0.02516
G1 X128.232 Y124.128 E2.98873
G0 F3600 X85.309 Y85.309
G1 F1800 X85.544 Y85.03 E0.0182
G1 X85.728 Y84.715 E0.0182
G1 X85.857 Y84.374 E0.01819
G1 X85.928 Y84.014 E0.01831
G1 X85.934 Y83.649 E0.01821
G1 X85.88 Y83.289 E0.01816
G1 X85.767 Y82.941 E0.01825
G1 X85.596 Y82.619 E0.01819
G1 X85.372 Y82.33 E0.01824
G1 X85.104 Y82.083 E0.01818
G1 X84.796 Y81.887 E0.01821
G1 X84.461 Y81.742 E0.01821
G1 X84.106 Y81.66 E0.01818
G1 X83.742 Y81.634 E0.01821
G1 X83.378 Y81.674 E0.01827
G1 X83.027 Y81.773 E0.01819
G1 X82.696 Y81.931 E0.0183
G1 X82.398 Y82.143 E0.01825
G1 X82.143 Y82.398 E0.01799
G1 X81.931 Y82.696 E0.01825
G1 X81.773 Y83.027 E0.0183
G1 X81.674 Y83.378 E0.01819
G1 X81.634 Y83.742 E0.01827
G1 X81.66 Y84.106 E0.01821
G1 X81.742 Y84.461 E0.01818
G1 X81.887 Y84.796 E0.01821
G1 X82.083 Y85.104 E0.01821
G1 X82.33 Y85.372 E0.01818
G1 X82.619 Y85.596 E0.01824
G1 X82.941 Y85.767 E0.01819
G1 X83.289 Y85.88 E0.01825
G1 X83.649 Y85.934 E0.01816
G1 X84.014 Y85.928 E0.01821
G1 X84.374 Y85.857 E0.01831
G1 X84.715 Y85.728 E0.01819
G1 X85.03 Y85.544 E0.0182
G1 X85.309 Y85.309 E0.0182
G0 F3600 X86.044 Y83.215
;TYPE:SKIN
G1 F1800 X126.859 Y124.031 E2.87975
G1 X126.929 Y124.101
G0 F3600 X126.195 Y123.933
G1 F1800 X86.11 Y83.847 E2.82825
G1 X86.04 Y83.777
G0 F3600 X86.044 Y84.347
G1 F1800 X125.693 Y123.996 E2.79745
G1 X125.763 Y124.066
G0 F3600 X125.272 Y124.141
G1 F1800 X85.898 Y84.767 E2.77805
G1 X85.828 Y84.697
G0 F3600 X85.694 Y85.128
G1 F1800 X124.911 Y124.345 E2.76697
G1 X124.981 Y124.415
G0 F3600 X124.602 Y124.602
G1 F1800 X85.436 Y85.436 E2.76337
G1 X85.366 Y85.366
G0 F3600 X85.129 Y85.694
G1 F1800 X124.344 Y124.909 E2.76683
G1 X124.414 Y124.979
G0 F3600 X124.138 Y125.269
G1 F1800 X84.767 Y85.899 E2.7778
G1 X84.697 Y85.829
G0 F3600 X84.347 Y86.044
G1 F1800 X123.993 Y125.69 E2.79724
G1 X124.063 Y125.76
G0 F3600 X123.938 Y126.201
G1 F1800 X83.848 Y86.11 E2.8286
G1 X83.778 Y86.04
G0 F3600 X83.216 Y86.044
G1 F1800 X124.024 Y126.852 E2.87922
G1 X124.094 Y126.922
G0 F3600 X125.573 Y128.402
G0 X125.833 Y128.662
G1 F1800 X126.429 Y128.692 E0.03282
G1 X126.91 Y128.607 E0.02674
G1 X127.318 Y128.449 E0.02379
G1 X127.672 Y128.238 E0.02246
G1 X127.977 Y127.977 E0.02203
G1 X128.237 Y127.671 E0.02214
G1 X128.448 Y127.317 E0.02272
G1 X128.605 Y126.908 E0.0241
G1 X128.694 Y126.432 E0.02676
G1 X128.658 Y125.829 E0.033
G0 F3600 X128.805 Y125.411
G1 F1800 X84.588 Y81.194 E3.11975
G1 X84.518 Y81.124
G0 F3600 X84.133 Y81.304
G1 F1800 X83.54 Y81.278 E0.02865
G1 X83.069 Y81.372 E0.02342
G1 X82.662 Y81.531 E0.02125
G1 X82.309 Y81.743 E0.02008
G1 X82.003 Y82.003 E0.01963
G1 X81.743 Y82.309 E0.01968
G1 X81.531 Y82.663 E0.02017
G1 X81.372 Y83.069 E0.02126
G1 X81.278 Y83.541 E0.02347
G1 X81.305 Y84.133 E0.0286
G0 F3600 X81.193 Y84.587
G1 F1800 X125.411 Y128.805 E3.11982
G1 X125.481 Y128.875
G0 F3600 X84.288 Y80.626
G0 X84.303 Y80.528
;TIME_ELAPSED:52.652122
;LAYER:1
M140 S60
M106 S255
G0 F5400 X84.303 Y80.528 Z0.4
;TYPE:WALL-OUTER
G1 F1800 X84.804 Y80.648 E0.00857
G1 X85.286 Y80.847 E0.00867
G1 X85.725 Y81.116 E0.00856
G1 X86.132 Y81.464 E0.00891
G1 X128.536 Y123.868 E0.99728
G1 X128.884 Y124.275 E0.00891
G1 X129.153 Y124.714 E0.00856
G1 X129.352 Y125.196 E0.00867
G1 X129.472 Y125.697 E0.00857
G1 X129.513 Y126.213 E0.00861
G1 X129.472 Y126.73 E0.00862
G1 X129.353 Y127.228 E0.00851
G1 X129.152 Y127.714 E0.00875
G1 X128.884 Y128.151 E0.00853
G1 X128.546 Y128.546 E0.00865
G1 X128.151 Y128.884 E0.00865
G1 X127.714 Y129.152 E0.00853
G1 X127.228 Y129.353 E0.00875
G1 X126.73 Y129.472 E0.00851
G1 X126.213 Y129.513 E0.00862
G1 X125.697 Y129.472 E0.00861
G1 X125.196 Y129.352 E0.00857
G1 X124.714 Y129.153 E0.00867
G1 X124.275 Y128.884 E0.00856
G1 X123.868 Y128.536 E0.00891
G1 X81.464 Y86.132 E0.99728
G1 X81.116 Y85.725 E0.00891
G1 X80.847 Y85.286 E0.00856
G1 X80.648 Y84.804 E0.00867
G1 X80.528 Y84.303 E0.00857
G1 X80.487 Y83.787 E0.00861
G1 X80.528 Y83.27 E0.00862
G1 X80.647 Y82.772 E0.00851
G1 X80.848 Y82.286 E0.00875
G1 X81.116 Y81.849 E0.00853
G1 X81.455 Y81.453 E0.00867
G1 X81.849 Y81.116 E0.00862
G1 X82.286 Y80.848 E0.00853
G1 X82.772 Y80.647 E0.00875
G1 X83.27 Y80.528 E0.00851
G1 X83.787 Y80.487 E0.00862
G1 X84.303 Y80.528 E0.00861
G0 F5400 X84.497 Y80.574
G0 X84.473 Y80.671
G0 X83.435 Y81.97
G0 X83.454 Y82.068
G1 F1800 X83.169 Y82.149 E0.00493
G1 X82.9 Y82.277 E0.00495
G1 X82.658 Y82.449 E0.00494
G1 X82.449 Y82.658 E0.00492
G1 X82.277 Y82.9 E0.00494
G1 X82.149 Y83.169 E0.00495
G1 X82.068 Y83.454 E0.00493
G1 X82.036 Y83.75 E0.00495
G1 X82.056 Y84.046 E0.00493
G1 X82.124 Y84.335 E0.00494
G1 X82.241 Y84.608 E0.00494
G1 X82.401 Y84.858 E0.00494
G1 X82.602 Y85.076 E0.00493
G1 X82.837 Y85.258 E0.00494
G1 X83.099 Y85.397 E0.00493
G1 X83.381 Y85.49 E0.00494
G1 X83.675 Y85.534 E0.00494
G1 X83.972 Y85.528 E0.00494
G1 X84.264 Y85.471 E0.00495
G1 X84.542 Y85.366 E0.00494
G1 X84.798 Y85.216 E0.00493
G1 X85.025 Y85.025 E0.00493
G1 X85.216 Y84.798 E0.00493
G1 X85.366 Y84.542 E0.00493
G1 X85.471 Y84.264 E0.00494
G1 X85.528 Y83.972 E0.00495
G1 X85.534 Y83.675 E0.00494
G1 X85.49 Y83.381 E0.00494
G1 X85.397 Y83.099 E0.00494
