;FLAVOR:RepRap
;TIME:716
;Filament used: 0.328705m
;Layer height: 0.1
;Generated with Cura_SteamEngine 3.0.3
T0
M190 S60
M104 S200
M109 S200
M82 ; absolute extrusion mode
G21 ;metric values
G90 ;absolute positioning
M82 ;set extruder to absolute mode
M107 ;start with the fan off
G28 X0 Y0 ;move X/Y to min endstops
G28 Z0 ;move Z to min endstops
G1 Z15.0 F9000 ;move the platform down 15mm
G92 E0 ;zero the extruded length
G1 F200 E3 ;extrude 3mm of feed stock
G92 E0 ;zero the extruded length again
G1 F9000
M117 Printing...
G5
M83 ; relative extrusion mode
;LAYER_COUNT:68
;LAYER:0
M107
G0 F3600 X99.657 Y90.503 Z0.3
;TYPE:SKIRT
G1 F1800 X100.101 Y90.11 E0.02958
G1 X100.461 Y89.859 E0.02189
G1 X101.481 Y89.223 E0.05997
G1 X102.004 Y88.944 E0.02957
G1 X102.713 Y88.696 E0.03747
G1 X103.467 Y88.502 E0.03884
G1 X104.05 Y88.393 E0.02959
G1 X104.495 Y88.364 E0.02225
G1 X105.277 Y88.352 E0.03902
G1 X105.87 Y88.382 E0.02962
G1 X106.343 Y88.466 E0.02397
G1 X107.129 Y88.649 E0.04026
G1 X107.696 Y88.822 E0.02958
G1 X108.12 Y89.009 E0.02312
G1 X108.789 Y89.348 E0.03742
G1 X109.298 Y89.651 E0.02955
G1 X109.847 Y90.099 E0.03535
G1 X110.694 Y90.912 E0.05857
G1 X111.093 Y91.35 E0.02956
G1 X111.51 Y91.979 E0.03765
G1 X111.919 Y92.729 E0.04262
G1 X112.052 Y92.994 E0.01479
G1 X114.258 Y97.78 E0.26292
G1 X114.469 Y98.334 E0.02958
G1 X114.604 Y98.912 E0.02961
G1 X114.662 Y99.619 E0.03539
G1 X114.67 Y110.276 E0.53168
G1 X114.63 Y110.867 E0.02955
G1 X114.512 Y111.448 E0.02958
G1 X114.316 Y112.008 E0.0296
G1 X113.892 Y112.777 E0.04381
G1 X110.479 Y117.727 E0.29997
G1 X110.111 Y118.191 E0.02955
G1 X109.683 Y118.602 E0.0296
G1 X109.204 Y118.951 E0.02957
G1 X108.682 Y119.233 E0.0296
G1 X108.127 Y119.442 E0.02959
G1 X107.549 Y119.574 E0.02958
G1 X106.876 Y119.629 E0.03369
G1 X103.175 Y119.645 E0.18465
G1 X102.583 Y119.608 E0.02959
G1 X102.002 Y119.491 E0.02957
G1 X101.441 Y119.297 E0.02961
G1 X100.912 Y119.03 E0.02956
G1 X100.424 Y118.694 E0.02956
G1 X99.985 Y118.295 E0.0296
G1 X99.534 Y117.743 E0.03556
G1 X96.107 Y112.773 E0.30119
G1 X95.804 Y112.263 E0.0296
G1 X95.572 Y111.717 E0.0296
G1 X95.416 Y111.145 E0.02958
G1 X95.329 Y110.275 E0.04362
G1 X95.329 Y99.638 E0.53068
G1 X95.369 Y99.046 E0.0296
G1 X95.488 Y98.466 E0.02954
G1 X95.732 Y97.799 E0.03543
G1 X98.073 Y92.712 E0.27938
G1 X98.357 Y92.191 E0.0296
G1 X98.551 Y91.91 E0.01704
G1 X99.27 Y90.952 E0.05976
G1 X99.657 Y90.503 E0.02957
G0 F3600 X99.96 Y90.765
G1 F1800 X100.387 Y90.394 E0.02822
G1 X100.673 Y90.199 E0.01727
G1 X101.693 Y89.563 E0.05997
G1 X102.192 Y89.298 E0.02819
G1 X102.812 Y89.083 E0.03274
G1 X103.566 Y88.889 E0.03884
G1 X104.122 Y88.787 E0.0282
G1 X104.502 Y88.763 E0.019
G1 X105.284 Y88.751 E0.03902
G1 X105.848 Y88.783 E0.02818
G1 X106.252 Y88.855 E0.02047
G1 X107.038 Y89.038 E0.04026
G1 X107.578 Y89.205 E0.0282
G1 X107.939 Y89.366 E0.01972
G1 X108.608 Y89.705 E0.03742
G1 X109.093 Y89.995 E0.02819
G1 X109.57 Y90.387 E0.0308
G1 X110.417 Y91.2 E0.05857
G1 X110.796 Y91.62 E0.02822
G1 X111.159 Y92.171 E0.03292
G1 X111.568 Y92.921 E0.04262
G1 X111.689 Y93.162 E0.01345
G1 X113.895 Y97.948 E0.26292
G1 X114.094 Y98.476 E0.02815
G1 X114.218 Y99.028 E0.02823
G1 X114.262 Y99.619 E0.02957
G1 X114.27 Y110.276 E0.53168
G1 X114.23 Y110.84 E0.02821
G1 X114.112 Y111.393 E0.02821
G1 X113.916 Y111.923 E0.02819
G1 X113.563 Y112.55 E0.0359
G1 X110.15 Y117.5 E0.29997
G1 X109.797 Y117.941 E0.02818
G1 X109.385 Y118.329 E0.02823
G1 X108.923 Y118.654 E0.02818
G1 X108.42 Y118.911 E0.02818
G1 X107.885 Y119.095 E0.02823
G1 X107.33 Y119.201 E0.02819
G1 X106.874 Y119.229 E0.02279
G1 X103.173 Y119.245 E0.18465
G1 X102.609 Y119.207 E0.0282
G1 X102.056 Y119.091 E0.02819
G1 X101.525 Y118.897 E0.0282
G1 X101.026 Y118.631 E0.02821
G1 X100.57 Y118.297 E0.0282
G1 X100.166 Y117.902 E0.02819
G1 X99.863 Y117.516 E0.02448
G1 X96.436 Y112.546 E0.30119
G1 X96.149 Y112.059 E0.0282
G1 X95.933 Y111.536 E0.02823
G1 X95.793 Y110.988 E0.02822
G1 X95.729 Y110.275 E0.03571
G1 X95.729 Y99.638 E0.53068
G1 X95.769 Y99.074 E0.02821
G1 X95.888 Y98.521 E0.02822
G1 X96.095 Y97.966 E0.02955
G1 X98.436 Y92.879 E0.27938
G1 X98.708 Y92.383 E0.02822
G1 X98.871 Y92.15 E0.01419
G1 X99.59 Y91.192 E0.05976
G1 X99.96 Y90.765 E0.02819
G0 F3600 X100.263 Y91.028
G1 F1800 X100.884 Y90.538 E0.03947
G1 X101.904 Y89.902 E0.05997
G1 X102.379 Y89.653 E0.02676
G1 X102.912 Y89.471 E0.0281
G1 X103.666 Y89.277 E0.03884
G1 X104.194 Y89.182 E0.02677
G1 X104.508 Y89.163 E0.01569
G1 X105.29 Y89.151 E0.03902
G1 X105.825 Y89.183 E0.02674
G1 X106.161 Y89.245 E0.01705
G1 X106.947 Y89.428 E0.04026
G1 X107.459 Y89.588 E0.02676
G1 X107.758 Y89.723 E0.01637
G1 X108.427 Y90.062 E0.03742
G1 X108.886 Y90.339 E0.02675
G1 X109.293 Y90.676 E0.02636
G1 X110.14 Y91.489 E0.05857
G1 X110.498 Y91.888 E0.02674
G1 X110.808 Y92.362 E0.02826
G1 X111.217 Y93.112 E0.04262
G1 X111.325 Y93.329 E0.01209
G1 X113.531 Y98.115 E0.26292
G1 X113.719 Y98.617 E0.02674
G1 X113.83 Y99.142 E0.02677
G1 X113.862 Y99.619 E0.02385
G1 X113.87 Y110.276 E0.53168
G1 X113.83 Y110.811 E0.02677
G1 X113.712 Y111.334 E0.02675
G1 X113.517 Y111.834 E0.02678
G1 X113.234 Y112.323 E0.02819
G1 X109.821 Y117.273 E0.29997
G1 X109.484 Y117.69 E0.02675
G1 X109.09 Y118.053 E0.02673
G1 X108.645 Y118.353 E0.02678
G1 X108.161 Y118.584 E0.02676
G1 X107.648 Y118.741 E0.02677
G1 X106.873 Y118.829 E0.03891
G1 X103.172 Y118.845 E0.18465
G1 X102.637 Y118.807 E0.02676
G1 X102.113 Y118.691 E0.02678
G1 X101.613 Y118.498 E0.02674
G1 X101.147 Y118.232 E0.02677
G1 X100.725 Y117.901 E0.02676
G1 X100.358 Y117.51 E0.02675
G1 X100.192 Y117.289 E0.01379
G1 X96.765 Y112.319 E0.30119
G1 X96.495 Y111.856 E0.02674
G1 X96.296 Y111.358 E0.02676
G1 X96.173 Y110.836 E0.02676
G1 X96.129 Y110.275 E0.02807
G1 X96.129 Y99.638 E0.53068
G1 X96.169 Y99.103 E0.02677
G1 X96.288 Y98.58 E0.02676
G1 X96.459 Y98.133 E0.02388
G1 X98.8 Y93.046 E0.27938
G1 X99.191 Y92.39 E0.0381
G1 X99.91 Y91.432 E0.05976
G1 X100.263 Y91.028 E0.02677
G0 F3600 X100.564 Y91.293
G1 F1800 X101.096 Y90.878 E0.03366
G1 X102.116 Y90.242 E0.05997
G1 X102.565 Y90.009 E0.02524
G1 X103.012 Y89.858 E0.02354
G1 X103.766 Y89.664 E0.03884
G1 X104.514 Y89.563 E0.03766
G1 X105.296 Y89.551 E0.03902
G1 X105.8 Y89.584 E0.0252
G1 X106.071 Y89.634 E0.01375
G1 X106.857 Y89.817 E0.04026
G1 X107.338 Y89.971 E0.0252
G1 X107.577 Y90.08 E0.01311
G1 X108.246 Y90.419 E0.03742
G1 X108.678 Y90.682 E0.02523
G1 X109.016 Y90.964 E0.02196
G1 X109.863 Y91.777 E0.05857
G1 X110.199 Y92.155 E0.02523
G1 X110.456 Y92.554 E0.02368
G1 X110.865 Y93.304 E0.04262
G1 X110.962 Y93.496 E0.01073
G1 X113.168 Y98.282 E0.26292
G1 X113.343 Y98.757 E0.02525
G1 X113.441 Y99.253 E0.02522
G1 X113.462 Y99.62 E0.01834
G1 X113.47 Y110.277 E0.53168
G1 X113.43 Y110.781 E0.02522
G1 X113.312 Y111.272 E0.02519
G1 X113.118 Y111.739 E0.02523
G1 X112.904 Y112.095 E0.02072
G1 X109.491 Y117.045 E0.29997
G1 X109.173 Y117.438 E0.02522
G1 X108.796 Y117.775 E0.02523
G1 X108.371 Y118.048 E0.0252
G1 X107.908 Y118.252 E0.02524
G1 X107.418 Y118.379 E0.02525
G1 X106.871 Y118.429 E0.0274
G1 X103.17 Y118.445 E0.18465
G1 X102.666 Y118.407 E0.02522
G1 X102.174 Y118.291 E0.02522
G1 X101.706 Y118.098 E0.02526
G1 X101.275 Y117.834 E0.02522
G1 X100.891 Y117.505 E0.02523
G1 X100.522 Y117.062 E0.02876
G1 X97.095 Y112.092 E0.30119
G1 X96.841 Y111.654 E0.02526
G1 X96.66 Y111.182 E0.02522
G1 X96.556 Y110.687 E0.02523
G1 X96.529 Y110.275 E0.0206
G1 X96.529 Y99.638 E0.53068
G1 X96.569 Y99.134 E0.02522
G1 X96.688 Y98.643 E0.02521
G1 X96.822 Y98.3 E0.01837
G1 X99.163 Y93.213 E0.27938
G1 X99.511 Y92.63 E0.03387
G1 X100.23 Y91.672 E0.05976
G1 X100.564 Y91.293 E0.0252
G1 F3600 E-5
G0 F3600 X102.342 Y93.088
G0 X102.966 Y93.712
G0 X104.621 Y94.241
G0 X104.642 Y94.338
;TYPE:WALL-OUTER
G1 F3600 E5
G1 F1800 X104.366 Y94.422 E0.01439
G1 X104.109 Y94.552 E0.01437
G1 X103.876 Y94.723 E0.01442
G1 X103.677 Y94.932 E0.0144
G1 X103.515 Y95.17 E0.01436
G1 X103.397 Y95.433 E0.01438
G1 X103.324 Y95.712 E0.01439
G1 X103.299 Y96 E0.01442
G1 X103.324 Y96.288 E0.01442
G1 X103.397 Y96.567 E0.01439
G1 X103.515 Y96.83 E0.01438
G1 X103.677 Y97.068 E0.01436
G1 X103.876 Y97.277 E0.0144
G1 X104.109 Y97.448 E0.01442
G1 X104.366 Y97.578 E0.01437
G1 X104.642 Y97.662 E0.01439
G1 X104.927 Y97.7 E0.01434
G1 X105.217 Y97.687 E0.01448
G1 X105.498 Y97.626 E0.01435
G1 X105.765 Y97.518 E0.01437
G1 X106.011 Y97.368 E0.01437
G1 X106.228 Y97.177 E0.01442
G1 X106.409 Y96.952 E0.01441
G1 X106.55 Y96.701 E0.01436
G1 X106.646 Y96.429 E0.01439
G1 X106.695 Y96.144 E0.01443
G1 X106.695 Y95.856 E0.01437
G1 X106.646 Y95.571 E0.01443
G1 X106.55 Y95.299 E0.01439
G1 X106.409 Y95.048 E0.01436
G1 X106.228 Y94.823 E0.01441
G1 X106.011 Y94.632 E0.01442
G1 X105.765 Y94.482 E0.01437
G1 X105.498 Y94.374 E0.01437
G1 X105.217 Y94.313 E0.01435
G1 X104.927 Y94.3 E0.01448
G1 X104.642 Y94.338 E0.01434
G0 F3600 X104.451 Y94.396
G0 X104.423 Y94.301
G0 X105.222 Y94.274
G0 X105.782 Y94.447
G0 X106.256 Y94.796
G0 X106.586 Y95.283
G0 X108.728 Y101.272
G0 X108.77 Y108.77
G0 X108.7 Y108.7
G1 F1800 X108.7 Y101.3 E0.36919
G1 X101.3 Y101.3 E0.36919
G1 X101.3 Y108.7 E0.36919
G1 X104.3 Y108.7 E0.14967
G1 X104.3 Y115.077 E0.31815
G1 X103.478 Y115.094 E0.04102
G1 X103.32 Y115.092 E0.00788
G1 X103.23 Y115.068 E0.00465
G1 X103.199 Y115.044 E0.00196
G1 X103.109 Y114.918 E0.00773
G1 X103.021 Y114.737 E0.01004
G1 X102.942 Y114.367 E0.01888
G1 X102.92 Y113.988 E0.01894
G1 X102.92 Y111.993 E0.09953
G1 X102.901 Y111.727 E0.0133
G1 X102.842 Y111.46 E0.01364
G1 X102.748 Y111.203 E0.01365
G1 X102.616 Y110.962 E0.01371
G1 X102.451 Y110.743 E0.01368
G1 X102.257 Y110.549 E0.01369
G1 X102.038 Y110.384 E0.01368
G1 X101.797 Y110.252 E0.01371
G1 X101.54 Y110.158 E0.01365
G1 X101.273 Y110.099 E0.01364
G1 X101.007 Y110.08 E0.0133
G1 X99.92 Y110.08 E0.05423
G1 X99.919 Y99.751 E0.51532
G1 X100.07 Y99.664 E0.00869
G1 X100.4 Y99.435 E0.02004
G1 X100.706 Y99.171 E0.02016
G1 X100.983 Y98.878 E0.02012
G1 X101.23 Y98.556 E0.02025
G1 X101.441 Y98.212 E0.02013
G1 X101.616 Y97.848 E0.02015
G1 X101.751 Y97.469 E0.02007
G1 X101.837 Y97.14 E0.01697
G1 X101.899 Y96.741 E0.02015
G1 X101.92 Y96.343 E0.01988
G1 X101.92 Y96.012 E0.01651
G1 X101.943 Y95.627 E0.01924
G1 X102.01 Y95.261 E0.01856
G1 X102.122 Y94.902 E0.01876
G1 X102.272 Y94.568 E0.01827
G1 X102.463 Y94.253 E0.01838
G1 X102.698 Y93.953 E0.01901
G1 X102.953 Y93.698 E0.01799
G1 X103.253 Y93.463 E0.01901
G1 X103.568 Y93.272 E0.01838
G1 X103.902 Y93.122 E0.01827
G1 X104.261 Y93.01 E0.01876
G1 X104.627 Y92.943 E0.01856
G1 X105 Y92.921 E0.01864
G1 X105.373 Y92.943 E0.01864
G1 X105.739 Y93.01 E0.01856
G1 X106.098 Y93.122 E0.01876
G1 X106.432 Y93.272 E0.01827
G1 X106.747 Y93.463 E0.01838
G1 X107.047 Y93.698 E0.01901
G1 X107.302 Y93.953 E0.01799
G1 X107.537 Y94.253 E0.01901
G1 X107.728 Y94.568 E0.01838
G1 X107.878 Y94.902 E0.01827
G1 X107.99 Y95.261 E0.01876
G1 X108.057 Y95.627 E0.01856
G1 X108.08 Y96.012 E0.01924
G1 X108.08 Y96.343 E0.01651
G1 X108.101 Y96.741 E0.01988
G1 X108.163 Y97.14 E0.02015
G1 X108.266 Y97.531 E0.02017
G1 X108.409 Y97.909 E0.02016
G1 X108.59 Y98.27 E0.02015
G1 X108.807 Y98.611 E0.02017
G1 X109.059 Y98.928 E0.0202
G1 X109.341 Y99.217 E0.02015
G1 X109.652 Y99.476 E0.02019
G1 X109.985 Y99.699 E0.01999
G1 X110.079 Y99.753 E0.00541
G1 X110.08 Y109.88 E0.50524
G1 X110.08 Y110.08 E0.00998
G1 X109.88 Y110.08 E0.00646
G1 X108.993 Y110.08 E0.04425
G1 X108.727 Y110.099 E0.0133
G1 X108.46 Y110.158 E0.01364
G1 X108.203 Y110.252 E0.01365
G1 X107.962 Y110.384 E0.01371
G1 X107.743 Y110.549 E0.01368
G1 X107.549 Y110.743 E0.01369
G1 X107.384 Y110.962 E0.01368
G1 X107.252 Y111.203 E0.01371
G1 X107.158 Y111.46 E0.01365
G1 X107.099 Y111.727 E0.01364
G1 X107.08 Y111.993 E0.0133
G1 X107.08 Y113.989 E0.09958
G1 X107.059 Y114.372 E0.01914
G1 X106.981 Y114.734 E0.01847
G1 X106.891 Y114.919 E0.01026
G1 X106.802 Y115.041 E0.00753
G1 X106.752 Y115.078 E0.0031
G1 X106.68 Y115.093 E0.00367
G1 X105.7 Y115.077 E0.0489
G1 X105.7 Y108.7 E0.31815
G1 X108.7 Y108.7 E0.14967
G0 F3600 X108.7 Y108.5
G0 X109.1 Y109.1
;TYPE:WALL-INNER
G1 F1800 X109.1 Y100.9 E0.4091
G1 X100.9 Y100.9 E0.4091
G1 X100.9 Y109.1 E0.4091
G1 X103.9 Y109.1 E0.14967
G1 X103.9 Y114.685 E0.27864
G1 X103.444 Y114.693 E0.02275
G1 X103.403 Y114.609 E0.00466
G1 X103.34 Y114.313 E0.0151
G1 X103.32 Y113.964 E0.01744
G1 X103.32 Y111.979 E0.09903
G1 X103.297 Y111.669 E0.01551
G1 X103.226 Y111.348 E0.0164
G1 X103.114 Y111.037 E0.01649
G1 X102.952 Y110.744 E0.0167
G1 X102.753 Y110.48 E0.01649
G1 X102.52 Y110.247 E0.01644
G1 X102.256 Y110.048 E0.01649
G1 X101.963 Y109.886 E0.0167
G1 X101.652 Y109.774 E0.01649
G1 X101.331 Y109.703 E0.0164
G1 X101.021 Y109.68 E0.01551
G1 X100.32 Y109.68 E0.03497
G1 X100.319 Y99.978 E0.48403
G1 X100.646 Y99.751 E0.01986
G1 X100.982 Y99.461 E0.02214
G1 X101.287 Y99.138 E0.02216
G1 X101.56 Y98.783 E0.02234
G1 X101.793 Y98.404 E0.0222
G1 X101.986 Y98.002 E0.02225
G1 X102.133 Y97.587 E0.02196
G1 X102.229 Y97.222 E0.01883
G1 X102.297 Y96.783 E0.02216
G1 X102.32 Y96.353 E0.02148
G1 X102.32 Y96.036 E0.01582
G1 X102.341 Y95.673 E0.01814
G1 X102.4 Y95.354 E0.01618
G1 X102.499 Y95.037 E0.01657
G1 X102.622 Y94.762 E0.01503
G1 X102.799 Y94.471 E0.01699
G1 X102.998 Y94.217 E0.0161
G1 X103.217 Y93.998 E0.01545
G1 X103.471 Y93.799 E0.0161
G1 X103.762 Y93.622 E0.01699
G1 X104.037 Y93.499 E0.01503
G1 X104.354 Y93.4 E0.01657
G1 X104.674 Y93.341 E0.01623
G1 X105 Y93.323 E0.01629
G1 X105.326 Y93.341 E0.01629
G1 X105.646 Y93.4 E0.01623
G1 X105.963 Y93.499 E0.01657
G1 X106.238 Y93.622 E0.01503
G1 X106.529 Y93.799 E0.01699
G1 X106.783 Y93.998 E0.0161
G1 X107.002 Y94.217 E0.01545
G1 X107.201 Y94.471 E0.0161
G1 X107.378 Y94.762 E0.01699
G1 X107.501 Y95.037 E0.01503
G1 X107.6 Y95.354 E0.01657
G1 X107.659 Y95.673 E0.01618
G1 X107.68 Y96.036 E0.01814
G1 X107.68 Y96.353 E0.01582
G1 X107.703 Y96.783 E0.02148
G1 X107.771 Y97.222 E0.02216
G1 X107.884 Y97.653 E0.02223
G1 X108.043 Y98.069 E0.02222
G1 X108.242 Y98.468 E0.02224
G1 X108.481 Y98.843 E0.02219
G1 X108.759 Y99.192 E0.02226
G1 X109.069 Y99.511 E0.02219
G1 X109.412 Y99.796 E0.02225
G1 X109.679 Y99.975 E0.01604
G1 X109.68 Y109.68 E0.48418
G1 X108.979 Y109.68 E0.03497
G1 X108.669 Y109.703 E0.01551
G1 X108.348 Y109.774 E0.0164
G1 X108.037 Y109.886 E0.01649
G1 X107.744 Y110.048 E0.0167
G1 X107.48 Y110.247 E0.01649
G1 X107.247 Y110.48 E0.01644
G1 X107.048 Y110.744 E0.01649
G1 X106.886 Y111.037 E0.0167
G1 X106.774 Y111.348 E0.01649
G1 X106.703 Y111.669 E0.0164
G1 X106.68 Y111.979 E0.01551
G1 X106.68 Y113.967 E0.09918
G1 X106.661 Y114.316 E0.01744
G1 X106.599 Y114.604 E0.0147
G1 X106.557 Y114.691 E0.00482
G1 X106.1 Y114.683 E0.0228
G1 X106.1 Y109.1 E0.27854
G1 X109.1 Y109.1 E0.14967
G0 F3600 X108.728 Y101.272
G0 X105.616 Y98.01
G1 F1800 X105.945 Y97.876 E0.01772
G1 X106.249 Y97.692 E0.01773
G1 X106.518 Y97.455 E0.01789
G1 X106.741 Y97.176 E0.01782
G1 X106.916 Y96.867 E0.01772
G1 X107.034 Y96.531 E0.01777
G1 X107.095 Y96.178 E0.01787
G1 X107.095 Y95.822 E0.01776
G1 X107.034 Y95.469 E0.01787
G1 X106.916 Y95.133 E0.01777
G1 X106.741 Y94.824 E0.01772
G1 X106.518 Y94.545 E0.01782
G1 X106.249 Y94.308 E0.01789
G1 X105.945 Y94.124 E0.01773
G1 X105.616 Y93.99 E0.01772
G1 X105.269 Y93.915 E0.01771
G1 X104.909 Y93.898 E0.01798
G1 X104.556 Y93.946 E0.01777
G1 X104.216 Y94.05 E0.01774
G1 X103.899 Y94.21 E0.01772
G1 X103.61 Y94.421 E0.01785
G1 X103.365 Y94.68 E0.01779
G1 X103.165 Y94.974 E0.01774
G1 X103.019 Y95.299 E0.01778
G1 X102.928 Y95.644 E0.0178
G1 X102.897 Y96 E0.01783
G1 X102.928 Y96.356 E0.01783
G1 X103.019 Y96.701 E0.0178
G1 X103.165 Y97.026 E0.01778
G1 X103.365 Y97.32 E0.01774
G1 X103.61 Y97.579 E0.01779
G1 X103.899 Y97.79 E0.01785
G1 X104.216 Y97.95 E0.01772
G1 X104.556 Y98.054 E0.01774
G1 X104.909 Y98.102 E0.01777
G1 X105.269 Y98.085 E0.01798
G1 X105.616 Y98.01 E0.01771
G0 F3600 X106.442 Y96.974
G0 X106.684 Y96.439
G0 X107.102 Y94.657
;TYPE:SKIN
G1 F1800 X106.342 Y93.897 E0.05362
G1 X106.272 Y93.827
G0 F3600 X105.568 Y93.689
G1 F1800 X104.932 Y93.618 E0.0178
G1 X104.429 Y93.681 E0.01353
G1 X104.009 Y93.827 E0.01198
G1 X103.647 Y94.03 E0.01139
G1 X103.337 Y94.286 E0.01108
G1 X103.074 Y94.589 E0.01111
G1 X102.859 Y94.94 E0.01155
