;FLAVOR:RepRap
;TIME:4105
;Filament used: 2.04057m
;Layer height: 0.1
;Generated with Cura_SteamEngine 3.0.3
T0
M190 S60
M104 S200
M109 S200
M82 ; absolute extrusion mode
G21 ;metric values
G90 ;absolute positioning
M82 ;set extruder to absolute mode
M107 ;start with the fan off
G28 X0 Y0 ;move X/Y to min endstops
G28 Z0 ;move Z to min endstops
G1 Z15.0 F9000 ;move the platform down 15mm
G92 E0 ;zero the extruded length
G1 F200 E3 ;extrude 3mm of feed stock
G92 E0 ;zero the extruded length again
G1 F9000
M117 Printing...
G5
M83 ; relative extrusion mode
;LAYER_COUNT:48
;LAYER:0
M107
G0 F3600 X50.426 Y51.176 Z0.3
;TYPE:SKIRT
G1 F1800 X51.187 Y50.417 E0.05362
G1 X51.77 Y49.957 E0.03705
G1 X52.243 Y49.666 E0.02771
G1 X52.929 Y49.349 E0.0377
G1 X53.961 Y49.013 E0.05415
G1 X54.453 Y48.895 E0.02524
G1 X54.804 Y48.859 E0.0176
G1 X55.536 Y48.825 E0.03656
G1 X56.25 Y48.872 E0.0357
G1 X57.146 Y49.033 E0.04542
G1 X57.635 Y49.162 E0.02523
G1 X58.033 Y49.332 E0.02159
G1 X59.01 Y49.83 E0.05471
G1 X59.441 Y50.094 E0.02522
G1 X59.819 Y50.418 E0.02484
G1 X159.229 Y149.769 E7.01183
G1 X159.557 Y150.152 E0.02516
G1 X160.2 Y151.038 E0.05462
G1 X160.464 Y151.47 E0.02526
G1 X160.607 Y151.797 E0.01781
G1 X160.862 Y152.479 E0.03633
G1 X161.036 Y153.17 E0.03555
G1 X161.158 Y154.07 E0.04531
G1 X161.186 Y154.575 E0.02523
G1 X161.168 Y154.846 E0.01355
G1 X161.091 Y155.553 E0.03548
G1 X160.997 Y156.05 E0.02524
G1 X160.901 Y156.343 E0.01538
G1 X160.512 Y157.367 E0.05465
G1 X160.171 Y158.024 E0.03693
G1 X159.874 Y158.463 E0.02644
G1 X159.381 Y159.034 E0.03764
G1 X158.569 Y159.775 E0.05484
G1 X158.17 Y160.085 E0.02521
G1 X157.81 Y160.29 E0.02067
G1 X156.974 Y160.696 E0.04637
G1 X156.323 Y160.929 E0.0345
G1 X155.794 Y161.056 E0.02714
G1 X155.196 Y161.141 E0.03013
G1 X154.466 Y161.175 E0.03646
G1 X153.752 Y161.128 E0.0357
G1 X152.855 Y160.967 E0.04547
G1 X152.366 Y160.838 E0.02523
G1 X151.967 Y160.668 E0.02164
G1 X150.99 Y160.17 E0.05471
G1 X150.559 Y159.906 E0.02522
G1 X150.334 Y159.725 E0.01441
G1 X149.759 Y159.221 E0.03815
G1 X149.605 Y159.078 E0.01048
G1 X50.668 Y60.121 E6.98125
G1 X50.399 Y59.815 E0.02033
G1 X50.048 Y59.361 E0.02863
G1 X49.697 Y58.793 E0.03331
G1 X49.302 Y57.973 E0.04541
G1 X49.074 Y57.331 E0.03399
G1 X48.945 Y56.794 E0.02755
G1 X48.856 Y56.047 E0.03753
G1 X48.856 Y54.953 E0.05458
G1 X48.896 Y54.449 E0.02522
G1 X48.97 Y54.106 E0.01751
G1 X49.159 Y53.417 E0.03564
G1 X49.425 Y52.751 E0.03578
G1 X49.866 Y51.929 E0.04654
G1 X50.14 Y51.504 E0.02523
G1 X50.426 Y51.176 E0.02171
G1 F3600 E-5
G0 F3600 X52.336 Y52.814
G0 X52.993 Y53.377
G0 X55.247 Y53.67
G0 X55.26 Y53.769
;TYPE:WALL-OUTER
G1 F3600 E5
G1 F1800 X54.97 Y53.835 E0.01484
G1 X54.695 Y53.95 E0.01487
G1 X54.446 Y54.108 E0.01471
G1 X54.225 Y54.307 E0.01484
G1 X54.041 Y54.541 E0.01485
G1 X53.9 Y54.801 E0.01476
G1 X53.805 Y55.083 E0.01485
G1 X53.759 Y55.375 E0.01475
G1 X53.76 Y55.672 E0.01482
G1 X53.814 Y55.964 E0.01481
G1 X53.916 Y56.243 E0.01482
G1 X54.064 Y56.501 E0.01484
G1 X54.255 Y56.729 E0.01484
G1 X54.48 Y56.922 E0.01479
G1 X54.734 Y57.073 E0.01474
G1 X55.01 Y57.181 E0.01479
G1 X55.301 Y57.24 E0.01481
G1 X55.598 Y57.248 E0.01482
G1 X55.891 Y57.209 E0.01475
G1 X56.175 Y57.118 E0.01488
G1 X56.437 Y56.982 E0.01473
G1 X56.675 Y56.802 E0.01489
G1 X56.877 Y56.585 E0.01479
G1 X57.039 Y56.338 E0.01474
G1 X57.159 Y56.065 E0.01488
G1 X57.229 Y55.777 E0.01479
G1 X57.251 Y55.482 E0.01476
G1 X57.224 Y55.187 E0.01478
G1 X57.147 Y54.9 E0.01482
G1 X57.02 Y54.631 E0.01484
G1 X56.852 Y54.387 E0.01478
G1 X56.642 Y54.175 E0.01489
G1 X56.402 Y54.003 E0.01473
G1 X56.135 Y53.872 E0.01484
G1 X55.851 Y53.789 E0.01476
G1 X55.556 Y53.754 E0.01482
G1 X55.26 Y53.769 E0.01479
G0 F3600 X55.065 Y53.813
G0 X55.043 Y53.716
G0 X56.004 Y52.342
G0 X56.019 Y52.244
G1 F1800 X56.517 Y52.363 E0.02554
G1 X57.001 Y52.564 E0.02615
G1 X57.443 Y52.834 E0.02584
G1 X57.847 Y53.18 E0.02654
G1 X156.82 Y152.153 E6.98308
G1 X157.168 Y152.559 E0.02668
G1 X157.437 Y152.998 E0.02569
G1 X157.636 Y153.48 E0.02602
G1 X157.756 Y153.981 E0.0257
G1 X157.797 Y154.497 E0.02582
G1 X157.756 Y155.014 E0.02587
G1 X157.637 Y155.512 E0.02554
G1 X157.436 Y155.996 E0.02615
G1 X157.166 Y156.438 E0.02584
G1 X156.83 Y156.83 E0.02576
G1 X156.438 Y157.166 E0.02576
G1 X155.996 Y157.436 E0.02584
G1 X155.512 Y157.637 E0.02615
G1 X155.014 Y157.756 E0.02554
G1 X154.497 Y157.797 E0.02587
G1 X153.981 Y157.756 E0.02582
G1 X153.483 Y157.637 E0.02554
G1 X152.999 Y157.436 E0.02615
G1 X152.557 Y157.166 E0.02584
G1 X152.153 Y156.82 E0.02654
G1 X53.18 Y57.847 E6.98308
G1 X52.832 Y57.441 E0.02668
G1 X52.563 Y57.002 E0.02569
G1 X52.364 Y56.52 E0.02602
G1 X52.244 Y56.019 E0.0257
G1 X52.203 Y55.503 E0.02582
G1 X52.244 Y54.986 E0.02587
G1 X52.363 Y54.488 E0.02554
G1 X52.564 Y54.003 E0.02619
G1 X52.834 Y53.562 E0.0258
G1 X53.171 Y53.169 E0.02583
G1 X53.562 Y52.834 E0.02569
G1 X54.004 Y52.564 E0.02584
G1 X54.488 Y52.363 E0.02615
G1 X54.986 Y52.244 E0.02554
G1 X55.503 Y52.203 E0.02587
G1 X56.019 Y52.244 E0.02582
G0 F3600 X56.213 Y52.29
G0 X56.189 Y52.387
G0 X154.071 Y152.698
G0 X154.093 Y152.795
G1 F1800 X153.81 Y152.887 E0.01485
G1 X153.548 Y153.026 E0.0148
G1 X153.313 Y153.208 E0.01483
G1 X153.112 Y153.427 E0.01483
G1 X152.952 Y153.676 E0.01477
G1 X152.834 Y153.949 E0.01484
G1 X152.766 Y154.239 E0.01486
G1 X152.747 Y154.534 E0.01475
G1 X152.779 Y154.83 E0.01485
G1 X152.859 Y155.116 E0.01482
G1 X152.988 Y155.384 E0.01484
G1 X153.158 Y155.626 E0.01475
G1 X153.369 Y155.836 E0.01485
G1 X153.611 Y156.007 E0.01478
G1 X153.879 Y156.136 E0.01484
G1 X154.165 Y156.216 E0.01482
G1 X154.461 Y156.248 E0.01485
G1 X154.756 Y156.229 E0.01475
G1 X155.046 Y156.161 E0.01486
G1 X155.319 Y156.043 E0.01484
G1 X155.568 Y155.883 E0.01477
G1 X155.787 Y155.682 E0.01483
G1 X155.969 Y155.447 E0.01483
G1 X156.108 Y155.185 E0.0148
G1 X156.2 Y154.902 E0.01485
G1 X156.244 Y154.609 E0.01478
G1 X156.239 Y154.312 E0.01482
G1 X156.182 Y154.02 E0.01484
G1 X156.077 Y153.742 E0.01483
G1 X155.927 Y153.486 E0.0148
G1 X155.735 Y153.259 E0.01483
G1 X155.508 Y153.068 E0.0148
G1 X155.253 Y152.918 E0.01476
G1 X154.975 Y152.813 E0.01483
G1 X154.683 Y152.756 E0.01484
G1 X154.386 Y152.751 E0.01482
G1 X154.093 Y152.795 E0.01478
G0 F3600 X153.903 Y152.856
G0 X153.654 Y152.517
;TYPE:WALL-INNER
G1 F1800 X153.33 Y152.688 E0.01828
G1 X153.041 Y152.912 E0.01824
G1 X152.794 Y153.182 E0.01826
G1 X152.598 Y153.488 E0.01813
G1 X152.452 Y153.823 E0.01823
G1 X152.368 Y154.181 E0.01835
G1 X152.345 Y154.542 E0.01805
G1 X152.385 Y154.906 E0.01827
G1 X152.483 Y155.258 E0.01823
G1 X152.642 Y155.588 E0.01828
G1 X152.85 Y155.884 E0.01805
G1 X153.111 Y156.144 E0.01838
G1 X153.407 Y156.353 E0.01808
G1 X153.737 Y156.512 E0.01828
G1 X154.089 Y156.61 E0.01823
G1 X154.453 Y156.65 E0.01827
G1 X154.814 Y156.627 E0.01805
G1 X155.172 Y156.543 E0.01835
G1 X155.507 Y156.397 E0.01823
G1 X155.813 Y156.201 E0.01813
G1 X156.083 Y155.954 E0.01826
G1 X156.307 Y155.665 E0.01824
G1 X156.478 Y155.341 E0.01828
G1 X156.59 Y154.994 E0.01819
G1 X156.644 Y154.635 E0.01811
G1 X156.639 Y154.27 E0.01821
G1 X156.568 Y153.91 E0.01831
G1 X156.439 Y153.569 E0.01819
G1 X156.255 Y153.254 E0.0182
G1 X156.019 Y152.975 E0.01823
G1 X155.74 Y152.74 E0.0182
G1 X155.427 Y152.556 E0.01811
G1 X155.085 Y152.427 E0.01824
G1 X154.725 Y152.356 E0.01831
G1 X154.36 Y152.351 E0.01821
G1 X154.001 Y152.405 E0.01811
G1 X153.654 Y152.517 E0.01819
G0 F3600 X156.516 Y152.413
G1 F1800 X156.844 Y152.795 E0.02512
G1 X157.08 Y153.18 E0.02253
G1 X157.254 Y153.602 E0.02277
G1 X157.361 Y154.05 E0.02298
G1 X157.397 Y154.497 E0.02237
G1 X157.362 Y154.941 E0.02222
G1 X157.254 Y155.389 E0.02299
G1 X157.076 Y155.816 E0.02308
G1 X156.842 Y156.201 E0.02248
G1 X156.546 Y156.546 E0.02268
G1 X156.204 Y156.84 E0.0225
G1 X155.816 Y157.076 E0.02266
G1 X155.389 Y157.254 E0.02308
G1 X154.941 Y157.362 E0.02299
G1 X154.497 Y157.397 E0.02222
G1 X154.054 Y157.362 E0.02217
G1 X153.606 Y157.254 E0.02299
G1 X153.179 Y157.076 E0.02308
G1 X152.791 Y156.84 E0.02266
G1 X152.413 Y156.516 E0.02484
G1 X53.484 Y57.587 E6.97998
G1 X53.156 Y57.205 E0.02512
G1 X52.92 Y56.82 E0.02253
G1 X52.746 Y56.398 E0.02277
G1 X52.639 Y55.95 E0.02298
G1 X52.603 Y55.503 E0.02237
G1 X52.638 Y55.059 E0.02222
G1 X52.746 Y54.611 E0.02299
G1 X52.924 Y54.183 E0.02313
G1 X53.16 Y53.796 E0.02261
G1 X53.455 Y53.453 E0.02257
G1 X53.796 Y53.16 E0.02243
G1 X54.184 Y52.924 E0.02266
G1 X54.611 Y52.746 E0.02308
G1 X55.059 Y52.638 E0.02299
G1 X55.503 Y52.603 E0.02222
G1 X55.946 Y52.638 E0.02217
G1 X56.394 Y52.746 E0.02299
G1 X56.821 Y52.924 E0.02308
G1 X57.209 Y53.16 E0.02266
G1 X57.587 Y53.484 E0.02484
G1 X156.516 Y152.413 E6.97998
G0 F3600 X56.945 Y57.1
G1 F1800 X57.193 Y56.833 E0.01818
G1 X57.391 Y56.53 E0.01806
G1 X57.539 Y56.193 E0.01836
G1 X57.625 Y55.839 E0.01817
G1 X57.653 Y55.478 E0.01806
G1 X57.62 Y55.117 E0.01809
G1 X57.525 Y54.762 E0.01833
G1 X57.368 Y54.431 E0.01828
G1 X57.162 Y54.131 E0.01816
G1 X56.902 Y53.869 E0.01842
G1 X56.608 Y53.659 E0.01803
G1 X56.281 Y53.498 E0.01818
G1 X55.931 Y53.395 E0.0182
G1 X55.57 Y53.352 E0.01814
G1 X55.205 Y53.371 E0.01823
G1 X54.848 Y53.453 E0.01827
G1 X54.509 Y53.594 E0.01832
G1 X54.204 Y53.788 E0.01803
G1 X53.931 Y54.033 E0.0183
G1 X53.705 Y54.321 E0.01826
G1 X53.532 Y54.641 E0.01815
G1 X53.415 Y54.987 E0.01822
G1 X53.359 Y55.345 E0.01808
G1 X53.36 Y55.71 E0.01821
G1 X53.426 Y56.07 E0.01826
G1 X53.552 Y56.413 E0.01823
G1 X53.734 Y56.731 E0.01828
G1 X53.969 Y57.011 E0.01824
G1 X54.246 Y57.248 E0.01819
G1 X54.558 Y57.433 E0.0181
G1 X54.896 Y57.567 E0.01814
G1 X55.256 Y57.638 E0.01831
G1 X55.619 Y57.648 E0.01812
G1 X55.979 Y57.601 E0.01811
G1 X56.329 Y57.488 E0.01835
G1 X56.651 Y57.322 E0.01807
G1 X56.945 Y57.1 E0.01838
G0 F3600 X57.754 Y54.925
;TYPE:SKIN
G1 F1800 X155.069 Y152.24 E6.8661
G1 X155.139 Y152.31
G0 F3600 X154.434 Y152.171
G1 F1800 X57.826 Y55.563 E6.81622
G1 X57.756 Y55.493
G0 F3600 X57.755 Y56.058
G1 F1800 X153.934 Y152.237 E6.78595
G1 X154.004 Y152.307
G0 F3600 X153.516 Y152.385
G1 F1800 X57.608 Y56.477 E6.76683
G1 X57.538 Y56.407
G0 F3600 X57.403 Y56.837
G1 F1800 X153.157 Y152.591 E6.75596
G1 X153.227 Y152.661
G0 F3600 X152.851 Y152.851
G1 F1800 X57.146 Y57.146 E6.7525
G1 X57.076 Y57.076
G0 F3600 X56.839 Y57.405
G1 F1800 X152.594 Y153.16 E6.75603
G1 X152.664 Y153.23
G0 F3600 X152.387 Y153.519
G1 F1800 X56.48 Y57.611 E6.76679
G1 X56.41 Y57.541
G0 F3600 X56.065 Y57.762
G1 F1800 X152.24 Y153.937 E6.78567
G1 X152.31 Y154.007
G0 F3600 X152.172 Y154.434
G1 F1800 X55.563 Y57.825 E6.81629
G1 X55.493 Y57.755
G0 F3600 X54.928 Y57.756
G1 F1800 X152.244 Y155.072 E6.86617
G1 X152.314 Y155.142
G0 F3600 X153.922 Y156.75
G0 X154.15 Y156.978
G1 F1800 X154.739 Y157.002 E0.02867
G1 X155.212 Y156.909 E0.02357
G1 X155.619 Y156.751 E0.02107
G1 X155.974 Y156.539 E0.02001
G1 X156.28 Y156.28 E0.01945
G1 X156.54 Y155.974 E0.01948
G1 X156.752 Y155.621 E0.01998
G1 X156.911 Y155.214 E0.02115
G1 X157.002 Y154.739 E0.02365
G1 X156.979 Y154.151 E0.0287
G0 F3600 X157.09 Y153.696
G1 F1800 X56.302 Y52.908 E7.11114
G1 X56.232 Y52.838
G0 F3600 X55.85 Y53.021
G1 F1800 X55.26 Y52.997 E0.02887
G1 X54.786 Y53.089 E0.02367
G1 X54.379 Y53.247 E0.02113
G1 X54.024 Y53.459 E0.02001
G1 X53.718 Y53.718 E0.0195
G1 X53.459 Y54.025 E0.01954
G1 X53.247 Y54.378 E0.02003
G1 X53.087 Y54.784 E0.02101
G1 X52.997 Y55.26 E0.02362
G1 X53.017 Y55.846 E0.02874
G0 F3600 X52.909 Y56.303
G1 F1800 X153.696 Y157.09 E7.11107
G1 X153.766 Y157.16
G0 F3600 X56.004 Y52.342
G0 X56.019 Y52.244
;TIME_ELAPSED:101.150813
;LAYER:1
M140 S60
M106 S255
G0 F5400 X56.019 Y52.244 Z0.4
;TYPE:WALL-OUTER
G1 F1800 X56.517 Y52.363 E0.00851
G1 X57.001 Y52.564 E0.00872
G1 X57.443 Y52.834 E0.00861
G1 X57.847 Y53.18 E0.00885
G1 X156.82 Y152.153 E2.32769
G1 X157.168 Y152.559 E0.00889
G1 X157.437 Y152.998 E0.00856
G1 X157.636 Y153.48 E0.00867
G1 X157.756 Y153.981 E0.00857
G1 X157.797 Y154.497 E0.00861
G1 X157.756 Y155.014 E0.00862
G1 X157.637 Y155.512 E0.00851
G1 X157.436 Y155.996 E0.00872
G1 X157.166 Y156.438 E0.00861
G1 X156.83 Y156.83 E0.00859
G1 X156.438 Y157.166 E0.00859
G1 X155.996 Y157.436 E0.00861
G1 X155.512 Y157.637 E0.00872
G1 X155.014 Y157.756 E0.00851
G1 X154.497 Y157.797 E0.00862
G1 X153.981 Y157.756 E0.00861
G1 X153.483 Y157.637 E0.00851
G1 X152.999 Y157.436 E0.00872
G1 X152.557 Y157.166 E0.00861
G1 X152.153 Y156.82 E0.00885
G1 X53.18 Y57.847 E2.32769
G1 X52.832 Y57.441 E0.00889
G1 X52.563 Y57.002 E0.00856
G1 X52.364 Y56.52 E0.00867
G1 X52.244 Y56.019 E0.00857
G1 X52.203 Y55.503 E0.00861
G1 X52.244 Y54.986 E0.00862
G1 X52.363 Y54.488 E0.00851
G1 X52.564 Y54.004 E0.00872
G1 X52.834 Y53.562 E0.00861
G1 X53.171 Y53.169 E0.00861
G1 X53.562 Y52.834 E0.00856
G1 X54.004 Y52.564 E0.00861
G1 X54.488 Y52.363 E0.00872
G1 X54.986 Y52.244 E0.00851
G1 X55.503 Y52.203 E0.00862
G1 X56.019 Y52.244 E0.00861
G0 F5400 X56.213 Y52.29
G0 X56.189 Y52.387
G0 X55.23 Y53.673
G0 X55.244 Y53.771
G1 F1800 X54.954 Y53.839 E0.00495
G1 X54.681 Y53.957 E0.00495
G1 X54.432 Y54.117 E0.00492
G1 X54.213 Y54.318 E0.00494
G1 X54.031 Y54.553 E0.00494
G1 X53.892 Y54.815 E0.00493
G1 X53.8 Y55.098 E0.00495
G1 X53.756 Y55.391 E0.00493
G1 X53.761 Y55.688 E0.00494
G1 X53.818 Y55.98 E0.00495
G1 X53.923 Y56.258 E0.00494
G1 X54.073 Y56.514 E0.00493
G1 X54.253 Y56.726 E0.00462
G1 X54.475 Y56.917 E0.00487
G1 X54.728 Y57.071 E0.00493
G1 X55.024 Y57.187 E0.00529
G1 X55.317 Y57.244 E0.00496
G1 X55.614 Y57.249 E0.00494
G1 X55.907 Y57.205 E0.00493
G1 X56.19 Y57.113 E0.00495
G1 X56.452 Y56.974 E0.00493
G1 X56.687 Y56.792 E0.00494
G1 X56.888 Y56.573 E0.00494
G1 X57.048 Y56.324 E0.00492
G1 X57.166 Y56.051 E0.00495
G1 X57.234 Y55.761 E0.00495
G1 X57.253 Y55.466 E0.00492
G1 X57.221 Y55.17 E0.00495
G1 X57.141 Y54.884 E0.00494
G1 X57.012 Y54.616 E0.00495
G1 X56.842 Y54.374 E0.00492
G1 X56.631 Y54.164 E0.00495
G1 X56.389 Y53.993 E0.00493
G1 X56.121 Y53.864 E0.00495
G1 X55.835 Y53.784 E0.00494
G1 X55.539 Y53.752 E0.00495
G1 X55.244 Y53.771 E0.00492
G0 F5400 X55.049 Y53.816
G0 X55.027 Y53.719
G0 X55.842 Y53.745
G0 X56.409 Y53.959
G0 X56.872 Y54.349
G0 X154.071 Y152.698
G0 X154.093 Y152.795
G1 F1800 X153.81 Y152.887 E0.00495
G1 X153.548 Y153.026 E0.00493
G1 X153.313 Y153.208 E0.00494
G1 X153.112 Y153.427 E0.00494
G1 X152.952 Y153.676 E0.00492
G1 X152.834 Y153.949 E0.00495
G1 X152.766 Y154.239 E0.00495
G1 X152.747 Y154.534 E0.00492
G1 X152.779 Y154.83 E0.00495
G1 X152.859 Y155.116 E0.00494
G1 X152.988 Y155.384 E0.00495
G1 X153.158 Y155.626 E0.00492
G1 X153.369 Y155.836 E0.00495
G1 X153.611 Y156.007 E0.00493
G1 X153.879 Y156.136 E0.00495
G1 X154.165 Y156.216 E0.00494
G1 X154.461 Y156.248 E0.00495
G1 X154.756 Y156.229 E0.00492
G1 X155.046 Y156.161 E0.00495
G1 X155.319 Y156.043 E0.00495
G1 X155.568 Y155.883 E0.00492
G1 X155.787 Y155.682 E0.00494
G1 X155.969 Y155.447 E0.00494
G1 X156.108 Y155.185 E0.00493
G1 X156.2 Y154.902 E0.00495
G1 X156.244 Y154.609 E0.00493
G1 X156.239 Y154.312 E0.00494
G1 X156.182 Y154.02 E0.00495
G1 X156.077 Y153.742 E0.00494
G1 X155.927 Y153.486 E0.00493
G1 X155.735 Y153.259 E0.00494
G1 X155.508 Y153.068 E0.00493
G1 X155.253 Y152.918 E0.00492
G1 X154.975 Y152.813 E0.00494
G1 X154.683 Y152.756 E0.00495
G1 X154.386 Y152.751 E0.00494
G1 X154.093 Y152.795 E0.00493
G0 F5400 X153.903 Y152.856
G0 X153.654 Y152.517
;TYPE:WALL-INNER
G1 F2100 X153.33 Y152.688 E0.00609
G1 X153.041 Y152.912 E0.00608
G1 X152.794 Y153.182 E0.00609
G1 X152.598 Y153.488 E0.00604
G1 X152.452 Y153.823 E0.00608
G1 X152.368 Y154.181 E0.00612
G1 X152.345 Y154.542 E0.00602
G1 X152.385 Y154.906 E0.00609
G1 X152.483 Y155.258 E0.00608
G1 X152.642 Y155.588 E0.00609
G1 X152.85 Y155.884 E0.00602
G1 X153.111 Y156.144 E0.00613
G1 X153.407 Y156.353 E0.00603
G1 X153.737 Y156.512 E0.00609
G1 X154.089 Y156.61 E0.00608
G1 X154.453 Y156.65 E0.00609
G1 X154.814 Y156.627 E0.00602
G1 X155.172 Y156.543 E0.00612
G1 X155.507 Y156.397 E0.00608
G1 X155.813 Y156.201 E0.00604
G1 X156.083 Y155.954 E0.00609
G1 X156.307 Y155.665 E0.00608
G1 X156.478 Y155.341 E0.00609
G1 X156.59 Y154.994 E0.00606
G1 X156.644 Y154.635 E0.00604
G1 X156.639 Y154.27 E0.00607
G1 X156.568 Y153.91 E0.0061
G1 X156.439 Y153.569 E0.00606
G1 X156.255 Y153.254 E0.00607
