;FLAVOR:RepRap
;TIME:2687
;Filament used: 1.66863m
;Layer height: 0.1
;Generated with Cura_SteamEngine 3.0.3
T0
M190 S100
M104 S240
M109 S240
M82 ; absolute extrusion mode
G21 ;metric values
G90 ;absolute positioning
M82 ;set extruder to absolute mode
M107 ;start with the fan off
G28 X0 Y0 ;move X/Y to min endstops
G28 Z0 ;move Z to min endstops
G1 Z15.0 F9000 ;move the platform down 15mm
G92 E0 ;zero the extruded length
G1 F200 E3 ;extrude 3mm of feed stock
G92 E0 ;zero the extruded length again
G1 F9000
;Put printing message on LCD screen
M117 Printing...
M83 ; relative extrusion mode
;LAYER_COUNT:68
;LAYER:-9
M107
G0 F3600 X72.428 Y72.44 Z0.36
G1 F1350 X73.361 Y71.578 E0.1521
G1 X73.642 Y71.343 E0.04386
G1 X74.358 Y70.778 E0.10921
G1 X74.509 Y70.668 E0.02237
G1 X75.459 Y70.034 E0.13675
G1 X75.695 Y69.888 E0.03323
G1 X76.586 Y69.383 E0.12263
G1 X76.735 Y69.306 E0.02008
G1 X77.833 Y68.796 E0.14496
G1 X78.169 Y68.659 E0.04345
G1 X79.041 Y68.334 E0.11143
G1 X79.217 Y68.276 E0.02219
G1 X80.382 Y67.945 E0.14501
G1 X80.725 Y67.863 E0.04223
G1 X81.659 Y67.676 E0.11405
G1 X81.834 Y67.647 E0.02124
G1 X83.015 Y67.506 E0.14241
G1 X83.382 Y67.478 E0.04407
G1 X84.348 Y67.439 E0.11576
G1 X84.498 Y67.438 E0.01796
G1 X85.654 Y67.482 E0.13852
G1 X86.08 Y67.518 E0.05119
G1 X86.967 Y67.619 E0.10689
G1 X87.163 Y67.65 E0.02376
G1 X88.336 Y67.88 E0.14313
G1 X88.714 Y67.973 E0.04661
G1 X89.58 Y68.215 E0.10766
G1 X89.773 Y68.277 E0.02427
G1 X90.785 Y68.648 E0.12906
G1 X91.255 Y68.841 E0.06084
G1 X92.089 Y69.224 E0.10989
G1 X92.251 Y69.306 E0.02174
G1 X93.213 Y69.842 E0.13186
G1 X93.523 Y70.03 E0.04341
G1 X94.408 Y70.615 E0.12703
G1 X95.131 Y71.16 E0.10841
G1 X95.934 Y71.839 E0.12591
G1 X96.509 Y72.385 E0.09494
G1 X137.6 Y113.468 E6.95738
G1 X138.543 Y114.508 E0.16809
G1 X138.747 Y114.755 E0.03836
G1 X139.364 Y115.559 E0.12135
G1 X139.982 Y116.491 E0.1339
G1 X140.18 Y116.82 E0.04598
G1 X140.643 Y117.647 E0.11348
G1 X140.72 Y117.797 E0.02019
G1 X141.201 Y118.843 E0.13785
G1 X141.354 Y119.217 E0.04838
G1 X141.673 Y120.073 E0.10938
G1 X141.728 Y120.24 E0.02105
G1 X142.058 Y121.406 E0.1451
G1 X142.135 Y121.728 E0.03964
G1 X142.327 Y122.682 E0.11652
G1 X142.351 Y122.838 E0.0189
G1 X142.493 Y124.027 E0.14338
G1 X142.522 Y124.405 E0.04539
G1 X142.561 Y125.36 E0.11444
G1 X142.562 Y125.507 E0.0176
G1 X142.522 Y126.598 E0.13072
G1 X142.487 Y127.067 E0.05631
G1 X142.381 Y127.987 E0.11089
G1 X142.354 Y128.161 E0.02108
G1 X142.139 Y129.257 E0.13373
G1 X142.029 Y129.72 E0.05698
G1 X141.785 Y130.593 E0.10854
G1 X141.723 Y130.786 E0.02427
G1 X141.304 Y131.923 E0.14509
G1 X141.149 Y132.29 E0.0477
G1 X140.696 Y133.264 E0.12862
G1 X140.118 Y134.296 E0.14163
G1 X139.974 Y134.529 E0.0328
G1 X139.403 Y135.391 E0.1238
G1 X139.285 Y135.555 E0.02419
G1 X138.598 Y136.431 E0.1333
G1 X138.348 Y136.724 E0.04612
G1 X137.719 Y137.412 E0.11162
G1 X137.572 Y137.56 E0.02498
G1 X136.639 Y138.422 E0.1521
G1 X136.36 Y138.655 E0.04352
G1 X135.646 Y139.219 E0.10895
G1 X135.496 Y139.329 E0.02227
G1 X134.541 Y139.966 E0.13745
G1 X134.305 Y140.112 E0.03323
G1 X133.414 Y140.617 E0.12263
G1 X133.265 Y140.694 E0.02008
G1 X132.166 Y141.204 E0.14507
G1 X131.928 Y141.303 E0.03086
G1 X130.96 Y141.666 E0.12379
G1 X130.783 Y141.724 E0.0223
G1 X129.618 Y142.055 E0.14501
G1 X129.275 Y142.137 E0.04223
G1 X128.341 Y142.324 E0.11405
G1 X128.165 Y142.353 E0.02136
G1 X126.985 Y142.494 E0.14229
G1 X126.618 Y142.522 E0.04407
G1 X125.652 Y142.561 E0.11576
G1 X125.502 Y142.562 E0.01796
G1 X124.346 Y142.518 E0.13852
G1 X123.92 Y142.482 E0.05119
G1 X123.032 Y142.381 E0.10701
G1 X122.837 Y142.35 E0.02364
G1 X121.661 Y142.119 E0.1435
G1 X121.286 Y142.027 E0.04623
G1 X120.418 Y141.784 E0.10793
G1 X120.227 Y141.723 E0.02401
G1 X119.092 Y141.305 E0.14482
G1 X118.745 Y141.159 E0.04508
G1 X117.911 Y140.776 E0.10989
G1 X117.749 Y140.694 E0.02174
G1 X116.787 Y140.158 E0.13186
G1 X116.477 Y139.97 E0.04341
G1 X115.592 Y139.385 E0.12703
G1 X114.863 Y138.835 E0.10934
G1 X114.058 Y138.154 E0.12625
G1 X113.491 Y137.615 E0.09367
G1 X72.4 Y96.532 E6.95738
G1 X71.452 Y95.486 E0.16903
G1 X71.24 Y95.229 E0.03989
G1 X70.646 Y94.455 E0.11682
G1 X70.041 Y93.545 E0.13084
G1 X69.858 Y93.244 E0.04218
G1 X69.35 Y92.34 E0.12416
G1 X69.278 Y92.2 E0.01885
G1 X68.799 Y91.157 E0.13743
G1 X68.643 Y90.776 E0.0493
G1 X68.327 Y89.927 E0.10847
G1 X68.272 Y89.76 E0.02105
G1 X67.94 Y88.585 E0.1462
G1 X67.863 Y88.262 E0.03976
G1 X67.673 Y87.318 E0.1153
G1 X67.647 Y87.149 E0.02047
G1 X67.506 Y85.974 E0.1417
G1 X67.485 Y85.689 E0.03422
G1 X67.439 Y84.64 E0.12572
G1 X67.438 Y84.493 E0.0176
G1 X67.478 Y83.402 E0.13072
G1 X67.516 Y82.908 E0.05932
G1 X67.619 Y82.013 E0.10787
G1 X67.646 Y81.839 E0.02108
G1 X67.861 Y80.743 E0.13373
G1 X67.975 Y80.265 E0.05884
G1 X68.215 Y79.408 E0.10656
G1 X68.281 Y79.203 E0.02579
G1 X68.696 Y78.077 E0.14369
G1 X68.795 Y77.836 E0.0312
G1 X69.226 Y76.892 E0.12425
G1 X69.304 Y76.736 E0.02088
G1 X69.882 Y75.704 E0.14163
G1 X70.026 Y75.471 E0.0328
G1 X70.597 Y74.609 E0.1238
G1 X70.715 Y74.445 E0.02419
G1 X71.402 Y73.569 E0.1333
G1 X71.652 Y73.276 E0.04612
G1 X72.281 Y72.588 E0.11162
G1 X72.428 Y72.44 E0.02498
G0 F3600 X72 Y72.895
G1 F1350 X72 Y96.09 E2.77729
G0 F3600 X73.6 Y97.731
G1 F1350 X73.6 Y71.378 E3.15542
G0 F3600 X75.2 Y70.206
G1 F1350 X75.2 Y99.331 E3.48733
G0 F3600 X76.8 Y100.931
G1 F1350 X76.8 Y69.275 E3.79038
G0 F3600 X78.4 Y68.572
G1 F1350 X78.4 Y102.53 E4.06601
G0 F3600 X80 Y104.13
G1 F1350 X80 Y68.053 E4.31973
G0 F3600 X81.6 Y67.687
G1 F1350 X81.6 Y105.73 E4.55514
G0 F3600 X83.2 Y107.329
G1 F1350 X83.2 Y67.491 E4.77006
G0 F3600 X84.8 Y67.45
G1 F1350 X84.8 Y108.929 E4.96655
G0 F3600 X86.4 Y110.529
G1 F1350 X86.4 Y67.555 E5.14556
G0 F3600 X88 Y67.815
G1 F1350 X88 Y112.128 E5.30588
G0 F3600 X89.6 Y113.728
G1 F1350 X89.6 Y68.222 E5.44873
G0 F3600 X91.2 Y68.819
G1 F1350 X91.2 Y115.328 E5.56882
G0 F3600 X92.8 Y116.928
G1 F1350 X92.8 Y69.612 E5.66545
G0 F3600 X94.4 Y70.61
G1 F1350 X94.4 Y118.527 E5.73741
G0 F3600 X96 Y120.127
G1 F1350 X96 Y71.902 E5.77429
G0 F3600 X97.6 Y73.476
G1 F1350 X97.6 Y121.727 E5.77741
G0 F3600 X99.2 Y123.326
G1 F1350 X99.2 Y75.076 E5.77729
G0 F3600 X100.8 Y76.676
G1 F1350 X100.8 Y124.926 E5.77729
G0 F3600 X102.4 Y126.526
G1 F1350 X102.4 Y78.275 E5.77741
G0 F3600 X104 Y79.875
G1 F1350 X104 Y128.125 E5.77729
G0 F3600 X105.6 Y129.725
G1 F1350 X105.6 Y81.475 E5.77729
G0 F3600 X107.2 Y83.074
G1 F1350 X107.2 Y131.325 E5.77741
G0 F3600 X108.8 Y132.924
G1 F1350 X108.8 Y84.674 E5.77729
G0 F3600 X110.4 Y86.274
G1 F1350 X110.4 Y134.524 E5.77729
G0 F3600 X112 Y136.124
G1 F1350 X112 Y87.873 E5.77741
G0 F3600 X113.6 Y89.473
G1 F1350 X113.6 Y137.718 E5.77669
G0 F3600 X115.2 Y139.089
G1 F1350 X115.2 Y91.073 E5.74927
G0 F3600 X116.8 Y92.673
G1 F1350 X116.8 Y140.165 E5.68653
G0 F3600 X118.4 Y141
G1 F1350 X118.4 Y94.272 E5.59505
G0 F3600 X120 Y95.872
G1 F1350 X120 Y141.639 E5.47998
G0 F3600 X121.6 Y142.104
G1 F1350 X121.6 Y97.472 E5.34408
G0 F3600 X123.2 Y99.071
G1 F1350 X123.2 Y142.4 E5.18806
G0 F3600 X124.8 Y142.535
G1 F1350 X124.8 Y100.671 E5.01265
G0 F3600 X126.4 Y102.271
G1 F1350 X126.4 Y142.531 E4.82059
G0 F3600 X128 Y142.373
G1 F1350 X128 Y103.87 E4.61021
G0 F3600 X129.6 Y105.47
G1 F1350 X129.6 Y142.06 E4.38116
G0 F3600 X131.2 Y141.576
G1 F1350 X131.2 Y107.07 E4.13163
G0 F3600 X132.8 Y108.669
G1 F1350 X132.8 Y140.91 E3.86042
G0 F3600 X134.4 Y140.054
G1 F1350 X134.4 Y110.269 E3.56635
G0 F3600 X136 Y111.869
G1 F1350 X136 Y138.94 E3.24139
G0 F3600 X137.6 Y137.532
G1 F1350 X137.6 Y113.468 E2.88134
G0 F3600 X139.2 Y115.346
G1 F1350 X139.2 Y135.664 E2.43281
G0 F3600 X140.8 Y133.041
G1 F1350 X140.8 Y117.971 E1.80443
G0 F3600 X142.4 Y123.249
G1 F1350 X142.4 Y127.823 E0.54767
G0 F3600 X70.4 Y94.084
G1 F1350 X70.4 Y74.906 E2.29631
G0 F3600 X68.8 Y77.825
G1 F1350 X68.8 Y91.159 E1.59657
G0 F3600 X72.434 Y72.434
;TIME_ELAPSED:95.759074
;LAYER:-8
M140 S100
G0 X72.434 Y72.434 Z0.51
;TYPE:SUPPORT
G1 F1350 X73.169 Y71.755 E0.04992
G1 X138.247 Y136.833 E4.5916
G1 X138.347 Y136.724 E0.00738
G1 X138.597 Y136.43 E0.01925
G1 X138.888 Y136.06 E0.02348
G1 X73.937 Y71.109 E4.58264
G1 X74.357 Y70.777 E0.02671
G1 X74.507 Y70.668 E0.00925
G1 X74.749 Y70.507 E0.0145
G1 X139.494 Y135.251 E4.56807
G1 X139.973 Y134.528 E0.04327
G1 X140.055 Y134.398 E0.00767
G1 X75.602 Y69.945 E4.54751
G1 X75.694 Y69.887 E0.00543
G1 X76.501 Y69.43 E0.04627
G1 X140.566 Y133.495 E4.52013
G1 X140.695 Y133.263 E0.01324
G1 X141.03 Y132.545 E0.03953
G1 X77.456 Y68.971 E4.48549
G1 X77.832 Y68.795 E0.02071
G1 X78.168 Y68.659 E0.01808
G1 X78.452 Y68.553 E0.01512
G1 X141.443 Y131.543 E4.44432
G1 X141.721 Y130.785 E0.04028
G1 X141.784 Y130.593 E0.01008
G1 X141.81 Y130.497 E0.00496
G1 X79.507 Y68.194 E4.39581
G1 X80.381 Y67.945 E0.04534
G1 X80.617 Y67.889 E0.0121
G1 X142.108 Y129.38 E4.33852
G1 X142.137 Y129.256 E0.00635
G1 X142.344 Y128.202 E0.05359
G1 X81.795 Y67.653 E4.27206
G1 X81.833 Y67.647 E0.00192
G1 X83.014 Y67.506 E0.05934
G1 X83.059 Y67.503 E0.00225
G1 X142.496 Y126.939 E4.19357
G1 X142.52 Y126.598 E0.01705
G1 X142.558 Y125.587 E0.05047
G1 X84.409 Y67.438 E4.10273
G1 X84.497 Y67.437 E0.00439
G1 X85.653 Y67.482 E0.05772
G1 X85.886 Y67.501 E0.01166
G1 X142.499 Y124.114 E3.99435
G1 X142.492 Y124.027 E0.00435
G1 X142.349 Y122.837 E0.0598
G1 X142.326 Y122.681 E0.00787
G1 X142.287 Y122.488 E0.00982
G1 X87.519 Y67.72 E3.86418
G1 X88.335 Y67.88 E0.04149
G1 X88.713 Y67.972 E0.01941
G1 X89.369 Y68.156 E0.03399
G1 X141.836 Y120.623 E3.70183
G1 X141.727 Y120.239 E0.01991
G1 X141.672 Y120.073 E0.00872
G1 X141.353 Y119.216 E0.04562
G1 X141.2 Y118.842 E0.02016
G1 X140.97 Y118.343 E0.02741
G1 X91.65 Y69.022 E3.47983
G1 X92.087 Y69.224 E0.02402
G1 X92.25 Y69.306 E0.0091
G1 X93.212 Y69.842 E0.05494
G1 X93.522 Y70.029 E0.01806
G1 X94.407 Y70.614 E0.05293
G1 X95.13 Y71.159 E0.04517
G1 X95.592 Y71.55 E0.0302
G1 X138.473 Y114.431 E3.02549
G0 F3600 X137.564 Y137.564
G1 F1350 X72.434 Y72.434 E4.59527
G0 F3600 X71.751 Y73.165
G1 F1350 X136.83 Y138.244 E4.59167
G1 X137.564 Y137.564 E0.04992
G0 F3600 X136.06 Y138.889
G1 F1350 X135.645 Y139.218 E0.02642
G1 X135.495 Y139.328 E0.00928
G1 X135.249 Y139.492 E0.01475
G1 X70.504 Y74.747 E4.56811
G1 X70.025 Y75.47 E0.04327
G1 X69.944 Y75.601 E0.00768
G1 X134.396 Y140.053 E4.54744
G1 X134.305 Y140.111 E0.00538
G1 X133.497 Y140.568 E0.04631
G1 X69.432 Y76.504 E4.5201
G1 X69.303 Y76.735 E0.0132
G1 X69.226 Y76.891 E0.00868
G1 X68.969 Y77.454 E0.03088
G1 X132.542 Y141.028 E4.48545
G1 X132.166 Y141.202 E0.02067
G1 X131.927 Y141.302 E0.01293
G1 X131.545 Y141.445 E0.02035
G1 X68.556 Y78.455 E4.44425
G1 X68.28 Y79.202 E0.03973
G1 X68.215 Y79.407 E0.01073
G1 X68.188 Y79.502 E0.00493
G1 X130.491 Y141.805 E4.39581
G1 X129.617 Y142.054 E0.04534
G1 X129.382 Y142.11 E0.01205
G1 X67.89 Y80.617 E4.33863
G1 X67.861 Y80.741 E0.00635
G1 X67.653 Y81.795 E0.0536
G1 X128.203 Y142.345 E4.27213
G1 X128.165 Y142.352 E0.00193
G1 X126.985 Y142.493 E0.05929
G1 X126.939 Y142.496 E0.0023
G1 X67.503 Y83.06 E4.19353
G1 X67.478 Y83.401 E0.01706
G1 X67.441 Y84.411 E0.05042
G1 X125.589 Y142.56 E4.10269
G1 X125.501 Y142.561 E0.00439
G1 X124.346 Y142.517 E0.05766
G1 X124.112 Y142.497 E0.01172
G1 X67.498 Y85.883 E3.99442
G1 X67.506 Y85.972 E0.00446
G1 X67.647 Y87.148 E0.05909
G1 X67.672 Y87.317 E0.00852
G1 X67.711 Y87.51 E0.00982
G1 X122.479 Y142.278 E3.86418
G1 X121.661 Y142.117 E0.04159
G1 X121.285 Y142.026 E0.0193
G1 X120.629 Y141.842 E0.03399
G1 X68.163 Y89.376 E3.70176
G1 X68.271 Y89.759 E0.01985
G1 X68.327 Y89.926 E0.00879
G1 X68.643 Y90.775 E0.0452
G1 X68.798 Y91.155 E0.02047
G1 X69.027 Y91.655 E0.02744
G1 X118.348 Y140.975 E3.47983
G1 X117.911 Y140.775 E0.02398
G1 X117.748 Y140.693 E0.0091
G1 X116.787 Y140.157 E0.0549
G1 X116.476 Y139.969 E0.01813
G1 X115.591 Y139.384 E0.05293
G1 X114.863 Y138.834 E0.04552
G1 X114.404 Y138.446 E0.02999
G1 X71.533 Y95.575 E3.02478
G0 F3600 X71.11 Y73.938
G1 F1350 X136.06 Y138.889 E4.58261
G0 F3600 X71.11 Y73.938
G1 F1350 X71.401 Y73.568 E0.02348
G1 X71.651 Y73.275 E0.01922
G1 X71.751 Y73.165 E0.00742
G0 F3600 X72.186 Y72.4
;TIME_ELAPSED:231.324591
;LAYER:-7
G0 X72.186 Y72.4 Z0.61
G1 F1800 X72.145 Y72.441 E0.00096
G1 X71.817 Y72.8 E0.00809
G1 X97.208 Y72.8 E0.42225
G1 X97.608 Y73.2 E0.00941
G1 X71.455 Y73.2 E0.43493
G1 X71.249 Y73.439 E0.00525
G1 X71.123 Y73.6 E0.0034
G1 X98.008 Y73.6 E0.4471
G1 X98.408 Y74 E0.00941
G1 X70.81 Y74 E0.45896
G1 X70.548 Y74.334 E0.00706
G1 X70.501 Y74.4 E0.00135
G1 X98.808 Y74.4 E0.47075
G1 X99.208 Y74.8 E0.00941
G1 X70.229 Y74.8 E0.48192
G1 X69.963 Y75.2 E0.00799
G1 X99.608 Y75.2 E0.493
G1 X100.008 Y75.6 E0.00941
G1 X69.715 Y75.6 E0.50377
G1 X69.672 Y75.67 E0.00137
G1 X69.488 Y76 E0.00628
G1 X100.408 Y76 E0.5142
G1 X100.808 Y76.4 E0.00941
G1 X69.264 Y76.4 E0.52458
G1 X69.13 Y76.639 E0.00456
G1 X69.05 Y76.8 E0.00299
G1 X101.208 Y76.8 E0.53479
G1 X101.608 Y77.2 E0.00941
G1 X68.867 Y77.2 E0.54449
G1 X68.684 Y77.6 E0.00732
G1 X102.009 Y77.6 E0.5542
G1 X102.409 Y78 E0.00941
G1 X68.512 Y78 E0.56371
G1 X68.509 Y78.006 E0.00011
G1 X68.364 Y78.4 E0.00698
G1 X102.809 Y78.4 E0.57282
G1 X103.209 Y78.8 E0.00941
G1 X68.217 Y78.8 E0.58192
G1 X68.093 Y79.135 E0.00594
G1 X68.072 Y79.2 E0.00114
G1 X103.609 Y79.2 E0.59098
G1 X104.009 Y79.6 E0.00941
G1 X67.955 Y79.6 E0.59958
G1 X67.843 Y80 E0.00691
G1 X104.409 Y80 E0.6081
G1 X104.809 Y80.4 E0.00941
G1 X67.735 Y80.4 E0.61654
G1 X67.663 Y80.707 E0.00524
G1 X67.645 Y80.8 E0.00158
G1 X105.209 Y80.8 E0.62469
G1 X105.609 Y81.2 E0.00941
G1 X67.567 Y81.2 E0.63264
G1 X67.489 Y81.6 E0.00678
G1 X106.009 Y81.6 E0.64059
G1 X106.409 Y82 E0.00941
G1 X67.421 Y82 E0.64837
G1 X67.375 Y82.4 E0.0067
G1 X106.809 Y82.4 E0.65579
G1 X107.21 Y82.8 E0.00942
G1 X67.329 Y82.8 E0.66322
G1 X67.305 Y83.01 E0.00352
G1 X67.291 Y83.2 E0.00317
G1 X107.61 Y83.2 E0.67051
G1 X108.01 Y83.6 E0.00941
G1 X67.273 Y83.6 E0.67746
G1 X67.257 Y84 E0.00666
G1 X108.41 Y84 E0.68438
G1 X108.81 Y84.4 E0.00941
G1 X67.242 Y84.4 E0.69128
G1 X67.238 Y84.485 E0.00142
G1 X67.239 Y84.649 E0.00273
G1 X67.245 Y84.8 E0.00251
G1 X109.21 Y84.8 E0.69788
G1 X109.61 Y85.2 E0.00941
G1 X67.262 Y85.2 E0.70425
G1 X67.279 Y85.599 E0.00664
G0 F3600 X67.279 Y85.6
G1 F1800 X110.01 Y85.6 E0.71062
G1 X110.41 Y86 E0.00941
G1 X67.308 Y86 E0.71679
G1 X67.31 Y86.027 E0.00045
G1 X67.355 Y86.4 E0.00625
G1 X110.81 Y86.4 E0.72266
G1 X111.21 Y86.8 E0.00941
G1 X67.403 Y86.8 E0.72851
G1 X67.45 Y87.179 E0.00635
G1 X67.453 Y87.2 E0.00035
G1 X111.61 Y87.2 E0.73433
G1 X112.01 Y87.6 E0.00941
G1 X67.525 Y87.6 E0.73979
G1 X67.606 Y88 E0.00679
G1 X112.411 Y88 E0.74511
G1 X112.811 Y88.4 E0.00941
G1 X67.69 Y88.4 E0.75037
G1 X67.746 Y88.636 E0.00403
G1 X67.792 Y88.8 E0.00283
G1 X113.211 Y88.8 E0.75532
G1 X113.611 Y89.2 E0.00941
G1 X67.905 Y89.2 E0.76009
G1 X68.018 Y89.6 E0.00691
G1 X114.011 Y89.6 E0.76487
G1 X114.411 Y90 E0.00941
G1 X68.14 Y90 E0.76949
G1 X68.142 Y90.004 E0.00007
G1 X68.29 Y90.4 E0.00703
G1 X114.811 Y90.4 E0.77365
G1 X115.211 Y90.8 E0.00941
G1 X68.44 Y90.8 E0.7778
G1 X68.502 Y90.963 E0.0029
G1 X68.601 Y91.2 E0.00427
G1 X115.611 Y91.2 E0.78178
G1 X116.011 Y91.6 E0.00941
G1 X68.78 Y91.6 E0.78545
G1 X68.966 Y92 E0.00734
G1 X116.411 Y92 E0.78901
G1 X116.811 Y92.4 E0.00941
G1 X69.157 Y92.4 E0.79249
G1 X69.176 Y92.437 E0.00069
G1 X69.379 Y92.8 E0.00692
G1 X117.212 Y92.8 E0.79547
G1 X117.612 Y93.2 E0.00941
G1 X69.603 Y93.2 E0.79839
G1 X69.687 Y93.348 E0.00283
G1 X69.84 Y93.6 E0.0049
G1 X118.012 Y93.6 E0.8011
G1 X118.412 Y94 E0.00941
G1 X70.103 Y94 E0.80338
G1 X70.369 Y94.4 E0.00799
G1 X118.812 Y94.4 E0.80561
G1 X119.212 Y94.8 E0.00941
G1 X70.659 Y94.8 E0.80744
G1 X70.966 Y95.2 E0.00839
G1 X119.612 Y95.2 E0.80899
G1 X120.012 Y95.6 E0.00941
G1 X71.286 Y95.6 E0.81032
G1 X71.3 Y95.616 E0.00035
G1 X71.648 Y96 E0.00862
G1 X120.412 Y96 E0.81095
G1 X120.812 Y96.4 E0.00941
G1 X72.01 Y96.4 E0.81158
G1 X72.249 Y96.663 E0.00591
G1 X72.386 Y96.8 E0.00322
G1 X121.212 Y96.8 E0.81198
G1 X121.612 Y97.2 E0.00941
G1 X72.786 Y97.2 E0.81198
G1 X73.186 Y97.6 E0.00941
G1 X122.012 Y97.6 E0.81198
G1 X122.413 Y98 E0.00942
G1 X73.586 Y98 E0.812
G1 X73.986 Y98.4 E0.00941
G1 X122.813 Y98.4 E0.812
G1 X123.213 Y98.8 E0.00941
G1 X74.386 Y98.8 E0.812
