;FLAVOR:RepRap
;TIME:1439
;Filament used: 0.909263m
;Layer height: 0.1
;Generated with Cura_SteamEngine 3.0.3
T0
M190 S100
M104 S240
M109 S240
M82 ; absolute extrusion mode
G21 ;metric values
G90 ;absolute positioning
M82 ;set extruder to absolute mode
M107 ;start with the fan off
G28 X0 Y0 ;move X/Y to min endstops
G28 Z0 ;move Z to min endstops
G1 Z15.0 F9000 ;move the platform down 15mm
G92 E0 ;zero the extruded length
G1 F200 E3 ;extrude 3mm of feed stock
G92 E0 ;zero the extruded length again
G1 F9000
;Put printing message on LCD screen
M117 Printing...
M83 ; relative extrusion mode
;LAYER_COUNT:88
;LAYER:-9
M107
G0 F3600 X92.177 Y85.242 Z0.36
G1 F1350 X92.802 Y84.593 E0.10788
G1 X92.927 Y84.473 E0.02075
G1 X93.598 Y83.87 E0.10802
G1 X94.426 Y83.224 E0.12575
G1 X94.585 Y83.111 E0.02336
G1 X95.323 Y82.621 E0.10607
G1 X96.243 Y82.099 E0.12665
G1 X96.393 Y82.021 E0.02024
G1 X97.208 Y81.638 E0.10782
G1 X98.21 Y81.249 E0.1287
G1 X98.36 Y81.197 E0.01901
G1 X99.21 Y80.942 E0.10626
G1 X99.383 Y80.895 E0.02147
G1 X100.278 Y80.695 E0.10981
G1 X101.313 Y80.538 E0.12534
G1 X101.482 Y80.52 E0.02035
G1 X102.368 Y80.454 E0.10638
G1 X102.555 Y80.445 E0.02242
G1 X103.055 Y80.437 E0.05988
G1 X106.998 Y80.437 E0.47212
G1 X107.984 Y80.473 E0.11814
G1 X109.042 Y80.583 E0.12736
G1 X109.209 Y80.607 E0.0202
G1 X110.089 Y80.769 E0.10714
G1 X111.112 Y81.03 E0.12641
G1 X111.292 Y81.084 E0.0225
G1 X112.113 Y81.365 E0.1039
G1 X112.311 Y81.44 E0.02535
G1 X113.256 Y81.848 E0.12325
G1 X114.212 Y82.344 E0.12896
G1 X114.962 Y82.801 E0.10516
G1 X115.126 Y82.91 E0.02358
G1 X115.844 Y83.423 E0.10566
G1 X115.985 Y83.533 E0.02141
G1 X116.676 Y84.105 E0.10741
G1 X117.441 Y84.835 E0.12661
G1 X117.561 Y84.96 E0.02075
G1 X118.161 Y85.629 E0.1076
G1 X118.273 Y85.763 E0.02091
G1 X118.81 Y86.459 E0.10526
G1 X118.918 Y86.609 E0.02213
G1 X119.271 Y87.141 E0.07645
G1 X119.676 Y87.675 E0.08025
G1 X119.843 Y87.845 E0.02853
G1 X119.827 Y87.861 E0.00271
G1 X120.863 Y88.814 E0.16855
G1 X120.978 Y88.928 E0.01939
G1 X121.609 Y89.6 E0.11038
G1 X122.286 Y90.427 E0.12797
G1 X122.885 Y91.28 E0.1248
G1 X122.982 Y91.429 E0.02129
G1 X123.512 Y92.333 E0.12547
G1 X123.914 Y93.139 E0.10785
G1 X123.992 Y93.314 E0.02294
G1 X124.325 Y94.126 E0.10508
G1 X124.39 Y94.302 E0.02246
G1 X124.664 Y95.141 E0.10568
G1 X124.713 Y95.312 E0.0213
G1 X124.928 Y96.179 E0.10696
G1 X124.961 Y96.335 E0.01909
G1 X125.132 Y97.365 E0.12502
G1 X125.232 Y98.433 E0.12844
G1 X125.257 Y99.316 E0.10577
G1 X125.255 Y110.061 E1.28657
G1 X125.198 Y111.317 E0.15054
G1 X125.073 Y112.344 E0.12388
G1 X125.045 Y112.511 E0.02028
G1 X124.803 Y113.683 E0.14329
G1 X124.526 Y114.652 E0.12067
G1 X124.456 Y114.864 E0.02673
G1 X124.108 Y115.802 E0.11979
G1 X123.693 Y116.722 E0.12085
G1 X123.611 Y116.886 E0.02195
G1 X123.077 Y117.854 E0.13237
G1 X122.518 Y118.717 E0.12312
G1 X122.393 Y118.893 E0.02585
G1 X121.982 Y119.422 E0.08021
G1 X121.602 Y119.982 E0.08103
G1 X121.183 Y120.876 E0.11822
G1 X121.116 Y121.063 E0.02378
G1 X121.032 Y121.268 E0.02653
G1 X120.4 Y122.623 E0.17902
G1 X119.878 Y123.533 E0.12561
G1 X119.775 Y123.696 E0.02309
G1 X118.99 Y124.821 E0.16426
G1 X118.871 Y124.975 E0.0233
G1 X118.247 Y125.725 E0.11682
G1 X118.115 Y125.872 E0.02366
G1 X117.516 Y126.494 E0.1034
G1 X117.384 Y126.622 E0.02202
G1 X116.606 Y127.316 E0.12483
G1 X115.948 Y127.827 E0.09975
G1 X115.762 Y127.962 E0.02752
G1 X114.846 Y128.575 E0.13197
G1 X114.158 Y128.974 E0.09523
G1 X113.253 Y129.426 E0.12113
G1 X113.087 Y129.5 E0.02176
G1 X112.286 Y129.828 E0.10364
G1 X112.084 Y129.903 E0.0258
G1 X111.264 Y130.17 E0.10326
G1 X111.088 Y130.219 E0.02188
G1 X109.669 Y130.545 E0.17433
G1 X108.704 Y130.688 E0.11681
G1 X108.514 Y130.708 E0.02288
G1 X107.214 Y130.787 E0.15594
G1 X106.81 Y130.795 E0.04838
G1 X104.809 Y130.774 E0.23961
G1 X103.152 Y130.796 E0.19842
G1 X102.772 Y130.789 E0.04551
G1 X101.85 Y130.743 E0.11053
G1 X101.624 Y130.722 E0.02718
G1 X100.301 Y130.54 E0.1599
G1 X99.213 Y130.302 E0.13335
G1 X98.197 Y130 E0.12691
G1 X98.034 Y129.945 E0.0206
G1 X97.196 Y129.623 E0.10749
G1 X97.052 Y129.561 E0.01877
G1 X95.937 Y129.025 E0.14813
G1 X94.95 Y128.447 E0.13695
G1 X94.168 Y127.915 E0.11325
G1 X93.178 Y127.132 E0.15113
G1 X92.519 Y126.529 E0.10695
G1 X92.39 Y126.402 E0.02168
G1 X91.674 Y125.638 E0.12537
G1 X91.121 Y124.965 E0.1043
G1 X90.989 Y124.793 E0.02596
G1 X90.449 Y124.041 E0.11085
G1 X90.329 Y123.856 E0.0264
G1 X89.566 Y122.559 E0.18018
G1 X89.108 Y121.601 E0.12714
G1 X89.041 Y121.442 E0.02066
G1 X88.811 Y120.834 E0.07783
G1 X88.533 Y120.218 E0.08092
G1 X88.019 Y119.43 E0.11265
G1 X87.734 Y119.067 E0.05526
G1 X87.625 Y118.917 E0.0222
G1 X86.987 Y117.956 E0.13812
G1 X86.927 Y117.86 E0.01356
G1 X86.437 Y116.978 E0.12081
G1 X86.349 Y116.804 E0.02335
G1 X85.858 Y115.717 E0.14282
G1 X85.53 Y114.827 E0.11357
G1 X85.476 Y114.66 E0.02102
G1 X85.206 Y113.723 E0.11676
G1 X84.987 Y112.7 E0.12527
G1 X84.954 Y112.499 E0.02439
G1 X84.789 Y111.162 E0.1613
G1 X84.743 Y109.946 E0.1457
G1 X84.742 Y99.267 E1.27867
G1 X84.788 Y98.126 E0.13673
G1 X84.91 Y97.058 E0.12871
G1 X85.075 Y96.163 E0.10897
G1 X85.339 Y95.129 E0.12778
G1 X85.386 Y94.973 E0.01951
G1 X85.671 Y94.138 E0.10564
G1 X85.746 Y93.942 E0.02513
G1 X86.089 Y93.133 E0.10521
G1 X86.155 Y92.993 E0.01853
G1 X86.647 Y92.044 E0.12799
G1 X87.116 Y91.277 E0.10765
G1 X87.218 Y91.123 E0.02212
G1 X87.728 Y90.41 E0.10496
G1 X87.841 Y90.264 E0.02211
G1 X88.413 Y89.573 E0.10741
G1 X89.154 Y88.797 E0.12847
G1 X90.045 Y87.972 E0.1454
G1 X90.483 Y87.473 E0.0795
G1 X90.719 Y87.143 E0.04858
G1 X90.86 Y86.93 E0.03059
G1 X91.5 Y86.046 E0.13068
G1 X92.076 Y85.355 E0.10771
G1 X92.177 Y85.242 E0.01815
G0 F3600 X92.8 Y84.595
G1 F1350 X92.8 Y126.786 E5.0518
G0 F3600 X94.4 Y128.072
G1 F1350 X94.4 Y83.244 E5.36755
G0 F3600 X96 Y82.236
G1 F1350 X96 Y129.055 E5.60594
G0 F3600 X97.6 Y129.778
G1 F1350 X97.6 Y81.485 E5.78243
G0 F3600 X99.2 Y80.945
G1 F1350 X99.2 Y130.298 E5.90935
G0 F3600 X100.8 Y130.608
G1 F1350 X100.8 Y80.615 E5.98599
G0 F3600 X102.4 Y80.452
G1 F1350 X102.4 Y130.77 E6.0249
G0 F3600 X104 Y130.785
G1 F1350 X104 Y80.437 E6.02849
G0 F3600 X105.6 Y80.437
G1 F1350 X105.6 Y130.782 E6.02813
G0 F3600 X107.2 Y130.788
G1 F1350 X107.2 Y80.445 E6.02789
G0 F3600 X108.8 Y80.558
G1 F1350 X108.8 Y130.674 E6.00071
G0 F3600 X110.4 Y130.378
G1 F1350 X110.4 Y80.849 E5.93043
G0 F3600 X112 Y81.327
G1 F1350 X112 Y129.931 E5.81967
G0 F3600 X113.6 Y129.253
G1 F1350 X113.6 Y82.027 E5.65468
G0 F3600 X115.2 Y82.963
G1 F1350 X115.2 Y128.339 E5.43316
G0 F3600 X116.8 Y127.143
G1 F1350 X116.8 Y84.224 E5.13897
G0 F3600 X118.4 Y85.928
G1 F1350 X118.4 Y125.542 E4.74324
G0 F3600 X120 Y123.321
G1 F1350 X120 Y88.021 E4.2267
G0 F3600 X121.6 Y89.591
G1 F1350 X121.6 Y119.987 E3.63951
G0 F3600 X123.2 Y117.632
G1 F1350 X123.2 Y91.801 E3.09291
G0 F3600 X124.8 Y95.663
G1 F1350 X124.8 Y113.694 E2.15897
G0 F3600 X91.2 Y125.061
G1 F1350 X91.2 Y86.46 E4.62195
G0 F3600 X89.6 Y88.384
G1 F1350 X89.6 Y122.616 E4.09882
G0 F3600 X88 Y119.405
G1 F1350 X88 Y90.071 E3.51235
G0 F3600 X86.4 Y92.52
G1 F1350 X86.4 Y116.904 E2.91965
G0 F3600 X84.8 Y111.251
G1 F1350 X84.8 Y98.02 E1.58423
G0 F3600 X92.176 Y85.242
;TIME_ELAPSED:57.612155
;LAYER:-8
M140 S100
G0 X92.176 Y85.242 Z0.51
;TYPE:SUPPORT
G1 F1350 X92.075 Y85.354 E0.00752
G1 X91.59 Y85.933 E0.03768
G1 X123.231 Y117.574 E2.23244
G1 X123.076 Y117.853 E0.01592
G1 X122.691 Y118.448 E0.03536
G1 X90.99 Y86.747 E2.23668
G1 X90.858 Y86.93 E0.01126
G1 X90.718 Y87.143 E0.01272
G1 X90.482 Y87.472 E0.0202
G1 X90.397 Y87.568 E0.0064
G1 X122.098 Y119.27 E2.23671
G1 X121.981 Y119.421 E0.00953
G1 X121.601 Y119.981 E0.03376
G1 X121.536 Y120.121 E0.0077
G1 X89.702 Y88.288 E2.24603
G1 X89.153 Y88.797 E0.03735
G1 X88.978 Y88.978 E0.01256
G1 X121.1 Y121.1 E2.26638
G1 X121.031 Y121.266 E0.00897
G1 X120.657 Y122.071 E0.04428
G1 X88.297 Y89.711 E2.28317
G1 X87.841 Y90.263 E0.03572
G1 X87.727 Y90.409 E0.00924
G1 X87.666 Y90.494 E0.00522
G1 X120.179 Y123.008 E2.294
G1 X119.877 Y123.532 E0.03017
G1 X119.774 Y123.694 E0.00958
G1 X119.642 Y123.885 E0.01158
G1 X87.084 Y91.327 E2.29714
G1 X86.646 Y92.043 E0.04188
G1 X86.557 Y92.214 E0.00962
G1 X119.061 Y124.718 E2.29333
G1 X118.989 Y124.82 E0.00623
G1 X118.871 Y124.974 E0.00968
G1 X118.431 Y125.502 E0.03429
G1 X86.081 Y93.152 E2.28247
G1 X85.745 Y93.941 E0.04278
G1 X85.67 Y94.137 E0.01047
G1 X85.665 Y94.151 E0.00074
G1 X117.758 Y126.243 E2.2643
G1 X117.516 Y126.493 E0.01736
G1 X117.383 Y126.621 E0.00921
G1 X117.033 Y126.933 E0.02339
G1 X85.316 Y95.216 E2.23781
G1 X85.074 Y96.162 E0.04872
G1 X85.039 Y96.353 E0.00969
G1 X116.265 Y127.579 E2.20316
G1 X115.947 Y127.825 E0.02006
G1 X115.761 Y127.96 E0.01147
G1 X115.444 Y128.172 E0.01903
G1 X84.849 Y97.577 E2.15864
G1 X84.787 Y98.125 E0.02751
G1 X84.756 Y98.898 E0.0386
G1 X114.583 Y128.725 E2.10446
G1 X114.158 Y128.973 E0.02455
G1 X113.663 Y129.219 E0.02758
G1 X84.742 Y100.298 E2.04053
G1 X84.742 Y101.713 E0.07059
G1 X112.69 Y129.66 E1.97185
G1 X112.285 Y129.827 E0.02186
G1 X112.084 Y129.901 E0.01069
G1 X111.656 Y130.041 E0.02247
G1 X84.742 Y103.127 E1.89893
G1 X84.742 Y104.541 E0.07054
G1 X110.543 Y130.342 E1.8204
G1 X109.668 Y130.543 E0.04479
G1 X109.373 Y130.587 E0.01488
G1 X84.742 Y105.955 E1.73789
G1 X84.742 Y107.369 E0.07054
G1 X108.104 Y130.732 E1.64835
G1 X107.214 Y130.786 E0.04448
G1 X106.81 Y130.794 E0.02016
G1 X106.751 Y130.793 E0.00294
G1 X84.742 Y108.784 E1.55285
G1 X84.742 Y109.945 E0.05792
G1 X84.752 Y110.208 E0.01313
G1 X105.322 Y130.778 E1.45132
G1 X104.808 Y130.773 E0.02564
G1 X103.914 Y130.785 E0.04461
G1 X84.858 Y111.728 E1.34454
G1 X84.953 Y112.498 E0.03871
G1 X84.986 Y112.699 E0.01016
G1 X85.142 Y113.426 E0.0371
G1 X102.49 Y130.774 E1.224
G1 X101.85 Y130.742 E0.03197
G1 X101.623 Y130.721 E0.01137
G1 X100.926 Y130.625 E0.0351
G1 X85.764 Y115.462 E1.0698
G1 X85.858 Y115.716 E0.01351
G1 X86.349 Y116.802 E0.05946
G1 X86.437 Y116.977 E0.00977
G1 X86.927 Y117.859 E0.05034
G1 X86.986 Y117.955 E0.00562
G1 X87.271 Y118.384 E0.0257
G1 X99.178 Y130.29 E0.84007
G1 X98.196 Y129.999 E0.0511
G1 X98.033 Y129.944 E0.00858
G1 X97.196 Y129.622 E0.04474
G1 X97.051 Y129.56 E0.00787
G1 X97.015 Y129.542 E0.00201
G1 X89.138 Y121.665 E0.55576
G1 X89.566 Y122.558 E0.0494
G1 X90.328 Y123.855 E0.07505
G1 X90.448 Y124.04 E0.011
G1 X90.988 Y124.792 E0.04619
G1 X91.12 Y124.964 E0.01082
G1 X91.568 Y125.51 E0.03524
G1 X93.237 Y127.178 E0.11772
G0 F3600 X123.724 Y116.653
G1 F1350 X92.243 Y85.172 E2.22115
G1 X92.176 Y85.242 E0.00483
G0 F3600 X92.943 Y84.458
G1 F1350 X124.155 Y115.67 E2.20218
G1 X124.107 Y115.801 E0.00696
G1 X123.724 Y116.653 E0.0466
G0 F3600 X124.531 Y114.631
G1 F1350 X93.694 Y83.794 E2.17572
G1 X93.596 Y83.869 E0.00616
G1 X92.943 Y84.458 E0.04387
G0 F3600 X94.491 Y83.177
G1 F1350 X124.836 Y113.522 E2.141
G1 X124.802 Y113.682 E0.00816
G1 X124.531 Y114.631 E0.04924
G0 F3600 X125.072 Y112.344
G1 F1350 X95.339 Y82.611 E2.09782
G1 X95.322 Y82.621 E0.00098
G1 X94.584 Y83.111 E0.0442
G1 X94.491 Y83.177 E0.00569
G0 F3600 X96.241 Y82.099
G1 F1350 X125.208 Y111.066 E2.04378
G1 X125.197 Y111.316 E0.01248
G1 X125.072 Y112.344 E0.05166
G0 F3600 X125.254 Y109.698
G1 F1350 X97.198 Y81.642 E1.9795
G1 X96.392 Y82.02 E0.04441
G1 X96.242 Y82.098 E0.00843
G1 X96.241 Y82.099 E0.00007
G0 F3600 X98.217 Y81.246
G1 F1350 X125.254 Y108.284 E1.90764
G1 X125.254 Y109.698 E0.07054
G0 F3600 X125.255 Y106.87
G1 F1350 X99.301 Y80.917 E1.83116
G1 X99.209 Y80.941 E0.00474
G1 X98.359 Y81.196 E0.04427
G1 X98.217 Y81.246 E0.00751
G0 F3600 X100.465 Y80.666
G1 F1350 X125.255 Y105.456 E1.74907
G1 X125.255 Y106.87 E0.07054
G0 F3600 X125.256 Y104.042
G1 F1350 X101.715 Y80.502 E1.66091
G1 X101.481 Y80.519 E0.01171
G1 X101.312 Y80.538 E0.00848
G1 X100.465 Y80.666 E0.04274
G0 F3600 X103.064 Y80.436
G1 F1350 X125.256 Y102.628 E1.56577
G1 X125.256 Y104.042 E0.07054
G0 F3600 X125.256 Y101.215
G1 F1350 X104.478 Y80.436 E1.46604
G1 X103.064 Y80.436 E0.07054
G0 F3600 X105.892 Y80.436
G1 F1350 X125.256 Y99.801 E1.36627
G1 X125.256 Y101.215 E0.07054
G0 F3600 X125.224 Y98.354
G1 F1350 X107.319 Y80.448 E1.26333
G1 X106.997 Y80.436 E0.01608
G1 X105.892 Y80.436 E0.05513
G0 F3600 X108.847 Y80.563
G1 F1350 X125.028 Y96.744 E1.14166
G1 X125.131 Y97.365 E0.03141
G1 X125.224 Y98.354 E0.04956
G0 F3600 X124.578 Y94.879
G1 F1350 X110.597 Y80.898 E0.98644
G1 X110.088 Y80.768 E0.02621
G1 X109.208 Y80.607 E0.04463
G1 X109.041 Y80.583 E0.00842
G1 X108.847 Y80.563 E0.00973
G0 F3600 X112.736 Y81.624
G1 F1350 X123.576 Y92.463 E0.76479
G1 X123.913 Y93.138 E0.03764
G1 X123.991 Y93.314 E0.0096
G1 X124.324 Y94.126 E0.04379
G1 X124.389 Y94.301 E0.00931
G1 X124.578 Y94.879 E0.03034
G0 F3600 X118.182 Y85.656
G1 F1350 X116.42 Y83.893 E0.12435
G1 X115.984 Y83.532 E0.02824
G1 X115.843 Y83.423 E0.00889
G1 X115.125 Y82.909 E0.04405
G1 X114.961 Y82.8 E0.00982
G1 X114.211 Y82.343 E0.04382
G1 X113.255 Y81.848 E0.05371
G1 X112.736 Y81.624 E0.0282
G0 F3600 X91.951 Y85.2
;TIME_ELAPSED:137.287099
;LAYER:-7
G0 X91.951 Y85.2 Z0.61
G1 F1800 X91.615 Y85.6 E0.00869
G1 X118.397 Y85.6 E0.44539
G1 X118.436 Y85.647 E0.00102
G1 X118.71 Y86 E0.00743
G1 X91.284 Y86 E0.4561
G1 X91.228 Y86.072 E0.00152
G1 X90.994 Y86.4 E0.0067
G1 X119.016 Y86.4 E0.46601
G1 X119.076 Y86.485 E0.00173
G1 X119.286 Y86.8 E0.0063
G1 X90.708 Y86.8 E0.47525
G1 X90.702 Y86.808 E0.00017
G1 X90.549 Y87.038 E0.00459
G1 X90.433 Y87.2 E0.00331
G1 X119.568 Y87.2 E0.48452
G1 X119.827 Y87.543 E0.00715
G1 X119.884 Y87.6 E0.00134
G1 X90.106 Y87.6 E0.49521
G1 X89.899 Y87.835 E0.00521
G1 X89.726 Y88 E0.00398
G1 X120.275 Y88 E0.50803
G1 X120.71 Y88.4 E0.00983
G1 X89.285 Y88.4 E0.5226
G1 X89.119 Y88.55 E0.00372
G1 X88.877 Y88.8 E0.00579
G1 X121.134 Y88.8 E0.53644
G1 X121.509 Y89.2 E0.00912
G1 X88.489 Y89.2 E0.54912
G1 X88.374 Y89.318 E0.00274
G1 X88.26 Y89.446 E0.00285
G1 X88.133 Y89.6 E0.00332
G1 X121.875 Y89.6 E0.56113
G1 X122.199 Y90 E0.00856
G1 X87.8 Y90 E0.57206
G1 X87.687 Y90.136 E0.00294
G1 X87.569 Y90.288 E0.0032
G1 X87.49 Y90.4 E0.00228
G1 X122.513 Y90.4 E0.58243
G1 X122.794 Y90.8 E0.00813
G1 X87.204 Y90.8 E0.59186
G1 X87.06 Y91.001 E0.00411
G1 X86.942 Y91.179 E0.00355
G1 X86.93 Y91.2 E0.0004
G1 X123.073 Y91.2 E0.60106
G1 X123.154 Y91.326 E0.00249
G1 X123.317 Y91.6 E0.0053
G1 X86.685 Y91.6 E0.60919
G1 X86.477 Y91.939 E0.00661
G1 X86.444 Y92 E0.00115
G1 X123.554 Y92 E0.61714
G1 X123.614 Y92.103 E0.00198
G1 X123.694 Y92.25 E0.00278
G1 X123.769 Y92.4 E0.00279
G1 X86.234 Y92.4 E0.62421
G1 X86.029 Y92.8 E0.00747
G1 X123.968 Y92.8 E0.63093
G1 X124.096 Y93.057 E0.00477
G1 X124.16 Y93.2 E0.00261
G1 X85.844 Y93.2 E0.6372
G1 X85.674 Y93.6 E0.00723
G1 X124.326 Y93.6 E0.64279
G1 X124.49 Y94 E0.00719
G1 X85.51 Y94 E0.64824
G1 X85.484 Y94.066 E0.00118
G1 X85.37 Y94.4 E0.00587
G1 X124.633 Y94.4 E0.65295
G1 X124.764 Y94.8 E0.007
G1 X85.234 Y94.8 E0.65739
G1 X85.196 Y94.909 E0.00192
G1 X85.15 Y95.063 E0.00267
G1 X85.115 Y95.2 E0.00235
G1 X124.89 Y95.2 E0.66146
G1 X124.904 Y95.249 E0.00085
G1 X124.991 Y95.6 E0.00601
G1 X85.013 Y95.6 E0.66484
G1 X84.911 Y96 E0.00686
G1 X125.09 Y96 E0.66818
G1 X125.123 Y96.137 E0.00234
G1 X125.158 Y96.301 E0.00279
G1 X125.175 Y96.4 E0.00167
G1 X84.831 Y96.4 E0.67092
G1 X84.759 Y96.8 E0.00676
G1 X125.241 Y96.8 E0.67322
G1 X125.308 Y97.2 E0.00674
G1 X84.689 Y97.2 E0.6755
G1 X84.644 Y97.6 E0.00669
G1 X125.355 Y97.6 E0.67703
G1 X125.393 Y98 E0.00668
G1 X84.6 Y98 E0.67839
G1 X84.588 Y98.104 E0.00174
G1 X84.577 Y98.4 E0.00493
G1 X125.43 Y98.4 E0.67939
G1 X125.432 Y98.426 E0.00043
G1 X125.443 Y98.8 E0.00622
G1 X84.561 Y98.8 E0.67987
G1 X84.545 Y99.2 E0.00666
G1 X125.454 Y99.2 E0.68032
G1 X125.457 Y99.315 E0.00191
G1 X125.456 Y99.6 E0.00474
G1 X84.542 Y99.6 E0.6804
G1 X84.542 Y100 E0.00665
G1 X125.456 Y100 E0.6804
G1 X125.456 Y100.4 E0.00665
G1 X84.542 Y100.4 E0.6804
G1 X84.542 Y100.8 E0.00665
G1 X125.456 Y100.8 E0.6804
G1 X125.456 Y101.2 E0.00665
G1 X84.542 Y101.2 E0.6804
G1 X84.542 Y101.6 E0.00665
G1 X125.456 Y101.6 E0.6804
G1 X125.456 Y102 E0.00665
G1 X84.542 Y102 E0.6804
G1 X84.542 Y102.4 E0.00665
G1 X125.456 Y102.4 E0.6804
G1 X125.456 Y102.8 E0.00665
G1 X84.542 Y102.8 E0.6804
G1 X84.543 Y103.2 E0.00665
G1 X125.456 Y103.2 E0.68039
