;FLAVOR:RepRap
;TIME:3191
;Filament used: 1.88143m
;Layer height: 0.1
;Generated with Cura_SteamEngine 3.0.3
T0
M190 S100
M104 S240
M109 S240
M82 ; absolute extrusion mode
G21 ;metric values
G90 ;absolute positioning
M82 ;set extruder to absolute mode
M107 ;start with the fan off
G28 X0 Y0 ;move X/Y to min endstops
G28 Z0 ;move Z to min endstops
G1 Z15.0 F9000 ;move the platform down 15mm
G92 E0 ;zero the extruded length
G1 F200 E3 ;extrude 3mm of feed stock
G92 E0 ;zero the extruded length again
G1 F9000
;Put printing message on LCD screen
M117 Printing...
M83 ; relative extrusion mode
;LAYER_COUNT:128
;LAYER:-9
M107
G0 F3600 X71.005 Y70.977 Z0.36
G1 F1350 X71.894 Y70.155 E0.14498
G1 X72.284 Y69.825 E0.06117
G1 X73.007 Y69.251 E0.11053
G1 X73.163 Y69.137 E0.02313
G1 X74.127 Y68.491 E0.13895
G1 X74.597 Y68.204 E0.06594
G1 X75.419 Y67.74 E0.11302
G1 X75.56 Y67.668 E0.01896
G1 X76.7 Y67.143 E0.15028
G1 X77.13 Y66.965 E0.05572
G1 X78.048 Y66.624 E0.11726
G1 X78.186 Y66.579 E0.01738
G1 X79.262 Y66.271 E0.13401
G1 X79.803 Y66.14 E0.06665
G1 X80.792 Y65.94 E0.12082
G1 X80.969 Y65.911 E0.02148
G1 X82.141 Y65.772 E0.14131
G1 X82.609 Y65.735 E0.05621
G1 X83.636 Y65.691 E0.12308
G1 X83.784 Y65.69 E0.01772
G1 X84.978 Y65.736 E0.14307
G1 X85.5 Y65.778 E0.0627
G1 X86.45 Y65.887 E0.1145
G1 X87.687 Y66.123 E0.15079
G1 X88.305 Y66.27 E0.07606
G1 X89.203 Y66.52 E0.11161
G1 X89.386 Y66.579 E0.02302
G1 X90.465 Y66.974 E0.13758
G1 X90.919 Y67.161 E0.05879
G1 X91.842 Y67.582 E0.12147
G1 X92.004 Y67.663 E0.02169
G1 X93.066 Y68.257 E0.1457
G1 X93.513 Y68.533 E0.0629
G1 X94.284 Y69.046 E0.11088
G1 X94.433 Y69.153 E0.02196
G1 X95.381 Y69.9 E0.14452
G1 X95.778 Y70.242 E0.06274
G1 X96.586 Y70.988 E0.13168
G1 X139.012 Y113.414 E7.18412
G1 X139.845 Y114.32 E0.14736
G1 X140.175 Y114.71 E0.06117
G1 X140.749 Y115.433 E0.11053
G1 X140.863 Y115.589 E0.02313
G1 X141.509 Y116.553 E0.13895
G1 X141.796 Y117.022 E0.06584
G1 X142.254 Y117.835 E0.11173
G1 X142.334 Y117.991 E0.02099
G1 X142.843 Y119.093 E0.14534
G1 X143.034 Y119.555 E0.05986
G1 X143.376 Y120.475 E0.11752
G1 X143.426 Y120.63 E0.0195
G1 X143.735 Y121.71 E0.1345
G1 X143.865 Y122.249 E0.06639
G1 X144.059 Y123.213 E0.11774
G1 X144.09 Y123.404 E0.02317
G1 X144.228 Y124.561 E0.13952
G1 X144.268 Y125.084 E0.06281
G1 X144.309 Y126.06 E0.11697
G1 X144.31 Y126.206 E0.01748
G1 X144.264 Y127.406 E0.14379
G1 X144.222 Y127.935 E0.06354
G1 X144.116 Y128.856 E0.11101
G1 X144.087 Y129.042 E0.02254
G1 X143.878 Y130.116 E0.13101
G1 X143.73 Y130.732 E0.07586
G1 X143.479 Y131.635 E0.11222
G1 X143.426 Y131.801 E0.02086
G1 X142.993 Y132.971 E0.14938
G1 X142.791 Y133.452 E0.06247
G1 X142.344 Y134.416 E0.12723
G1 X141.748 Y135.484 E0.14644
G1 X141.467 Y135.939 E0.06403
G1 X140.954 Y136.71 E0.11088
G1 X140.847 Y136.859 E0.02196
G1 X140.1 Y137.807 E0.14452
G1 X139.757 Y138.204 E0.06282
G1 X139.123 Y138.894 E0.1122
G1 X138.995 Y139.023 E0.02176
G1 X138.111 Y139.841 E0.14421
G1 X137.716 Y140.175 E0.06194
G1 X136.993 Y140.749 E0.11053
G1 X136.841 Y140.86 E0.02254
G1 X135.873 Y141.509 E0.13954
G1 X135.403 Y141.796 E0.06594
G1 X134.581 Y142.26 E0.11302
G1 X134.44 Y142.332 E0.01896
G1 X133.303 Y142.856 E0.1499
G1 X132.87 Y143.035 E0.0561
G1 X131.952 Y143.376 E0.11726
G1 X131.814 Y143.421 E0.01738
G1 X130.738 Y143.729 E0.13401
G1 X130.197 Y143.86 E0.06665
G1 X129.208 Y144.06 E0.12082
G1 X129.031 Y144.089 E0.02148
G1 X127.859 Y144.228 E0.14131
G1 X127.391 Y144.265 E0.05621
G1 X126.364 Y144.309 E0.12308
G1 X126.216 Y144.31 E0.01772
G1 X125.022 Y144.264 E0.14307
G1 X124.5 Y144.222 E0.0627
G1 X123.549 Y144.113 E0.11461
G1 X122.313 Y143.877 E0.15067
G1 X121.695 Y143.73 E0.07606
G1 X120.797 Y143.48 E0.11161
G1 X120.614 Y143.421 E0.02302
G1 X119.535 Y143.026 E0.13758
G1 X119.081 Y142.839 E0.05879
G1 X117.996 Y142.337 E0.14315
G1 X116.934 Y141.743 E0.1457
G1 X116.487 Y141.467 E0.0629
G1 X115.716 Y140.954 E0.11088
G1 X115.567 Y140.847 E0.02196
G1 X114.612 Y140.094 E0.14562
G1 X114.223 Y139.759 E0.06147
G1 X113.414 Y139.012 E0.13185
G1 X70.998 Y96.596 E7.18243
G1 X70.151 Y95.675 E0.14982
G1 X69.822 Y95.286 E0.061
G1 X69.241 Y94.554 E0.1119
G1 X69.137 Y94.411 E0.02117
G1 X68.487 Y93.441 E0.13981
G1 X68.2 Y92.971 E0.06594
G1 X67.746 Y92.165 E0.11076
G1 X67.664 Y92.006 E0.02142
G1 X67.153 Y90.898 E0.1461
G1 X66.962 Y90.434 E0.06008
G1 X66.624 Y89.525 E0.11612
G1 X66.574 Y89.37 E0.0195
G1 X66.265 Y88.29 E0.1345
G1 X66.135 Y87.75 E0.0665
G1 X65.941 Y86.786 E0.11774
G1 X65.91 Y86.596 E0.02305
G1 X65.771 Y85.431 E0.14048
G1 X65.732 Y84.913 E0.0622
G1 X65.691 Y83.94 E0.11661
G1 X65.69 Y83.794 E0.01748
G1 X65.736 Y82.594 E0.14379
G1 X65.781 Y82.039 E0.06667
G1 X65.884 Y81.144 E0.10787
G1 X65.913 Y80.958 E0.02254
G1 X66.122 Y79.884 E0.13101
G1 X66.241 Y79.381 E0.06189
G1 X66.521 Y78.365 E0.12619
G1 X66.574 Y78.199 E0.02086
G1 X67.007 Y77.029 E0.14938
G1 X67.214 Y76.536 E0.06402
G1 X67.656 Y75.584 E0.12568
G1 X68.252 Y74.516 E0.14644
G1 X68.533 Y74.061 E0.06403
G1 X69.046 Y73.29 E0.11088
G1 X69.153 Y73.141 E0.02196
G1 X69.906 Y72.186 E0.14562
G1 X70.243 Y71.796 E0.06172
G1 X70.877 Y71.106 E0.1122
G1 X71.005 Y70.977 E0.02176
G0 F3600 X70.4 Y71.625
G1 F1350 X70.4 Y95.945 E2.91199
G0 F3600 X72 Y97.598
G1 F1350 X72 Y70.065 E3.2967
G0 F3600 X73.6 Y68.844
G1 F1350 X73.6 Y99.198 E3.63448
G0 F3600 X75.2 Y100.798
G1 F1350 X75.2 Y67.863 E3.94352
G0 F3600 X76.8 Y67.101
G1 F1350 X76.8 Y102.398 E4.22634
G0 F3600 X78.4 Y103.998
G1 F1350 X78.4 Y66.517 E4.48784
G0 F3600 X80 Y66.1
G1 F1350 X80 Y105.598 E4.72935
G0 F3600 X81.6 Y107.198
G1 F1350 X81.6 Y65.836 E4.95254
G0 F3600 X83.2 Y65.709
G1 F1350 X83.2 Y108.798 E5.15933
G0 F3600 X84.8 Y110.398
G1 F1350 X84.8 Y65.73 E5.34839
G0 F3600 X86.4 Y65.882
G1 F1350 X86.4 Y111.998 E5.52177
G0 F3600 X88 Y113.598
G1 F1350 X88 Y66.198 E5.67551
G0 F3600 X89.6 Y66.658
G1 F1350 X89.6 Y115.198 E5.81201
G0 F3600 X91.2 Y116.798
G1 F1350 X91.2 Y67.29 E5.92791
G0 F3600 X92.8 Y68.109
G1 F1350 X92.8 Y118.398 E6.02143
G0 F3600 X94.4 Y119.998
G1 F1350 X94.4 Y69.13 E6.09076
G0 F3600 X96 Y70.447
G1 F1350 X96 Y121.598 E6.12464
G0 F3600 X97.6 Y123.198
G1 F1350 X97.6 Y72.002 E6.13003
G0 F3600 X99.2 Y73.602
G1 F1350 X99.2 Y124.798 E6.13003
G0 F3600 X100.8 Y126.398
G1 F1350 X100.8 Y75.202 E6.13003
G0 F3600 X102.4 Y76.802
G1 F1350 X102.4 Y127.998 E6.13003
G0 F3600 X104 Y129.598
G1 F1350 X104 Y78.402 E6.13003
G0 F3600 X105.6 Y80.002
G1 F1350 X105.6 Y131.198 E6.13003
G0 F3600 X107.2 Y132.798
G1 F1350 X107.2 Y81.602 E6.13003
G0 F3600 X108.8 Y83.202
G1 F1350 X108.8 Y134.398 E6.13003
G0 F3600 X110.4 Y135.998
G1 F1350 X110.4 Y84.802 E6.13003
G0 F3600 X112 Y86.402
G1 F1350 X112 Y137.598 E6.13003
G0 F3600 X113.6 Y139.183
G1 F1350 X113.6 Y88.002 E6.12823
G0 F3600 X115.2 Y89.602
G1 F1350 X115.2 Y140.557 E6.10117
G0 F3600 X116.8 Y141.66
G1 F1350 X116.8 Y91.202 E6.04166
G0 F3600 X118.4 Y92.802
G1 F1350 X118.4 Y142.523 E5.95342
G0 F3600 X120 Y143.196
G1 F1350 X120 Y94.402 E5.84242
G0 F3600 X121.6 Y96.002
G1 F1350 X121.6 Y143.703 E5.71155
G0 F3600 X123.2 Y144.046
G1 F1350 X123.2 Y97.602 E5.56104
G0 F3600 X124.8 Y99.202
G1 F1350 X124.8 Y144.246 E5.39341
G0 F3600 X126.4 Y144.308
G1 F1350 X126.4 Y100.802 E5.20926
G0 F3600 X128 Y102.402
G1 F1350 X128 Y144.212 E5.00618
G0 F3600 X129.6 Y143.981
G1 F1350 X129.6 Y104.002 E4.78694
G0 F3600 X131.2 Y105.602
G1 F1350 X131.2 Y143.597 E4.54939
G0 F3600 X132.8 Y143.062
G1 F1350 X132.8 Y107.202 E4.29375
G0 F3600 X134.4 Y108.802
G1 F1350 X134.4 Y142.351 E4.01704
G0 F3600 X136 Y141.424
G1 F1350 X136 Y110.402 E3.71447
G0 F3600 X137.6 Y112.002
G1 F1350 X137.6 Y140.268 E3.38447
G0 F3600 X139.2 Y138.811
G1 F1350 X139.2 Y113.619 E3.0164
G0 F3600 X140.8 Y115.503
G1 F1350 X140.8 Y136.919 E2.56428
G0 F3600 X142.4 Y134.296
G1 F1350 X142.4 Y118.134 E1.93518
G0 F3600 X144 Y122.92
G1 F1350 X144 Y129.49 E0.78667
G0 F3600 X68.8 Y93.908
G1 F1350 X68.8 Y73.659 E2.42454
G0 F3600 X67.2 Y76.569
G1 F1350 X67.2 Y90.999 E1.7278
G0 F3600 X70.99 Y70.99
;TIME_ELAPSED:104.901168
;LAYER:-8
M140 S100
G0 X70.99 Y70.99 Z0.51
;TYPE:SUPPORT
G1 F1350 X71.004 Y70.977 E0.00095
G1 X71.725 Y70.311 E0.04897
G1 X139.691 Y138.276 E4.79533
G1 X139.756 Y138.204 E0.00484
G1 X140.099 Y137.806 E0.02621
G1 X140.335 Y137.507 E0.019
G1 X72.489 Y69.661 E4.7869
G1 X73.005 Y69.251 E0.03288
G1 X73.162 Y69.137 E0.00968
G1 X73.293 Y69.05 E0.00785
G1 X140.953 Y136.71 E4.77378
G1 X141.465 Y135.939 E0.04617
G1 X141.516 Y135.859 E0.00473
G1 X74.14 Y68.483 E4.75374
G1 X74.596 Y68.203 E0.0267
G1 X75.03 Y67.959 E0.02484
G1 X142.036 Y134.965 E4.72764
G1 X142.342 Y134.416 E0.03136
G1 X142.52 Y134.034 E0.02103
G1 X75.966 Y67.481 E4.69571
G1 X76.699 Y67.143 E0.04027
G1 X76.942 Y67.042 E0.01313
G1 X142.957 Y133.057 E4.65771
G1 X142.992 Y132.971 E0.00463
G1 X143.341 Y132.028 E0.05017
G1 X77.967 Y66.654 E4.61249
G1 X78.046 Y66.624 E0.00422
G1 X78.185 Y66.579 E0.00729
G1 X79.057 Y66.329 E0.04526
G1 X143.67 Y130.942 E4.5588
G1 X143.728 Y130.732 E0.01087
G1 X143.877 Y130.116 E0.03162
G1 X143.94 Y129.797 E0.01622
G1 X80.202 Y66.06 E4.49702
G1 X80.791 Y65.94 E0.02999
G1 X80.967 Y65.91 E0.00891
G1 X81.414 Y65.858 E0.02245
G1 X144.146 Y128.59 E4.42608
G1 X144.221 Y127.935 E0.03289
G1 X144.263 Y127.405 E0.02652
G1 X144.267 Y127.296 E0.00544
G1 X82.702 Y65.731 E4.34374
G1 X83.635 Y65.69 E0.04659
G1 X83.783 Y65.69 E0.00738
G1 X84.087 Y65.702 E0.01518
G1 X144.302 Y125.917 E4.24849
G1 X144.267 Y125.083 E0.04165
G1 X144.227 Y124.561 E0.02612
G1 X144.209 Y124.41 E0.00759
G1 X85.587 Y65.788 E4.1361
G1 X86.449 Y65.886 E0.04328
G1 X87.254 Y66.04 E0.04089
G1 X143.966 Y122.753 E4.00137
G1 X143.864 Y122.249 E0.02565
G1 X143.734 Y121.709 E0.02771
G1 X143.493 Y120.865 E0.04379
G1 X89.125 Y66.498 E3.83592
G1 X89.202 Y66.519 E0.00398
G1 X89.384 Y66.579 E0.00956
G1 X90.464 Y66.974 E0.05737
G1 X90.918 Y67.161 E0.0245
G1 X91.44 Y67.399 E0.02862
G1 X142.591 Y118.549 E3.60894
G1 X142.333 Y117.99 E0.03072
G1 X142.252 Y117.835 E0.00873
G1 X141.794 Y117.021 E0.0466
G1 X141.508 Y116.553 E0.02736
G1 X140.862 Y115.588 E0.05794
G1 X140.748 Y115.433 E0.0096
G1 X140.207 Y114.751 E0.04343
G1 X95.267 Y69.811 E3.17076
G0 F3600 X70.99 Y70.99
G1 F1350 X139.008 Y139.008 E4.79904
G1 X138.995 Y139.022 E0.00095
G1 X138.274 Y139.688 E0.04897
G1 X70.308 Y71.722 E4.79537
G1 X70.242 Y71.795 E0.00491
G1 X69.905 Y72.185 E0.02571
G1 X69.663 Y72.491 E0.01946
G1 X137.509 Y140.338 E4.78694
G1 X136.993 Y140.748 E0.03288
G1 X136.841 Y140.859 E0.00939
G1 X136.706 Y140.949 E0.00809
G1 X69.046 Y73.288 E4.77381
G1 X68.533 Y74.06 E0.04624
G1 X68.483 Y74.14 E0.00471
G1 X135.859 Y141.516 E4.75374
G1 X135.403 Y141.795 E0.02667
G1 X134.969 Y142.04 E0.02486
G1 X67.962 Y75.033 E4.72771
G1 X67.655 Y75.582 E0.03138
G1 X67.478 Y75.963 E0.02096
G1 X134.032 Y142.518 E4.69578
G1 X133.303 Y142.854 E0.04005
G1 X133.056 Y142.956 E0.01333
G1 X67.042 Y76.941 E4.65768
G1 X67.006 Y77.027 E0.00465
G1 X66.656 Y77.97 E0.05018
G1 X132.031 Y143.345 E4.61256
G1 X131.952 Y143.375 E0.00422
G1 X131.813 Y143.42 E0.00729
G1 X130.942 Y143.669 E0.0452
G1 X66.329 Y79.057 E4.55876
G1 X66.241 Y79.38 E0.0167
G1 X66.121 Y79.883 E0.0258
G1 X66.059 Y80.201 E0.01616
G1 X129.797 Y143.939 E4.49706
G1 X129.208 Y144.058 E0.02998
G1 X129.031 Y144.088 E0.00896
G1 X128.584 Y144.14 E0.02245
G1 X65.852 Y81.409 E4.42605
G1 X65.78 Y82.038 E0.03159
G1 X65.736 Y82.593 E0.02778
G1 X65.731 Y82.702 E0.00544
G1 X127.296 Y144.267 E4.34374
G1 X126.363 Y144.308 E0.04659
G1 X126.215 Y144.309 E0.00738
G1 X125.912 Y144.297 E0.01513
G1 X65.697 Y84.082 E4.24849
G1 X65.731 Y84.912 E0.04144
G1 X65.77 Y85.429 E0.02587
G1 X65.789 Y85.588 E0.00799
G1 X124.411 Y144.21 E4.1361
G1 X123.549 Y144.111 E0.04329
G1 X122.745 Y143.958 E0.04083
G1 X66.033 Y87.247 E4.0013
G1 X66.134 Y87.749 E0.02555
G1 X66.264 Y88.289 E0.02771
G1 X66.506 Y89.133 E0.0438
G1 X120.873 Y143.5 E3.83589
G1 X120.797 Y143.479 E0.00393
G1 X120.614 Y143.419 E0.00961
G1 X119.534 Y143.025 E0.05735
G1 X119.081 Y142.838 E0.02445
G1 X118.551 Y142.593 E0.02913
G1 X67.406 Y91.447 E3.60859
G1 X67.663 Y92.005 E0.03065
G1 X67.746 Y92.164 E0.00895
G1 X68.2 Y92.97 E0.04615
G1 X68.486 Y93.44 E0.02745
G1 X69.136 Y94.41 E0.05825
G1 X69.241 Y94.552 E0.00881
G1 X69.794 Y95.25 E0.04443
G1 X114.732 Y140.188 E3.17062
G0 F3600 X70.857 Y70.842
;TIME_ELAPSED:253.551841
;LAYER:-7
G0 X70.857 Y70.842 Z0.61
G1 F1800 X70.724 Y70.976 E0.00314
G1 X70.519 Y71.2 E0.00505
G1 X97.082 Y71.2 E0.44174
G1 X97.482 Y71.6 E0.00941
G1 X70.151 Y71.6 E0.45452
G1 X70.095 Y71.66 E0.00136
G1 X69.803 Y72 E0.00745
G1 X97.882 Y72 E0.46696
G1 X98.282 Y72.4 E0.00941
G1 X69.483 Y72.4 E0.47893
G1 X69.168 Y72.8 E0.00847
G1 X98.682 Y72.8 E0.49082
G1 X99.082 Y73.2 E0.00941
G1 X68.867 Y73.2 E0.50248
G1 X68.6 Y73.6 E0.008
G1 X99.482 Y73.6 E0.51357
G1 X99.882 Y74 E0.00941
G1 X68.337 Y74 E0.5246
G1 X68.089 Y74.4 E0.00783
G1 X100.282 Y74.4 E0.53537
G1 X100.682 Y74.8 E0.00941
G1 X67.865 Y74.8 E0.54575
G1 X67.642 Y75.2 E0.00762
G1 X101.082 Y75.2 E0.55611
G1 X101.482 Y75.6 E0.00941
G1 X67.424 Y75.6 E0.56639
G1 X67.411 Y75.625 E0.00047
G1 X67.24 Y76 E0.00685
G1 X101.882 Y76 E0.5761
G1 X102.282 Y76.4 E0.00941
G1 X67.057 Y76.4 E0.58579
G1 X67.032 Y76.453 E0.00097
G1 X66.889 Y76.8 E0.00624
G1 X102.682 Y76.8 E0.59524
G1 X103.082 Y77.2 E0.00941
G1 X66.727 Y77.2 E0.60459
G1 X66.58 Y77.6 E0.00709
G1 X103.482 Y77.6 E0.61368
G1 X103.882 Y78 E0.00941
G1 X66.434 Y78 E0.62276
G1 X66.385 Y78.131 E0.00233
G1 X66.333 Y78.296 E0.00288
G1 X66.305 Y78.4 E0.00179
G1 X104.282 Y78.4 E0.63156
G1 X104.682 Y78.8 E0.00941
G1 X66.195 Y78.8 E0.64004
G1 X66.084 Y79.2 E0.0069
G1 X105.082 Y79.2 E0.64854
G1 X105.482 Y79.6 E0.00941
G1 X65.983 Y79.6 E0.65687
G1 X65.958 Y79.702 E0.00175
G1 X65.899 Y80 E0.00505
G1 X105.882 Y80 E0.66492
G1 X106.282 Y80.4 E0.00941
G1 X65.82 Y80.4 E0.67289
G1 X65.741 Y80.8 E0.00678
G1 X106.682 Y80.8 E0.68085
G1 X107.082 Y81.2 E0.00941
G1 X65.678 Y81.2 E0.68855
G1 X65.632 Y81.6 E0.0067
G1 X107.482 Y81.6 E0.69597
G1 X107.882 Y82 E0.00941
G1 X65.586 Y82 E0.70339
G1 X65.572 Y82.12 E0.00201
G1 X65.551 Y82.4 E0.00467
G1 X108.282 Y82.4 E0.71062
G1 X108.682 Y82.8 E0.00941
G1 X65.528 Y82.8 E0.71765
G1 X65.512 Y83.2 E0.00666
G1 X109.082 Y83.2 E0.72457
G1 X109.482 Y83.6 E0.00941
G1 X65.497 Y83.6 E0.73147
G1 X65.489 Y83.786 E0.0031
G1 X65.49 Y83.949 E0.00271
G1 X65.492 Y84 E0.00085
G1 X109.882 Y84 E0.73821
G1 X110.282 Y84.4 E0.00941
G1 X65.508 Y84.4 E0.74459
G1 X65.525 Y84.8 E0.00666
G1 X110.682 Y84.8 E0.75096
G1 X111.082 Y85.2 E0.00941
G1 X65.551 Y85.2 E0.75718
G1 X65.572 Y85.451 E0.00419
G1 X65.589 Y85.6 E0.00249
G1 X111.482 Y85.6 E0.7632
G1 X111.882 Y86 E0.00941
G1 X65.637 Y86 E0.76906
G1 X65.685 Y86.4 E0.0067
G1 X112.282 Y86.4 E0.77491
G1 X112.682 Y86.8 E0.00941
G1 X65.74 Y86.8 E0.78065
G1 X65.742 Y86.812 E0.0002
G1 X65.82 Y87.2 E0.00658
G1 X113.082 Y87.2 E0.78597
G1 X113.482 Y87.6 E0.00941
G1 X65.901 Y87.6 E0.79128
G1 X65.938 Y87.783 E0.0031
G1 X65.99 Y88 E0.00371
G1 X113.882 Y88 E0.79645
G1 X114.282 Y88.4 E0.00941
G1 X66.088 Y88.4 E0.80147
G1 X66.202 Y88.8 E0.00692
G1 X114.682 Y88.8 E0.80623
G1 X115.082 Y89.2 E0.00941
G1 X66.316 Y89.2 E0.81098
G1 X66.379 Y89.418 E0.00377
G1 X66.436 Y89.594 E0.00308
G0 F3600 X66.438 Y89.6
G1 F1800 X115.482 Y89.6 E0.81561
G1 X115.882 Y90 E0.00941
G1 X66.586 Y90 E0.8198
G1 X66.735 Y90.4 E0.0071
G1 X116.282 Y90.4 E0.82397
G1 X116.682 Y90.8 E0.00941
G1 X66.897 Y90.8 E0.82793
G1 X67.013 Y91.078 E0.00501
G1 X67.069 Y91.2 E0.00223
G1 X117.082 Y91.2 E0.83172
G1 X117.482 Y91.6 E0.00941
G1 X67.255 Y91.6 E0.83528
G1 X67.441 Y92 E0.00734
G1 X117.882 Y92 E0.83884
G1 X118.283 Y92.4 E0.00942
G1 X67.649 Y92.4 E0.84205
G1 X67.875 Y92.8 E0.00764
G1 X118.683 Y92.8 E0.84494
G1 X119.083 Y93.2 E0.00941
G1 X68.104 Y93.2 E0.84778
G1 X68.319 Y93.548 E0.0068
G1 X68.353 Y93.6 E0.00103
G1 X119.483 Y93.6 E0.8503
G1 X119.883 Y94 E0.00941
G1 X68.621 Y94 E0.85249
G1 X68.889 Y94.4 E0.00801
G1 X120.283 Y94.4 E0.85469
G1 X120.683 Y94.8 E0.00941
G1 X69.181 Y94.8 E0.85648
G1 X69.499 Y95.2 E0.0085
G1 X121.083 Y95.2 E0.85785
G1 X121.483 Y95.6 E0.00941
G1 X69.824 Y95.6 E0.85909
G1 X70.089 Y95.907 E0.00674
G1 X70.174 Y96 E0.0021
G1 X121.883 Y96 E0.85992
G1 X122.283 Y96.4 E0.00941
G1 X70.544 Y96.4 E0.86042
