;FLAVOR:RepRap
;TIME:1417
;Filament used: 0.907336m
;Layer height: 0.1
;Generated with Cura_SteamEngine 3.0.3
T0
M190 S100
M104 S240
M109 S240
M82 ; absolute extrusion mode
G21 ;metric values
G90 ;absolute positioning
M82 ;set extruder to absolute mode
M107 ;start with the fan off
G28 X0 Y0 ;move X/Y to min endstops
G28 Z0 ;move Z to min endstops
G1 Z15.0 F9000 ;move the platform down 15mm
G92 E0 ;zero the extruded length
G1 F200 E3 ;extrude 3mm of feed stock
G92 E0 ;zero the extruded length again
G1 F9000
;Put printing message on LCD screen
M117 Printing...
M83 ; relative extrusion mode
;LAYER_COUNT:88
;LAYER:-9
M107
G0 F3600 X91.62 Y83.828 Z0.36
G1 F1350 X92.063 Y83.346 E0.07839
G1 X92.424 Y82.974 E0.06207
G1 X93.203 Y82.231 E0.1289
G1 X93.689 Y81.819 E0.07629
G1 X94.038 Y81.54 E0.0535
G1 X94.892 Y80.903 E0.12757
G1 X95.496 Y80.507 E0.08648
G1 X95.82 Y80.308 E0.04553
G1 X96.781 Y79.763 E0.13228
G1 X97.456 Y79.431 E0.09007
G1 X97.707 Y79.316 E0.03306
G1 X98.659 Y78.918 E0.12355
G1 X99.408 Y78.652 E0.09517
G1 X99.797 Y78.529 E0.04885
G1 X100.87 Y78.232 E0.13331
G1 X101.536 Y78.089 E0.08156
G1 X101.962 Y78.012 E0.05183
G1 X102.903 Y77.87 E0.11395
G1 X103.703 Y77.795 E0.09621
G1 X104.128 Y77.77 E0.05098
G1 X105.233 Y77.747 E0.13234
G1 X105.866 Y77.768 E0.07583
G1 X106.245 Y77.792 E0.04547
G1 X107.283 Y77.893 E0.12487
G1 X108.045 Y78.012 E0.09235
G1 X108.402 Y78.078 E0.04347
G1 X109.459 Y78.314 E0.12968
G1 X110.256 Y78.545 E0.09936
G1 X110.631 Y78.666 E0.04718
G1 X111.673 Y79.047 E0.13284
G1 X112.283 Y79.311 E0.07959
G1 X112.622 Y79.467 E0.04468
G1 X113.624 Y79.98 E0.13479
G1 X114.26 Y80.355 E0.0884
G1 X114.564 Y80.546 E0.04299
G1 X115.478 Y81.166 E0.13224
G1 X116.016 Y81.58 E0.08128
G1 X116.326 Y81.833 E0.04791
G1 X117.168 Y82.571 E0.13406
G1 X117.66 Y83.055 E0.08264
G1 X117.893 Y83.298 E0.04031
G1 X118.647 Y84.141 E0.13542
G1 X119.083 Y84.692 E0.08413
G1 X119.324 Y85.015 E0.04825
G1 X119.971 Y85.955 E0.13664
G1 X120.323 Y86.538 E0.08154
G1 X120.486 Y86.822 E0.03921
G1 X120.956 Y87.713 E0.12062
G1 X121.284 Y88.435 E0.09495
G1 X121.422 Y88.76 E0.04228
G1 X121.804 Y89.771 E0.12941
G1 X122.01 Y90.376 E0.07652
G1 X122.028 Y90.37 E0.00227
G1 X122.073 Y90.489 E0.01523
G1 X122.484 Y91.237 E0.10219
G1 X123.044 Y92.089 E0.12208
G1 X123.338 Y92.597 E0.07028
G1 X123.8 Y93.505 E0.12198
G1 X123.887 Y93.692 E0.0247
G1 X124.216 Y94.465 E0.10059
G1 X124.558 Y95.446 E0.12439
G1 X124.607 Y95.605 E0.01992
G1 X124.881 Y96.645 E0.12878
G1 X125.077 Y97.681 E0.12625
G1 X125.101 Y97.848 E0.0202
G1 X125.212 Y98.859 E0.12178
G1 X125.257 Y100.014 E0.1384
G1 X125.255 Y110.061 E1.20299
G1 X125.198 Y111.317 E0.15054
G1 X125.073 Y112.344 E0.12388
G1 X125.045 Y112.511 E0.02028
G1 X124.803 Y113.683 E0.14329
G1 X124.526 Y114.652 E0.12067
G1 X124.456 Y114.864 E0.02673
G1 X124.108 Y115.802 E0.11979
G1 X123.693 Y116.722 E0.12085
G1 X123.611 Y116.886 E0.02195
G1 X123.077 Y117.854 E0.13237
G1 X122.518 Y118.717 E0.12312
G1 X122.393 Y118.893 E0.02585
G1 X121.982 Y119.422 E0.08021
G1 X121.602 Y119.982 E0.08103
G1 X121.183 Y120.876 E0.11822
G1 X121.116 Y121.063 E0.02378
G1 X121.032 Y121.268 E0.02653
G1 X120.4 Y122.623 E0.17902
G1 X119.878 Y123.533 E0.12561
G1 X119.775 Y123.696 E0.02309
G1 X118.99 Y124.821 E0.16426
G1 X118.871 Y124.975 E0.0233
G1 X118.247 Y125.725 E0.11682
G1 X118.115 Y125.872 E0.02366
G1 X117.516 Y126.494 E0.1034
G1 X117.384 Y126.622 E0.02202
G1 X116.606 Y127.316 E0.12483
G1 X115.948 Y127.827 E0.09975
G1 X115.762 Y127.962 E0.02752
G1 X114.846 Y128.575 E0.13197
G1 X114.158 Y128.974 E0.09523
G1 X113.253 Y129.426 E0.12113
G1 X113.087 Y129.5 E0.02176
G1 X112.286 Y129.828 E0.10364
G1 X112.084 Y129.903 E0.0258
G1 X111.264 Y130.17 E0.10326
G1 X111.088 Y130.219 E0.02188
G1 X109.669 Y130.545 E0.17433
G1 X108.704 Y130.688 E0.11681
G1 X108.514 Y130.708 E0.02288
G1 X107.214 Y130.787 E0.15594
G1 X106.81 Y130.795 E0.04838
G1 X104.809 Y130.774 E0.23961
G1 X103.152 Y130.796 E0.19842
G1 X102.772 Y130.789 E0.04551
G1 X101.85 Y130.743 E0.11053
G1 X101.624 Y130.722 E0.02718
G1 X100.301 Y130.54 E0.1599
G1 X99.213 Y130.302 E0.13335
G1 X98.197 Y130 E0.12691
G1 X98.034 Y129.945 E0.0206
G1 X97.196 Y129.623 E0.10749
G1 X97.052 Y129.561 E0.01877
G1 X95.937 Y129.025 E0.14813
G1 X94.95 Y128.447 E0.13695
G1 X94.168 Y127.915 E0.11325
G1 X93.178 Y127.132 E0.15113
G1 X92.519 Y126.529 E0.10695
G1 X92.39 Y126.402 E0.02168
G1 X91.674 Y125.638 E0.12537
G1 X91.121 Y124.965 E0.1043
G1 X90.989 Y124.793 E0.02596
G1 X90.449 Y124.041 E0.11085
G1 X90.329 Y123.856 E0.0264
G1 X89.566 Y122.559 E0.18018
G1 X89.108 Y121.601 E0.12714
G1 X89.041 Y121.442 E0.02066
G1 X88.811 Y120.834 E0.07783
G1 X88.533 Y120.218 E0.08092
G1 X88.019 Y119.43 E0.11265
G1 X87.734 Y119.067 E0.05526
G1 X87.625 Y118.917 E0.0222
G1 X86.987 Y117.956 E0.13812
G1 X86.927 Y117.86 E0.01356
G1 X86.437 Y116.978 E0.12081
G1 X86.349 Y116.804 E0.02335
G1 X85.858 Y115.717 E0.14282
G1 X85.53 Y114.827 E0.11357
G1 X85.476 Y114.66 E0.02102
G1 X85.206 Y113.723 E0.11676
G1 X84.987 Y112.7 E0.12527
G1 X84.954 Y112.499 E0.02439
G1 X84.789 Y111.162 E0.1613
G1 X84.743 Y109.946 E0.1457
G1 X84.743 Y99.983 E1.19293
G1 X84.798 Y98.724 E0.15089
G1 X84.94 Y97.569 E0.13934
G1 X85.137 Y96.575 E0.12133
G1 X85.418 Y95.525 E0.13015
G1 X85.781 Y94.476 E0.13291
G1 X86.182 Y93.543 E0.1216
G1 X86.262 Y93.373 E0.0225
G1 X86.668 Y92.588 E0.10582
G1 X87.18 Y91.735 E0.11912
G1 X87.436 Y91.36 E0.05437
G1 X87.79 Y90.784 E0.08095
G1 X88.15 Y89.929 E0.11108
G1 X88.318 Y89.423 E0.06384
G1 X88.554 Y88.819 E0.07765
G1 X88.716 Y88.435 E0.0499
G1 X89.167 Y87.464 E0.12819
G1 X89.533 Y86.789 E0.09194
G1 X89.732 Y86.446 E0.04748
G1 X90.306 Y85.534 E0.12903
G1 X90.683 Y85.004 E0.07788
G1 X90.946 Y84.657 E0.05213
G1 X91.62 Y83.828 E0.12793
G0 F3600 X91.2 Y84.344
G1 F1350 X91.2 Y125.061 E4.87531
G0 F3600 X92.8 Y126.786
G1 F1350 X92.8 Y82.615 E5.28888
G0 F3600 X94.4 Y81.269
G1 F1350 X94.4 Y128.072 E5.60403
G0 F3600 X96 Y129.055
G1 F1350 X96 Y80.205 E5.84913
G0 F3600 X97.6 Y79.365
G1 F1350 X97.6 Y129.778 E6.03628
G0 F3600 X99.2 Y130.298
G1 F1350 X99.2 Y78.725 E6.17517
G0 F3600 X100.8 Y78.251
G1 F1350 X100.8 Y130.608 E6.26904
G0 F3600 X102.4 Y130.77
G1 F1350 X102.4 Y77.945 E6.32508
G0 F3600 X104 Y77.777
G1 F1350 X104 Y130.785 E6.34699
G0 F3600 X105.6 Y130.782
G1 F1350 X105.6 Y77.76 E6.34867
G0 F3600 X107.2 Y77.885
G1 F1350 X107.2 Y130.788 E6.33442
G0 F3600 X108.8 Y130.674
G1 F1350 X108.8 Y78.167 E6.287
G0 F3600 X110.4 Y78.592
G1 F1350 X110.4 Y130.378 E6.20067
G0 F3600 X112 Y129.931
G1 F1350 X112 Y79.189 E6.07567
G0 F3600 X113.6 Y79.968
G1 F1350 X113.6 Y129.253 E5.90121
G0 F3600 X115.2 Y128.339
G1 F1350 X115.2 Y80.978 E5.67084
G0 F3600 X116.8 Y82.249
G1 F1350 X116.8 Y127.143 E5.37545
G0 F3600 X118.4 Y125.542
G1 F1350 X118.4 Y83.865 E4.99026
G0 F3600 X120 Y86.004
G1 F1350 X120 Y123.321 E4.46821
G0 F3600 X121.6 Y119.987
G1 F1350 X121.6 Y89.232 E3.6825
G0 F3600 X123.2 Y92.359
G1 F1350 X123.2 Y117.632 E3.0261
G0 F3600 X124.8 Y113.694
G1 F1350 X124.8 Y96.338 E2.07815
G0 F3600 X89.6 Y86.673
G1 F1350 X89.6 Y122.616 E4.30369
G0 F3600 X88 Y119.405
G1 F1350 X88 Y90.285 E3.48673
G0 F3600 X86.4 Y93.106
G1 F1350 X86.4 Y116.904 E2.84949
G0 F3600 X84.8 Y111.251
G1 F1350 X84.8 Y98.707 E1.50197
G0 F3600 X91.95 Y83.465
;TIME_ELAPSED:59.673273
;LAYER:-8
M140 S100
G0 X91.95 Y83.465 Z0.51
;TYPE:SUPPORT
G1 F1350 X92.061 Y83.345 E0.00816
G1 X92.423 Y82.974 E0.02586
G1 X92.654 Y82.754 E0.01591
G1 X124.531 Y114.631 E2.24909
G1 X124.802 Y113.682 E0.04924
G1 X124.836 Y113.522 E0.00816
G1 X93.387 Y82.073 E2.2189
G1 X93.688 Y81.818 E0.01968
G1 X94.037 Y81.54 E0.02226
G1 X94.169 Y81.441 E0.00823
G1 X125.072 Y112.344 E2.18037
G1 X125.197 Y111.316 E0.05166
G1 X125.208 Y111.066 E0.01248
G1 X94.984 Y80.842 E2.13247
G1 X95.494 Y80.506 E0.03047
G1 X95.819 Y80.308 E0.01899
G1 X95.848 Y80.291 E0.00168
G1 X125.254 Y109.698 E2.07479
G1 X125.254 Y108.284 E0.07054
G1 X96.75 Y79.78 E2.01111
G1 X96.78 Y79.763 E0.00172
G1 X97.454 Y79.43 E0.03751
G1 X97.703 Y79.318 E0.01362
G1 X125.254 Y106.869 E1.94387
G1 X125.255 Y105.456 E0.07049
G1 X98.702 Y78.903 E1.87346
G1 X99.407 Y78.652 E0.03734
G1 X99.755 Y78.542 E0.01821
G1 X125.255 Y104.042 E1.79916
G1 X125.256 Y102.628 E0.07054
G1 X100.862 Y78.235 E1.72109
G1 X100.869 Y78.232 E0.00038
G1 X101.535 Y78.089 E0.03398
G1 X101.961 Y78.011 E0.02161
G1 X102.041 Y77.999 E0.00404
G1 X125.256 Y101.214 E1.63794
G1 X125.256 Y100.013 E0.05992
G1 X125.247 Y99.791 E0.01108
G1 X103.289 Y77.834 E1.54922
G1 X103.702 Y77.795 E0.0207
G1 X104.127 Y77.77 E0.02124
G1 X104.629 Y77.759 E0.02505
G1 X125.148 Y98.277 E1.44769
G1 X125.099 Y97.848 E0.02154
G1 X125.075 Y97.681 E0.00842
G1 X124.88 Y96.645 E0.05259
G1 X124.863 Y96.578 E0.00345
G1 X106.064 Y77.78 E1.32634
G1 X106.244 Y77.791 E0.009
G1 X107.282 Y77.893 E0.05204
G1 X107.649 Y77.95 E0.01853
G1 X124.243 Y94.545 E1.17083
G1 X124.215 Y94.464 E0.00428
G1 X123.886 Y93.691 E0.04191
G1 X123.798 Y93.504 E0.01031
G1 X123.337 Y92.597 E0.05076
G1 X123.043 Y92.089 E0.02928
G1 X122.738 Y91.626 E0.02766
G1 X109.418 Y78.305 E0.93983
G1 X109.458 Y78.314 E0.00205
G1 X110.255 Y78.544 E0.04139
G1 X110.63 Y78.666 E0.01967
G1 X111.517 Y78.99 E0.04711
G1 X121.503 Y88.976 E0.70457
G1 X121.421 Y88.76 E0.01153
G1 X121.282 Y88.435 E0.01764
G1 X120.955 Y87.713 E0.03954
G1 X120.485 Y86.821 E0.0503
G1 X120.321 Y86.537 E0.01636
G1 X120.082 Y86.141 E0.02308
G1 X114.358 Y80.417 E0.40386
G0 F3600 X91.95 Y83.465
G1 F1350 X124.155 Y115.67 E2.27224
G1 X124.107 Y115.801 E0.00696
G1 X123.724 Y116.653 E0.0466
G1 X91.295 Y84.224 E2.28804
G1 X90.945 Y84.657 E0.02778
G1 X90.682 Y85.004 E0.02172
G1 X90.673 Y85.016 E0.00075
G1 X123.231 Y117.574 E2.29714
G1 X123.076 Y117.853 E0.01592
G1 X122.691 Y118.448 E0.03536
G1 X90.1 Y85.858 E2.29944
G1 X89.731 Y86.445 E0.03459
G1 X89.563 Y86.735 E0.01672
G1 X122.098 Y119.27 E2.29552
G1 X121.981 Y119.421 E0.00953
G1 X121.601 Y119.981 E0.03376
G1 X121.536 Y120.121 E0.0077
G1 X89.074 Y87.66 E2.29033
G1 X88.715 Y88.435 E0.04261
G1 X88.631 Y88.631 E0.01064
G1 X121.1 Y121.1 E2.29086
G1 X121.031 Y121.266 E0.00897
G1 X120.657 Y122.071 E0.04428
G1 X88.239 Y89.654 E2.28723
G1 X88.15 Y89.927 E0.01433
G1 X87.838 Y90.666 E0.04002
G1 X120.179 Y123.008 E2.28187
G1 X119.877 Y123.532 E0.03017
G1 X119.774 Y123.694 E0.00958
G1 X119.642 Y123.885 E0.01158
G1 X87.306 Y91.549 E2.28148
G1 X87.18 Y91.734 E0.01117
G1 X86.766 Y92.423 E0.0401
G1 X119.061 Y124.718 E2.27859
G1 X118.989 Y124.82 E0.00623
G1 X118.871 Y124.974 E0.00968
G1 X118.431 Y125.502 E0.03429
G1 X86.275 Y93.346 E2.26878
G1 X86.262 Y93.372 E0.00145
G1 X86.181 Y93.542 E0.00939
G1 X85.842 Y94.328 E0.04271
G1 X117.758 Y126.243 E2.25181
G1 X117.516 Y126.493 E0.01736
G1 X117.383 Y126.621 E0.00921
G1 X117.033 Y126.933 E0.02339
G1 X85.47 Y95.37 E2.22694
G1 X85.418 Y95.524 E0.00811
G1 X85.162 Y96.476 E0.04918
G1 X116.265 Y127.579 E2.19448
G1 X115.947 Y127.825 E0.02006
G1 X115.761 Y127.96 E0.01147
G1 X115.444 Y128.172 E0.01903
G1 X84.928 Y97.656 E2.15307
G1 X84.797 Y98.723 E0.05363
G1 X84.788 Y98.93 E0.01034
G1 X114.583 Y128.725 E2.1022
G1 X114.158 Y128.973 E0.02455
G1 X113.663 Y129.219 E0.02758
G1 X84.742 Y100.298 E2.04053
G1 X84.742 Y101.713 E0.07059
G1 X112.69 Y129.66 E1.97185
G1 X112.285 Y129.827 E0.02186
G1 X112.084 Y129.901 E0.01069
G1 X111.656 Y130.041 E0.02247
G1 X84.742 Y103.127 E1.89893
G1 X84.742 Y104.541 E0.07054
G1 X110.543 Y130.342 E1.8204
G1 X109.668 Y130.543 E0.04479
G1 X109.373 Y130.587 E0.01488
G1 X84.742 Y105.955 E1.73789
G1 X84.742 Y107.369 E0.07054
G1 X108.104 Y130.732 E1.64835
G1 X107.214 Y130.786 E0.04448
G1 X106.81 Y130.794 E0.02016
G1 X106.751 Y130.793 E0.00294
G1 X84.742 Y108.784 E1.55285
G1 X84.742 Y109.945 E0.05792
G1 X84.752 Y110.208 E0.01313
G1 X105.322 Y130.778 E1.45132
G1 X104.808 Y130.773 E0.02564
G1 X103.914 Y130.785 E0.04461
G1 X84.858 Y111.728 E1.34454
G1 X84.953 Y112.498 E0.03871
G1 X84.986 Y112.699 E0.01016
G1 X85.142 Y113.426 E0.0371
G1 X102.49 Y130.774 E1.224
G1 X101.85 Y130.742 E0.03197
G1 X101.623 Y130.721 E0.01137
G1 X100.926 Y130.625 E0.0351
G1 X85.764 Y115.462 E1.0698
G1 X85.858 Y115.716 E0.01351
G1 X86.349 Y116.802 E0.05946
G1 X86.437 Y116.977 E0.00977
G1 X86.927 Y117.859 E0.05034
G1 X86.986 Y117.955 E0.00562
G1 X87.271 Y118.384 E0.0257
G1 X99.178 Y130.29 E0.84007
G1 X98.196 Y129.999 E0.0511
G1 X98.033 Y129.944 E0.00858
G1 X97.196 Y129.622 E0.04474
G1 X97.051 Y129.56 E0.00787
G1 X97.015 Y129.542 E0.00201
G1 X89.138 Y121.665 E0.55576
G1 X89.566 Y122.558 E0.0494
G1 X90.328 Y123.855 E0.07505
G1 X90.448 Y124.04 E0.011
G1 X90.988 Y124.792 E0.04619
G1 X91.12 Y124.964 E0.01082
G1 X91.568 Y125.51 E0.03524
G1 X93.237 Y127.178 E0.11772
G0 F3600 X91.477 Y83.687
;TIME_ELAPSED:141.565065
;LAYER:-7
G0 X91.477 Y83.687 Z0.61
G1 F1800 X91.223 Y84 E0.0067
G1 X118.787 Y84 E0.45839
G1 X119.107 Y84.4 E0.00852
G1 X90.898 Y84.4 E0.46912
G1 X90.793 Y84.528 E0.00275
G1 X90.587 Y84.8 E0.00567
G1 X119.414 Y84.8 E0.47939
G1 X119.491 Y84.904 E0.00215
G1 X119.697 Y85.2 E0.006
G1 X90.299 Y85.2 E0.48889
G1 X90.143 Y85.418 E0.00446
G1 X90.029 Y85.6 E0.00357
G1 X119.975 Y85.6 E0.498
G1 X120.048 Y85.706 E0.00214
G1 X120.23 Y86 E0.00575
G1 X89.777 Y86 E0.50644
G1 X89.563 Y86.34 E0.00668
G1 X89.529 Y86.4 E0.00115
G1 X120.474 Y86.4 E0.51462
G1 X120.663 Y86.727 E0.00628
G1 X120.702 Y86.8 E0.00138
G1 X89.3 Y86.8 E0.52222
G1 X89.083 Y87.2 E0.00757
G1 X120.913 Y87.2 E0.52934
G1 X121.124 Y87.6 E0.00752
G1 X88.884 Y87.6 E0.53615
G1 X88.699 Y88 E0.00733
G1 X121.306 Y88 E0.54226
G1 X121.486 Y88.4 E0.00729
G1 X88.515 Y88.4 E0.54831
G1 X88.37 Y88.741 E0.00616
G1 X88.347 Y88.8 E0.00105
G1 X121.653 Y88.8 E0.55388
G1 X121.663 Y88.825 E0.00045
G1 X121.805 Y89.2 E0.00667
G1 X88.191 Y89.2 E0.559
G1 X88.131 Y89.351 E0.0027
G1 X88.049 Y89.6 E0.00436
G1 X121.955 Y89.6 E0.56386
G1 X121.994 Y89.705 E0.00186
G1 X122.095 Y90 E0.00519
G1 X87.904 Y90 E0.5686
G1 X87.735 Y90.4 E0.00722
G1 X122.254 Y90.4 E0.57405
G1 X122.255 Y90.404 E0.00007
G1 X122.473 Y90.8 E0.00752
G1 X87.546 Y90.8 E0.58084
G1 X87.3 Y91.2 E0.00781
G1 X122.701 Y91.2 E0.58872
G1 X122.963 Y91.6 E0.00795
G1 X87.031 Y91.6 E0.59755
G1 X87.013 Y91.625 E0.00051
G1 X86.788 Y92 E0.00727
G1 X123.225 Y92 E0.60595
G1 X123.454 Y92.4 E0.00767
G1 X86.548 Y92.4 E0.61375
G1 X86.488 Y92.499 E0.00193
G1 X86.333 Y92.8 E0.00563
G1 X123.668 Y92.8 E0.62088
G1 X123.871 Y93.2 E0.00746
G1 X86.126 Y93.2 E0.6277
G1 X86.084 Y93.281 E0.00152
G1 X86.001 Y93.457 E0.00324
G1 X85.94 Y93.6 E0.00259
G1 X124.066 Y93.6 E0.63404
G1 X124.236 Y94 E0.00723
G1 X85.767 Y94 E0.63974
G1 X85.64 Y94.293 E0.00531
G1 X85.599 Y94.4 E0.00191
G1 X124.406 Y94.4 E0.64536
G0 F3600 X124.406 Y94.402
G1 F1800 X124.545 Y94.8 E0.00701
G1 X85.457 Y94.8 E0.65004
G1 X85.319 Y95.2 E0.00704
G1 X124.685 Y95.2 E0.65466
G1 X124.745 Y95.373 E0.00305
G1 X124.801 Y95.553 E0.00313
G1 X124.814 Y95.6 E0.00081
G1 X85.188 Y95.6 E0.65898
G1 X85.177 Y95.636 E0.00063
G1 X85.083 Y96 E0.00625
G1 X124.919 Y96 E0.66248
G1 X125.025 Y96.4 E0.00688
G1 X84.979 Y96.4 E0.66597
G1 X84.906 Y96.679 E0.0048
G1 X84.883 Y96.8 E0.00205
G1 X125.115 Y96.8 E0.66906
G1 X125.19 Y97.2 E0.00677
G1 X84.807 Y97.2 E0.67157
G1 X84.745 Y97.525 E0.0055
G1 X84.736 Y97.6 E0.00126
G1 X125.266 Y97.6 E0.67402
G1 X125.275 Y97.652 E0.00088
G1 X125.3 Y97.825 E0.00291
G1 X125.32 Y98 E0.00293
G1 X84.686 Y98 E0.67575
G1 X84.636 Y98.4 E0.0067
G1 X125.363 Y98.4 E0.67729
G1 X125.406 Y98.8 E0.00669
G1 X84.594 Y98.8 E0.67871
G1 X84.593 Y98.803 E0.00005
G1 X84.577 Y99.2 E0.00661
G1 X125.426 Y99.2 E0.67932
G1 X125.442 Y99.6 E0.00666
G1 X84.561 Y99.6 E0.67985
G1 X84.544 Y100 E0.00666
G1 X125.456 Y100 E0.68037
G1 X125.456 Y100.4 E0.00665
G1 X84.542 Y100.4 E0.6804
G1 X84.542 Y100.8 E0.00665
G1 X125.456 Y100.8 E0.6804
G1 X125.456 Y101.2 E0.00665
G1 X84.542 Y101.2 E0.6804
G1 X84.542 Y101.6 E0.00665
G1 X125.456 Y101.6 E0.6804
G1 X125.456 Y102 E0.00665
G1 X84.542 Y102 E0.6804
G1 X84.542 Y102.4 E0.00665
G1 X125.456 Y102.4 E0.6804
G1 X125.456 Y102.8 E0.00665
G1 X84.542 Y102.8 E0.6804
G1 X84.542 Y103.2 E0.00665
G1 X125.456 Y103.2 E0.6804
G1 X125.456 Y103.6 E0.00665
G1 X84.543 Y103.6 E0.68039
G1 X84.543 Y104 E0.00665
G1 X125.456 Y104 E0.68039
G1 X125.456 Y104.4 E0.00665
