;FLAVOR:RepRap
;TIME:1056
;Filament used: 0.535955m
;Layer height: 0.1
;Generated with Cura_SteamEngine 3.0.3
T0
M190 S60
M104 S200
M109 S200
M82 ; absolute extrusion mode
G21 ;metric values
G90 ;absolute positioning
M82 ;set extruder to absolute mode
M107 ;start with the fan off
G28 X0 Y0 ;move X/Y to min endstops
G28 Z0 ;move Z to min endstops
G1 Z15.0 F9000 ;move the platform down 15mm
G92 E0 ;zero the extruded length
G1 F200 E3 ;extrude 3mm of feed stock
G92 E0 ;zero the extruded length again
G1 F9000
;Put printing message on LCD screen
M117 Printing...
M83 ; relative extrusion mode
;LAYER_COUNT:90
;LAYER:0
M107
G0 F3600 X96.657 Y95.874 Z0.1
;TYPE:SKIRT
G1 F1800 X99.942 Y92.709 E0.07586
G1 X100.396 Y92.328 E0.00986
G1 X100.897 Y92.01 E0.00987
G1 X101.436 Y91.763 E0.00986
G1 X102.003 Y91.591 E0.00985
G1 X102.589 Y91.497 E0.00987
G1 X102.993 Y91.478 E0.00673
G1 X107.003 Y91.476 E0.06669
G1 X107.594 Y91.516 E0.00985
G1 X108.175 Y91.635 E0.00986
G1 X108.735 Y91.83 E0.00986
G1 X109.263 Y92.1 E0.00986
G1 X109.751 Y92.438 E0.00987
G1 X110.059 Y92.709 E0.00682
G1 X113.353 Y95.885 E0.07609
G1 X113.751 Y96.324 E0.00985
G1 X114.087 Y96.813 E0.00987
G1 X114.353 Y97.342 E0.00985
G1 X114.546 Y97.903 E0.00987
G1 X114.662 Y98.485 E0.00987
G1 X114.699 Y99.059 E0.00957
G1 X114.681 Y110.109 E0.18376
G1 X114.64 Y110.701 E0.00987
G1 X114.52 Y111.281 E0.00985
G1 X114.323 Y111.841 E0.00987
G1 X114.081 Y112.32 E0.00892
G1 X111.006 Y117.588 E0.10144
G1 X110.673 Y118.079 E0.00987
G1 X110.278 Y118.521 E0.00986
G1 X109.826 Y118.905 E0.00986
G1 X109.507 Y119.12 E0.0064
G1 X109.3 Y119.247 E0.00404
G1 X108.775 Y119.523 E0.00986
G1 X108.217 Y119.725 E0.00987
G1 X107.638 Y119.85 E0.00985
G1 X107.027 Y119.897 E0.01019
G1 X103.593 Y119.919 E0.05711
G1 X102.812 Y119.854 E0.01303
G1 X102.052 Y119.722 E0.01283
G1 X101.476 Y119.581 E0.00986
G1 X100.924 Y119.365 E0.00986
G1 X100.406 Y119.076 E0.00986
G1 X99.932 Y118.72 E0.00986
G1 X99.51 Y118.303 E0.00987
G1 X99.006 Y117.608 E0.01428
G1 X95.928 Y112.343 E0.10142
G1 X95.664 Y111.812 E0.00986
G1 X95.474 Y111.25 E0.00987
G1 X95.361 Y110.668 E0.00986
G1 X95.327 Y110.129 E0.00898
G1 X95.31 Y99.05 E0.18424
G1 X95.349 Y98.458 E0.00987
G1 X95.467 Y97.877 E0.00986
G1 X95.663 Y97.317 E0.00987
G1 X95.931 Y96.789 E0.00985
G1 X96.269 Y96.301 E0.00987
G1 X96.657 Y95.874 E0.00959
G0 F3600 X96.935 Y96.162
G1 F1800 X100.22 Y92.997 E0.07586
G1 X100.653 Y92.635 E0.00939
G1 X101.134 Y92.337 E0.00941
G1 X101.652 Y92.11 E0.00941
G1 X102.196 Y91.959 E0.00939
G1 X102.993 Y91.878 E0.01332
G1 X107.003 Y91.876 E0.06669
G1 X107.567 Y91.916 E0.0094
G1 X108.12 Y92.034 E0.0094
G1 X108.65 Y92.23 E0.0094
G1 X109.148 Y92.498 E0.0094
G1 X109.781 Y92.996 E0.01339
G1 X113.075 Y96.172 E0.07609
G1 X113.454 Y96.593 E0.00942
G1 X113.769 Y97.062 E0.0094
G1 X114.015 Y97.571 E0.0094
G1 X114.186 Y98.11 E0.0094
G1 X114.28 Y98.667 E0.00939
G1 X114.299 Y99.059 E0.00653
G1 X114.281 Y110.109 E0.18376
G1 X114.24 Y110.672 E0.00939
G1 X114.12 Y111.225 E0.00941
G1 X113.924 Y111.755 E0.0094
G1 X113.736 Y112.118 E0.0068
G1 X110.661 Y117.386 E0.10144
G1 X110.342 Y117.853 E0.00941
G1 X109.96 Y118.271 E0.00942
G1 X109.298 Y118.779 E0.01388
G1 X109.091 Y118.906 E0.00404
G1 X108.589 Y119.167 E0.00941
G1 X108.056 Y119.355 E0.0094
G1 X107.501 Y119.465 E0.00941
G1 X107.025 Y119.497 E0.00793
G1 X103.591 Y119.519 E0.05711
G1 X102.881 Y119.46 E0.01185
G1 X102.121 Y119.328 E0.01283
G1 X101.572 Y119.192 E0.00941
G1 X101.048 Y118.98 E0.0094
G1 X100.559 Y118.697 E0.0094
G1 X100.114 Y118.347 E0.00942
G1 X99.724 Y117.938 E0.0094
G1 X99.352 Y117.406 E0.0108
G1 X96.274 Y112.141 E0.10142
G1 X96.024 Y111.634 E0.0094
G1 X95.848 Y111.097 E0.0094
G1 X95.749 Y110.54 E0.00941
G1 X95.727 Y110.128 E0.00686
G1 X95.71 Y99.049 E0.18424
G1 X95.749 Y98.485 E0.0094
G1 X95.867 Y97.932 E0.0094
G1 X96.062 Y97.402 E0.00939
G1 X96.33 Y96.904 E0.0094
G1 X96.665 Y96.449 E0.0094
G1 X96.935 Y96.162 E0.00655
G0 F3600 X97.212 Y96.451
G1 F1800 X100.497 Y93.286 E0.07586
G1 X100.91 Y92.943 E0.00893
G1 X101.369 Y92.666 E0.00892
G1 X101.864 Y92.46 E0.00892
G1 X102.385 Y92.33 E0.00893
G1 X102.993 Y92.278 E0.01015
G1 X107.003 Y92.276 E0.06669
G1 X107.538 Y92.316 E0.00892
G1 X108.061 Y92.434 E0.00892
G1 X108.561 Y92.629 E0.00893
G1 X109.026 Y92.897 E0.00893
G1 X109.504 Y93.284 E0.01023
G1 X112.798 Y96.46 E0.07609
G1 X113.155 Y96.86 E0.00892
G1 X113.449 Y97.309 E0.00893
G1 X113.673 Y97.796 E0.00891
G1 X113.822 Y98.311 E0.00892
G1 X113.899 Y99.058 E0.01249
G1 X113.881 Y110.108 E0.18376
G1 X113.84 Y110.643 E0.00892
G1 X113.72 Y111.165 E0.00891
G1 X113.524 Y111.664 E0.00892
G1 X113.39 Y111.917 E0.00476
G1 X110.315 Y117.185 E0.10144
G1 X110.011 Y117.627 E0.00892
G1 X109.645 Y118.018 E0.00891
G1 X109.089 Y118.439 E0.0116
G1 X108.882 Y118.566 E0.00404
G1 X108.405 Y118.811 E0.00892
G1 X107.897 Y118.983 E0.00892
G1 X107.369 Y119.078 E0.00892
G1 X107.022 Y119.097 E0.00578
G1 X103.588 Y119.119 E0.05711
G1 X102.949 Y119.066 E0.01066
G1 X102.189 Y118.934 E0.01283
G1 X101.669 Y118.803 E0.00892
G1 X101.174 Y118.596 E0.00892
G1 X100.715 Y118.318 E0.00892
G1 X100.303 Y117.976 E0.0089
G1 X99.946 Y117.575 E0.00893
G1 X99.697 Y117.204 E0.00743
G1 X96.619 Y111.939 E0.10142
G1 X96.384 Y111.457 E0.00892
G1 X96.222 Y110.946 E0.00891
G1 X96.139 Y110.416 E0.00892
G1 X96.127 Y110.128 E0.00479
G1 X96.11 Y99.049 E0.18424
G1 X96.149 Y98.514 E0.00892
G1 X96.267 Y97.991 E0.00892
G1 X96.462 Y97.491 E0.00893
G1 X96.728 Y97.026 E0.00891
G1 X97.212 Y96.451 E0.0125
G0 F3600 X97.49 Y96.739
G1 F1800 X100.775 Y93.574 E0.07586
G1 X101.165 Y93.253 E0.0084
G1 X101.602 Y92.997 E0.00842
G1 X102.073 Y92.814 E0.0084
G1 X102.567 Y92.707 E0.00841
G1 X102.993 Y92.678 E0.0071
G1 X107.003 Y92.676 E0.06669
G1 X107.507 Y92.716 E0.00841
G1 X107.999 Y92.834 E0.00841
G1 X108.466 Y93.029 E0.00842
G1 X108.896 Y93.294 E0.0084
G1 X109.226 Y93.572 E0.00718
G1 X112.52 Y96.748 E0.07609
G1 X112.855 Y97.127 E0.00841
G1 X113.126 Y97.554 E0.00841
G1 X113.327 Y98.018 E0.00841
G1 X113.452 Y98.507 E0.00839
G1 X113.499 Y99.057 E0.00918
G1 X113.481 Y110.107 E0.18376
G1 X113.44 Y110.611 E0.00841
G1 X113.321 Y111.102 E0.0084
G1 X113.045 Y111.715 E0.01118
G1 X109.97 Y116.983 E0.10144
G1 X109.681 Y117.398 E0.00841
G1 X109.331 Y117.763 E0.00841
G1 X108.879 Y118.098 E0.00936
G1 X108.672 Y118.225 E0.00404
G1 X108.222 Y118.454 E0.0084
G1 X107.741 Y118.61 E0.00841
G1 X107.02 Y118.697 E0.01208
G1 X103.586 Y118.719 E0.05711
G1 X103.017 Y118.672 E0.00949
G1 X102.257 Y118.54 E0.01283
G1 X101.768 Y118.414 E0.0084
G1 X101.304 Y118.213 E0.00841
G1 X100.878 Y117.941 E0.00841
G1 X100.499 Y117.606 E0.00841
G1 X100.042 Y117.002 E0.0126
G1 X96.964 Y111.737 E0.10142
G1 X96.745 Y111.282 E0.0084
G1 X96.599 Y110.798 E0.00841
G1 X96.527 Y110.127 E0.01122
G1 X96.51 Y99.048 E0.18424
G1 X96.549 Y98.544 E0.00841
G1 X96.667 Y98.052 E0.00841
G1 X96.861 Y97.585 E0.00841
G1 X97.126 Y97.155 E0.0084
G1 X97.49 Y96.739 E0.00919
G1 F1500 E-6.5
G0 F3600 X99.974 Y98.337
G0 X100.301 Y99.615
G0 X100.687 Y100.001
;TYPE:WALL-INNER
G1 F1500 E6.5
G1 F1800 X100.887 Y100.001 E0.00333
G1 X104 Y100 E0.05177
G1 X104 Y96.86 E0.05222
G1 X105.8 Y96.859 E0.02993
G1 X106 Y96.859 E0.00333
G1 X106 Y97.059 E0.00215
G1 X106 Y100 E0.04891
G1 X109.309 Y100.003 E0.05503
G1 X109.309 Y100.5 E0.00827
G1 X100.688 Y100.5 E0.14337
G1 X100.687 Y100.201 E0.00497
G1 X100.687 Y100.001 E0.00215
G0 F3600 X100.287 Y99.801
G1 F1800 X100.287 Y99.601 E0.00333
G1 X100.487 Y99.601 E0.00215
G1 X103.6 Y99.6 E0.05177
G1 X103.6 Y96.46 E0.05222
G1 X106.2 Y96.459 E0.04324
G1 X106.4 Y96.459 E0.00333
G1 X106.4 Y96.659 E0.00215
G1 X106.4 Y99.6 E0.04891
G1 X109.709 Y99.603 E0.05503
G1 X109.708 Y109.708 E0.16805
G1 X106.712 Y109.713 E0.04982
G1 X106.712 Y114.918 E0.08656
G1 X106.202 Y114.925 E0.00848
G1 X106.201 Y114.926 E0.00002
G1 X106 Y114.927 E0.00334
G1 X106 Y114.726 E0.00216
G1 X106 Y114.725 E0.00002
G1 X106 Y109.1 E0.09354
G1 X109.1 Y109.1 E0.05155
G1 X109.1 Y100.9 E0.13637
G1 X100.9 Y100.9 E0.13637
G1 X100.9 Y109.1 E0.13637
G1 X104 Y109.1 E0.05155
G1 X104 Y114.722 E0.09349
G1 X104 Y114.723 E0.00002
G1 X104 Y114.923 E0.00333
G1 X103.8 Y114.923 E0.00215
G1 X103.799 Y114.922 E0.00002
G1 X103.289 Y114.917 E0.00848
G1 X103.288 Y109.713 E0.08654
G1 X100.293 Y109.708 E0.04981
G1 X100.287 Y99.801 E0.16475
G0 F3600 X100.388 Y99.801
G0 X103.628 Y99.628
G0 X106.3 Y99.2
G0 X106.8 Y99.2
;TYPE:WALL-OUTER
G1 F1800 X110.065 Y99.203 E0.0543
G1 X110.109 Y99.21 E0.00074
G1 X110.108 Y110.016 E0.1797
G1 X110.098 Y110.05 E0.00059
G1 X110.077 Y110.079 E0.0006
G1 X110.051 Y110.098 E0.00054
G1 X110.02 Y110.108 E0.00054
G1 X107.112 Y110.112 E0.04836
G1 X107.112 Y114.974 E0.08086
G1 X107.028 Y115.286 E0.00537
G1 X106.959 Y115.315 E0.00124
G1 X105.863 Y115.33 E0.01823
G1 X105.723 Y115.331 E0.00233
G1 X105.6 Y115.328 E0.00205
G1 X105.6 Y115.188 E0.00233
G1 X105.6 Y108.7 E0.1079
G1 X108.7 Y108.7 E0.05155
G1 X108.7 Y101.3 E0.12306
G1 X101.3 Y101.3 E0.12306
G1 X101.3 Y108.7 E0.12306
G1 X104.4 Y108.7 E0.05155
G1 X104.4 Y115.126 E0.10686
G1 X104.4 Y115.127 E0.00002
G1 X104.4 Y115.327 E0.00333
G1 X104.2 Y115.327 E0.00215
G1 X104.199 Y115.326 E0.00002
G1 X103.041 Y115.315 E0.01926
G1 X102.973 Y115.288 E0.00122
G1 X102.889 Y114.974 E0.00541
G1 X102.888 Y110.112 E0.08086
G1 X99.982 Y110.107 E0.04833
G1 X99.951 Y110.097 E0.00054
G1 X99.923 Y110.077 E0.00057
G1 X99.903 Y110.049 E0.00057
G1 X99.893 Y110.018 E0.00054
G1 X99.887 Y99.353 E0.17736
G1 X99.887 Y99.21 E0.00238
G1 X100.001 Y99.201 E0.0019
G1 X100.144 Y99.201 E0.00238
G1 X103.2 Y99.2 E0.05082
G1 X103.2 Y96.06 E0.05222
G1 X106.6 Y96.059 E0.05654
G1 X106.8 Y96.059 E0.00333
G1 X106.8 Y96.259 E0.00215
G1 X106.8 Y99.2 E0.04891
G0 F3600 X107 Y99.2
G0 X106.999 Y99.7
G0 X105.6 Y100.1
;TYPE:WALL-INNER
G1 F1800 X104.4 Y100.1 E0.01996
G1 X104.4 Y97.26 E0.04723
G1 X105.6 Y97.259 E0.01996
G1 X105.6 Y100.1 E0.04725
G0 F3600 X105.011 Y99.919
;TYPE:SKIN
G1 F1800 X104.578 Y99.487 E0.01017
G0 F3600 X104.578 Y98.922
G1 F1800 X105.419 Y99.762 E0.01977
G1 X105.489 Y99.832
G0 F3600 X105.419 Y99.197
G1 F1800 X104.578 Y98.356 E0.01978
G1 X104.508 Y98.286
G0 F3600 X104.578 Y97.79
G1 F1800 X105.419 Y98.631 E0.01978
G1 X105.489 Y98.701
G0 F3600 X105.419 Y98.065
G1 F1800 X104.793 Y97.44 E0.01471
G1 X104.723 Y97.37
G0 F3600 X105.358 Y97.439
G1 F1800 X105.419 Y97.5 E0.00143
G0 F3600 X105.837 Y100.18
G0 X105.906 Y100.25
G1 F1800 X106.189 Y100.25 E0.00165
G1 X106.472 Y100.25 E0.00165
G1 X106.755 Y100.25 E0.00164
G1 X107.038 Y100.25 E0.00164
G1 X107.321 Y100.25 E0.00164
G1 X107.604 Y100.251 E0.00161
G1 X107.887 Y100.251 E0.00162
G1 X108.17 Y100.251 E0.00162
G1 X108.453 Y100.251 E0.00162
G1 X108.736 Y100.251 E0.00162
G1 X109.019 Y100.251 E0.00162
G0 F3600 X109.088 Y100.32
G0 X104.204 Y100.245
G0 X104.172 Y100.212
G1 F1800 X103.927 Y100.25 E0.0012
G1 X103.644 Y100.25 E0.00165
G1 X103.361 Y100.25 E0.00165
G1 X103.078 Y100.25 E0.00165
G1 X102.795 Y100.25 E0.00165
G1 X102.512 Y100.25 E0.00165
G1 X102.229 Y100.25 E0.00165
G1 X101.947 Y100.25 E0.00164
G1 X101.664 Y100.25 E0.00165
G1 X101.381 Y100.25 E0.00165
G1 X101.098 Y100.25 E0.00165
G0 F3600 X101.029 Y100.18
G0 X100.482 Y100.765
G0 X100.593 Y100.876
G1 F1800 X100.593 Y101.159 E0.00261
G1 X100.593 Y101.442 E0.00261
G1 X100.593 Y101.725 E0.00261
G1 X100.593 Y102.007 E0.00259
G1 X100.593 Y102.29 E0.0026
G1 X100.593 Y102.573 E0.0026
G1 X100.593 Y102.856 E0.0026
G1 X100.594 Y103.139 E0.00258
G1 X100.594 Y103.422 E0.00259
G1 X100.594 Y103.705 E0.00259
G1 X100.594 Y103.988 E0.00259
G1 X100.594 Y104.271 E0.00259
G1 X100.594 Y104.554 E0.00259
G1 X100.594 Y104.837 E0.00259
G1 X100.594 Y105.12 E0.00259
G1 X100.594 Y105.403 E0.00258
G1 X100.594 Y105.685 E0.00257
G1 X100.594 Y105.968 E0.00258
G1 X100.594 Y106.251 E0.00258
G1 X100.595 Y106.534 E0.00255
G1 X100.595 Y106.817 E0.00256
G1 X100.595 Y107.1 E0.00256
G1 X100.595 Y107.383 E0.00256
G1 X100.595 Y107.666 E0.00256
G1 X100.595 Y107.949 E0.00256
G1 X100.595 Y108.232 E0.00256
G1 X100.595 Y108.515 E0.00256
G1 X100.595 Y108.798 E0.00255
G1 X100.595 Y109.081 E0.00255
G0 F3600 X100.918 Y109.403
G1 F1800 X101.201 Y109.403 E0.00258
G1 X101.484 Y109.403 E0.00258
G1 X101.767 Y109.404 E0.00256
G1 X102.05 Y109.404 E0.00259
G1 X102.333 Y109.404 E0.00259
G1 X102.616 Y109.404 E0.0026
G1 X102.899 Y109.404 E0.0026
G1 X103.183 Y109.405 E0.0026
G1 X103.579 Y109.519 E0.00392
G1 X103.72 Y109.377 E0.00362
G0 F3600 X103.643 Y109.866
G1 F1800 X103.643 Y110.149 E0.00379
G1 X103.643 Y110.431 E0.00378
G1 X103.643 Y110.714 E0.00379
G1 X103.643 Y110.997 E0.00379
G1 X103.643 Y111.28 E0.00379
G1 X103.643 Y111.563 E0.00379
G1 X103.643 Y111.846 E0.00379
G1 X103.643 Y112.128 E0.00378
G1 X103.643 Y112.411 E0.00378
G1 X103.643 Y112.694 E0.00378
G1 X103.643 Y112.977 E0.00378
G1 X103.643 Y113.26 E0.00378
G1 X103.643 Y113.543 E0.00378
G1 X103.643 Y113.826 E0.00378
G1 X103.643 Y114.108 E0.00376
G1 X103.643 Y114.391 E0.00378
G1 X103.587 Y114.618 E0.00312
G0 F3600 X103.483 Y114.514
G0 X103.972 Y109.128
G0 X100.872 Y109.128
G0 X100.872 Y100.872
G0 X109.128 Y100.872
G0 X109.128 Y109.128
G0 X106.028 Y109.128
G0 X106.194 Y114.397
G0 X106.355 Y114.558
G1 F1800 X106.218 Y114.703 E0.00217
G0 F3600 X106.355 Y114.275
G1 F1800 X106.355 Y113.992 E0.0038
G1 X106.355 Y113.709 E0.0038
G1 X106.355 Y113.426 E0.0038
G1 X106.355 Y113.143 E0.0038
G1 X106.355 Y112.861 E0.00379
G1 X106.355 Y112.578 E0.0038
G1 X106.355 Y112.295 E0.0038
G1 X106.355 Y112.012 E0.0038
G1 X106.355 Y111.729 E0.0038
G1 X106.355 Y111.446 E0.0038
G1 X106.355 Y111.164 E0.00379
G1 X106.355 Y110.881 E0.0038
G1 X106.355 Y110.598 E0.0038
G1 X106.355 Y110.315 E0.0038
G1 X106.355 Y110.032 E0.0038
G1 X106.355 Y109.749 E0.0038
G1 X106.355 Y109.466 E0.0038
G1 X106.577 Y109.405 E0.0032
G1 X106.859 Y109.404 E0.00259
G1 X107.142 Y109.404 E0.0026
G1 X107.424 Y109.404 E0.00259
G1 X107.707 Y109.404 E0.00259
G1 X107.99 Y109.404 E0.00259
G1 X108.272 Y109.403 E0.00257
G1 X108.555 Y109.403 E0.00258
G1 X108.837 Y109.403 E0.00257
G1 X109.12 Y109.403 E0.00256
G1 X109.403 Y109.403 E0.00256
G1 X109.403 Y109.12 E0.00258
G1 X109.403 Y108.837 E0.00259
G1 X109.403 Y108.554 E0.00259
G1 X109.403 Y108.271 E0.00259
G1 X109.403 Y107.988 E0.00259
G1 X109.403 Y107.706 E0.00258
G1 X109.403 Y107.423 E0.00259
G1 X109.403 Y107.14 E0.00259
G1 X109.403 Y106.857 E0.00259
G1 X109.403 Y106.574 E0.00259
G1 X109.403 Y106.291 E0.00259
G1 X109.403 Y106.009 E0.00258
G1 X109.403 Y105.726 E0.00259
G1 X109.403 Y105.443 E0.00259
G1 X109.403 Y105.16 E0.00259
G1 X109.403 Y104.877 E0.00259
G1 X109.403 Y104.594 E0.00259
G1 X109.403 Y104.311 E0.00259
G1 X109.403 Y104.029 E0.00258
G1 X109.403 Y103.746 E0.00259
G1 X109.403 Y103.463 E0.00259
G1 X109.403 Y103.18 E0.00259
G1 X109.403 Y102.897 E0.00259
G1 X109.403 Y102.614 E0.00259
G1 X109.403 Y102.332 E0.00258
G1 X109.403 Y102.049 E0.00259
G1 X109.403 Y101.766 E0.00259
G1 X109.403 Y101.483 E0.00259
G1 X109.403 Y101.2 E0.00259
G1 X109.403 Y100.917 E0.00259
G1 X109.48 Y100.712 E0.00167
G0 F3600 X109.513 Y100.745
G0 X100.872 Y100.872
G0 X100.744 Y109.512
;TYPE:SKIN
G1 F1800 X100.487 Y109.255 E0.00302
G0 F3600 X100.618 Y109.382
G0 X100.473 Y100.003
;TIME_ELAPSED:23.880369
;LAYER:1
M140 S60
M106 S255
G0 F5400 X100.473 Y100.003 Z0.2
;TYPE:WALL-INNER
G1 F2700 X100.673 Y100.003 E0.00333
G1 X104 Y100 E0.05533
G1 X104 Y96.4 E0.05987
G1 X105.8 Y96.399 E0.02993
G1 X106 Y96.399 E0.00333
G1 X106 Y96.599 E0.00215
G1 X106 Y100 E0.05656
G1 X109.527 Y100.003 E0.05865
G1 X109.527 Y100.5 E0.00827
G1 X109.518 Y109.5 E0.14967
G1 X109.517 Y109.518 E0.0003
G1 X109.501 Y109.518 E0.00027
G1 X106.522 Y109.524 E0.04954
G1 X106.522 Y114.922 E0.08977
G1 X106.4 Y114.923 E0.00203
G1 X106.4 Y109.524 E0.02739
G1 X106.4 Y109.5 E0.00026
G1 X106.522 Y109.5 E0.00024
G1 X109.5 Y109.5 E0.00245
G1 X109.5 Y100.5 E0.00842
G1 X100.5 Y100.5 E0.14967
G1 X100.5 Y109.5 E0.14967
G1 X103.478 Y109.5 E0.04952
G1 X103.6 Y109.5 E0.00203
G1 X103.6 Y109.524
G1 X103.6 Y114.921 E0.08975
G1 X103.479 Y114.92 E0.00201
G1 X103.478 Y109.524 E0.02629
G1 X100.5 Y109.519 E0.00266
G1 X100.483 Y109.518 E0.00015
G1 X100.483 Y109.501 E0.00028
G1 X100.474 Y100.501 E0.00806
G1 X100.473 Y100.203 E0.00496
G1 X100.473 Y100.003 E0.00215
