;FLAVOR:RepRap
;TIME:1001
;Filament used: 0.517045m
;Layer height: 0.1
;Generated with Cura_SteamEngine 3.0.3
T0
M190 S60
M104 S200
M109 S200
M82 ; absolute extrusion mode
G21 ;metric values
G90 ;absolute positioning
M82 ;set extruder to absolute mode
M107 ;start with the fan off
G28 X0 Y0 ;move X/Y to min endstops
G28 Z0 ;move Z to min endstops
G1 Z15.0 F9000 ;move the platform down 15mm
G92 E0 ;zero the extruded length
G1 F200 E3 ;extrude 3mm of feed stock
G92 E0 ;zero the extruded length again
G1 F9000
;Put printing message on LCD screen
M117 Printing...
M83 ; relative extrusion mode
;LAYER_COUNT:90
;LAYER:0
M107
G0 F3600 X99.544 Y90.813 Z0.1
;TYPE:SKIRT
G1 F1800 X99.767 Y90.584 E0.00532
G1 X100.33 Y90.047 E0.01294
G1 X100.786 Y89.668 E0.00986
G1 X101.247 Y89.375 E0.00908
G1 X101.84 Y89.049 E0.01125
G1 X102.378 Y88.799 E0.00987
G1 X102.827 Y88.653 E0.00785
G1 X103.465 Y88.483 E0.01098
G1 X104.047 Y88.37 E0.00986
G1 X104.769 Y88.338 E0.01202
G1 X105.795 Y88.378 E0.01708
G1 X106.385 Y88.441 E0.00987
G1 X107.108 Y88.633 E0.01244
G1 X107.739 Y88.859 E0.01115
G1 X108.282 Y89.096 E0.00985
G1 X108.694 Y89.339 E0.00795
G1 X109.257 Y89.714 E0.01125
G1 X109.727 Y90.075 E0.00986
G1 X110.275 Y90.654 E0.01326
G1 X110.967 Y91.533 E0.0186
G1 X111.302 Y92.023 E0.00987
G1 X111.474 Y92.346 E0.00609
G1 X114.264 Y98.139 E0.10693
G1 X114.485 Y98.689 E0.00986
G1 X114.63 Y99.264 E0.00986
G1 X114.7 Y100.06 E0.01329
G1 X114.672 Y110.139 E0.16762
G1 X114.63 Y110.731 E0.00987
G1 X114.51 Y111.311 E0.00985
G1 X114.312 Y111.87 E0.00986
G1 X114.066 Y112.356 E0.00906
G1 X110.952 Y117.657 E0.10224
G1 X110.618 Y118.147 E0.00986
G1 X110.221 Y118.587 E0.00986
G1 X109.768 Y118.97 E0.00987
G1 X109.268 Y119.289 E0.00986
G1 X108.91 Y119.464 E0.00663
G1 X108.751 Y119.533 E0.00288
G1 X108.192 Y119.732 E0.00987
G1 X107.612 Y119.854 E0.00986
G1 X107.027 Y119.897 E0.00975
G1 X103.593 Y119.919 E0.05711
G1 X102.812 Y119.854 E0.01303
G1 X102.052 Y119.722 E0.01283
G1 X101.476 Y119.581 E0.00986
G1 X100.924 Y119.365 E0.00986
G1 X100.406 Y119.076 E0.00986
G1 X99.932 Y118.72 E0.00986
G1 X99.51 Y118.303 E0.00987
G1 X99.006 Y117.608 E0.01428
G1 X95.928 Y112.343 E0.10142
G1 X95.664 Y111.812 E0.00986
G1 X95.474 Y111.25 E0.00987
G1 X95.361 Y110.668 E0.00986
G1 X95.327 Y110.136 E0.00887
G1 X95.296 Y100.12 E0.16657
G1 X95.377 Y99.264 E0.0143
G1 X95.43 Y98.992 E0.00461
G1 X95.583 Y98.419 E0.00986
G1 X95.819 Y97.855 E0.01017
G1 X98.874 Y91.789 E0.11295
G1 X99.176 Y91.278 E0.00987
G1 X99.544 Y90.813 E0.00986
G0 F3600 X100.043 Y90.874
G1 F1800 X100.606 Y90.337 E0.01294
G1 X101.042 Y89.976 E0.00941
G1 X101.44 Y89.726 E0.00782
G1 X102.033 Y89.4 E0.01125
G1 X102.546 Y89.163 E0.0094
G1 X102.93 Y89.04 E0.00671
G1 X103.568 Y88.87 E0.01098
G1 X104.123 Y88.763 E0.0094
G1 X104.754 Y88.738 E0.0105
G1 X105.78 Y88.778 E0.01708
G1 X106.342 Y88.84 E0.0094
G1 X106.973 Y89.009 E0.01086
G1 X107.604 Y89.235 E0.01115
G1 X108.121 Y89.463 E0.0094
G1 X108.472 Y89.672 E0.00679
G1 X109.035 Y90.047 E0.01125
G1 X109.483 Y90.393 E0.00941
G1 X109.961 Y90.902 E0.01161
G1 X110.653 Y91.781 E0.0186
G1 X110.97 Y92.249 E0.0094
G1 X111.114 Y92.519 E0.00509
G1 X113.904 Y98.312 E0.10693
G1 X114.113 Y98.838 E0.00941
G1 X114.245 Y99.387 E0.00939
G1 X114.3 Y100.059 E0.01121
G1 X114.272 Y110.138 E0.16762
G1 X114.23 Y110.702 E0.00941
G1 X114.11 Y111.254 E0.00939
G1 X113.913 Y111.784 E0.0094
G1 X113.721 Y112.153 E0.00692
G1 X110.607 Y117.454 E0.10224
G1 X110.287 Y117.92 E0.0094
G1 X109.904 Y118.336 E0.0094
G1 X109.467 Y118.694 E0.00939
G1 X108.75 Y119.097 E0.01368
G1 X108.591 Y119.166 E0.00288
G1 X108.058 Y119.354 E0.0094
G1 X107.504 Y119.465 E0.0094
G1 X107.025 Y119.497 E0.00798
G1 X103.591 Y119.519 E0.05711
G1 X102.881 Y119.46 E0.01185
G1 X102.121 Y119.328 E0.01283
G1 X101.572 Y119.192 E0.00941
G1 X101.048 Y118.98 E0.0094
G1 X100.559 Y118.697 E0.0094
G1 X100.114 Y118.347 E0.00942
G1 X99.724 Y117.938 E0.0094
G1 X99.352 Y117.406 E0.0108
G1 X96.274 Y112.141 E0.10142
G1 X96.024 Y111.634 E0.0094
G1 X95.848 Y111.097 E0.0094
G1 X95.749 Y110.54 E0.00941
G1 X95.727 Y110.134 E0.00676
G1 X95.696 Y100.118 E0.16657
G1 X95.77 Y99.341 E0.01298
G1 X95.823 Y99.069 E0.00461
G1 X95.97 Y98.523 E0.0094
G1 X96.176 Y98.035 E0.00881
G1 X99.231 Y91.969 E0.11295
G1 X99.521 Y91.483 E0.00941
G1 X100.043 Y90.874 E0.01334
G0 F3600 X100.319 Y91.163
G1 F1800 X100.882 Y90.626 E0.01294
G1 X101.297 Y90.286 E0.00892
G1 X101.633 Y90.076 E0.00659
G1 X102.226 Y89.75 E0.01125
G1 X102.714 Y89.528 E0.00892
G1 X103.033 Y89.426 E0.00557
G1 X103.671 Y89.256 E0.01098
G1 X104.198 Y89.157 E0.00892
G1 X104.738 Y89.138 E0.00899
G1 X105.764 Y89.178 E0.01708
G1 X106.297 Y89.238 E0.00892
G1 X106.838 Y89.386 E0.00933
G1 X107.469 Y89.612 E0.01115
G1 X107.959 Y89.83 E0.00892
G1 X108.251 Y90.005 E0.00566
G1 X108.814 Y90.38 E0.01125
G1 X109.237 Y90.71 E0.00892
G1 X109.647 Y91.149 E0.00999
G1 X110.339 Y92.028 E0.0186
G1 X110.753 Y92.693 E0.01303
G1 X113.543 Y98.486 E0.10693
G1 X113.74 Y98.985 E0.00892
G1 X113.859 Y99.508 E0.00892
G1 X113.9 Y100.058 E0.00917
G1 X113.872 Y110.137 E0.16762
G1 X113.831 Y110.672 E0.00892
G1 X113.71 Y111.194 E0.00891
G1 X113.513 Y111.693 E0.00892
G1 X113.376 Y111.95 E0.00484
G1 X110.262 Y117.251 E0.10224
G1 X109.957 Y117.692 E0.00892
G1 X109.589 Y118.083 E0.00893
G1 X109.168 Y118.415 E0.00892
G1 X108.591 Y118.73 E0.01093
G1 X108.432 Y118.799 E0.00288
G1 X107.926 Y118.976 E0.00891
G1 X107.399 Y119.075 E0.00892
G1 X107.022 Y119.097 E0.00628
G1 X103.588 Y119.119 E0.05711
G1 X102.949 Y119.066 E0.01066
G1 X102.189 Y118.934 E0.01283
G1 X101.669 Y118.803 E0.00892
G1 X101.174 Y118.596 E0.00892
G1 X100.715 Y118.318 E0.00892
G1 X100.303 Y117.976 E0.0089
G1 X99.946 Y117.575 E0.00893
G1 X99.697 Y117.204 E0.00743
G1 X96.619 Y111.939 E0.10142
G1 X96.384 Y111.457 E0.00892
G1 X96.222 Y110.946 E0.00891
G1 X96.139 Y110.416 E0.00892
G1 X96.127 Y110.133 E0.00471
G1 X96.096 Y100.117 E0.16657
G1 X96.162 Y99.417 E0.01169
G1 X96.215 Y99.145 E0.00461
G1 X96.357 Y98.628 E0.00892
G1 X96.534 Y98.215 E0.00747
G1 X99.589 Y92.149 E0.11295
G1 X99.865 Y91.689 E0.00892
G1 X100.319 Y91.163 E0.01156
G0 F3600 X100.595 Y91.452
G1 F1800 X101.158 Y90.915 E0.01294
G1 X101.551 Y90.596 E0.00842
G1 X101.825 Y90.427 E0.00535
G1 X102.418 Y90.101 E0.01125
G1 X102.879 Y89.893 E0.00841
G1 X103.136 Y89.813 E0.00448
G1 X103.774 Y89.643 E0.01098
G1 X104.271 Y89.552 E0.0084
G1 X104.723 Y89.537 E0.00752
G1 X105.749 Y89.577 E0.01708
G1 X106.251 Y89.637 E0.00841
G1 X106.703 Y89.762 E0.0078
G1 X107.334 Y89.988 E0.01115
G1 X107.795 Y90.196 E0.00841
G1 X108.029 Y90.338 E0.00455
G1 X108.592 Y90.713 E0.01125
G1 X108.989 Y91.025 E0.0084
G1 X109.332 Y91.397 E0.00841
G1 X110.024 Y92.276 E0.0186
G1 X110.393 Y92.866 E0.01157
G1 X113.183 Y98.659 E0.10693
G1 X113.366 Y99.131 E0.00842
G1 X113.472 Y99.625 E0.0084
G1 X113.5 Y100.057 E0.0072
G1 X113.472 Y110.136 E0.16762
G1 X113.431 Y110.64 E0.00841
G1 X113.31 Y111.131 E0.00841
G1 X113.031 Y111.748 E0.01126
G1 X109.917 Y117.049 E0.10224
G1 X109.627 Y117.463 E0.00841
G1 X109.276 Y117.827 E0.00841
G1 X108.872 Y118.13 E0.0084
G1 X108.432 Y118.364 E0.00829
G1 X108.273 Y118.433 E0.00288
G1 X107.795 Y118.597 E0.0084
G1 X107.297 Y118.683 E0.0084
G1 X107.02 Y118.697 E0.00461
G1 X103.586 Y118.719 E0.05711
G1 X103.017 Y118.672 E0.00949
G1 X102.257 Y118.54 E0.01283
G1 X101.768 Y118.414 E0.0084
G1 X101.304 Y118.213 E0.00841
G1 X100.878 Y117.941 E0.00841
G1 X100.499 Y117.606 E0.00841
G1 X100.042 Y117.002 E0.0126
G1 X96.964 Y111.737 E0.10142
G1 X96.745 Y111.282 E0.0084
G1 X96.599 Y110.798 E0.00841
G1 X96.527 Y110.132 E0.01114
G1 X96.496 Y100.116 E0.16657
G1 X96.555 Y99.494 E0.01039
G1 X96.608 Y99.222 E0.00461
G1 X96.744 Y98.735 E0.00841
G1 X96.891 Y98.395 E0.00616
G1 X99.946 Y92.329 E0.11295
G1 X100.208 Y91.896 E0.00842
G1 X100.595 Y91.452 E0.00979
G1 F3600 E-5
G0 F3600 X101.716 Y94.358
G0 X102.964 Y94.976
G0 X102.787 Y96.653
;TYPE:WALL-INNER
G1 F3600 E5
G1 F1800 X102.929 Y96.908 E0.00485
G1 X103.023 Y97.023 E0.00247
G1 X103.198 Y97.236 E0.00458
G1 X103.516 Y97.516 E0.00705
G1 X103.878 Y97.737 E0.00705
G1 X104.272 Y97.895 E0.00706
G1 X104.686 Y97.983 E0.00704
G1 X105.113 Y98.002 E0.00711
G1 X105.536 Y97.945 E0.0071
G1 X105.937 Y97.82 E0.00699
G1 X106.317 Y97.63 E0.00707
G1 X106.659 Y97.373 E0.00711
G1 X106.949 Y97.071 E0.00696
G1 X106.951 Y97.069 E0.00005
G1 X107.188 Y96.717 E0.00706
G1 X107.215 Y96.657 E0.00109
G1 X107.231 Y96.699
G1 X107.319 Y96.925 E0.00059
G1 X107.32 Y96.927 E0.00004
G1 X107.458 Y97.281 E0.00632
G1 X107.78 Y97.968 E0.01262
G1 X108.146 Y98.63 E0.01258
G1 X108.553 Y99.269 E0.0126
G1 X109 Y99.877 E0.01255
G1 X109.208 Y100.128 E0.00542
G1 X109.311 Y100.253 E0.00269
G1 X109.311 Y100.5 E0.00411
G1 X109.149 Y100.5 E0.00223
G1 X100.851 Y100.5 E0.138
G1 X100.688 Y100.5 E0.00271
G1 X100.688 Y100.254 E0.00409
G1 X100.792 Y100.129 E0.00223
G1 X101 Y99.877 E0.00543
G1 X101.447 Y99.269 E0.01255
G1 X101.854 Y98.63 E0.0126
G1 X102.22 Y97.968 E0.01258
G1 X102.542 Y97.281 E0.01262
G1 X102.665 Y96.965 E0.00564
G1 X102.719 Y96.827 E0.00082
G1 X102.787 Y96.653
G0 F3600 X102.44 Y96.442
G1 F1800 X102.596 Y95.949 E0.0086
G1 X102.605 Y95.92 E0.0005
G1 X102.661 Y95.746 E0.00304
G1 X102.69 Y95.63 E0.00199
G1 X102.774 Y95.295 E0.00574
G1 X102.83 Y95.071 E0.00384
G1 X102.864 Y94.949 E0.00211
G1 X102.915 Y94.767 E0.00314
G1 X102.985 Y94.598 E0.00304
G1 X103.014 Y94.53 E0.00123
G1 X103.156 Y94.284 E0.00472
G1 X103.17 Y94.265 E0.00039
G1 X103.318 Y94.066 E0.00412
G1 X103.404 Y93.977 E0.00206
G1 X103.512 Y93.865 E0.00259
G1 X103.68 Y93.73 E0.00358
G1 X103.716 Y93.701 E0.00077
G1 X103.952 Y93.553 E0.00463
G1 X104.004 Y93.529 E0.00095
G1 X104.201 Y93.439 E0.0036
G1 X104.348 Y93.392 E0.00257
G1 X104.453 Y93.358 E0.00184
G1 X104.707 Y93.311 E0.0043
G1 X104.729 Y93.306 E0.00038
G1 X105 Y93.29 E0.00451
G1 X105.091 Y93.295 E0.00152
G1 X105.271 Y93.306 E0.003
G1 X105.458 Y93.341 E0.00316
G1 X105.547 Y93.358 E0.00151
G1 X105.799 Y93.439 E0.0044
G1 X105.821 Y93.449 E0.0004
G1 X106.048 Y93.553 E0.00415
G1 X106.153 Y93.619 E0.00206
G1 X106.284 Y93.701 E0.00257
G1 X106.452 Y93.836 E0.00358
G1 X106.488 Y93.865 E0.00077
G1 X106.682 Y94.066 E0.00465
G1 X106.715 Y94.111 E0.00093
G1 X106.844 Y94.284 E0.00359
G1 X106.921 Y94.417 E0.00256
G1 X106.986 Y94.53 E0.00217
G1 X107.079 Y94.753 E0.00402
G1 X107.085 Y94.765 E0.00022
G1 X107.166 Y95.056 E0.00502
G1 X107.179 Y95.11 E0.00092
G1 X107.265 Y95.453 E0.00588
G1 X107.339 Y95.746 E0.00503
G1 X107.344 Y95.764 E0.00031
G1 X107.404 Y95.954 E0.00331
G1 X107.56 Y96.442 E0.00852
G1 X107.826 Y97.123 E0.01216
G1 X108.137 Y97.786 E0.01218
G1 X108.49 Y98.426 E0.01215
G1 X108.883 Y99.043 E0.01217
G1 X109.315 Y99.631 E0.01213
G1 X109.711 Y100.108 E0.01031
G1 X109.707 Y109.708 E0.15965
G1 X106.712 Y109.713 E0.04981
G1 X106.712 Y114.918 E0.08656
G1 X106.202 Y114.925 E0.00848
G1 X106.201 Y114.926 E0.00002
G1 X106 Y114.927 E0.00334
G1 X106 Y114.726 E0.00216
G1 X106 Y114.725 E0.00002
G1 X106 Y109.1 E0.09354
G1 X109.1 Y109.1 E0.05155
G1 X109.1 Y100.9 E0.13637
G1 X100.9 Y100.9 E0.13637
G1 X100.9 Y109.1 E0.13637
G1 X104 Y109.1 E0.05155
G1 X104 Y114.722 E0.09349
G1 X104 Y114.723 E0.00002
G1 X104 Y114.923 E0.00333
G1 X103.8 Y114.923 E0.00215
G1 X103.799 Y114.922 E0.00002
G1 X103.289 Y114.917 E0.00848
G1 X103.288 Y109.713 E0.08654
G1 X100.293 Y109.708 E0.04981
G1 X100.288 Y100.11 E0.15962
G1 X100.685 Y99.631 E0.01035
G1 X101.117 Y99.043 E0.01213
G1 X101.51 Y98.426 E0.01217
G1 X101.863 Y97.786 E0.01215
G1 X102.174 Y97.123 E0.01218
G1 X102.44 Y96.442 E0.01216
G0 F3600 X103.087 Y96.37
G1 F1800 X103.261 Y96.682 E0.00594
G1 X103.487 Y96.957 E0.00592
G1 X103.754 Y97.193 E0.00593
G1 X104.058 Y97.378 E0.00592
G1 X104.389 Y97.511 E0.00593
G1 X104.737 Y97.585 E0.00592
G1 X105.095 Y97.601 E0.00596
G1 X105.449 Y97.553 E0.00594
G1 X105.787 Y97.448 E0.00589
G1 X106.106 Y97.288 E0.00593
G1 X106.393 Y97.073 E0.00596
G1 X106.638 Y96.817 E0.00589
G1 X106.837 Y96.522 E0.00592
G1 X106.984 Y96.194 E0.00598
G1 X107.023 Y96.044 E0.00258
G1 X107.072 Y95.851 E0.00285
G1 X107.083 Y95.725
G1 X107.103 Y95.495
G1 X107.07 Y95.138 E0.00007
G1 X107.057 Y95.086
G1 X106.98 Y94.796
G1 X106.882 Y94.577
G1 X106.833 Y94.469
G1 X106.751 Y94.349
G1 X106.631 Y94.174
G1 X106.602 Y94.144
G1 X106.408 Y93.944
G1 X106.384 Y93.919
G1 X106.215 Y93.795
G1 X106.098 Y93.708
G1 X105.997 Y93.657
G1 X105.778 Y93.547
G1 X105.514 Y93.469
G1 X105.438 Y93.446
G1 X105.256 Y93.422
G1 X105.085 Y93.399
G1 X105.006 Y93.402
G1 X104.726 Y93.416
G1 X104.478 Y93.469
G1 X104.38 Y93.491
G1 X104.245 Y93.546
G1 X104.05 Y93.626
G1 X104.012 Y93.649
G1 X103.774 Y93.796
G1 X103.746 Y93.813
G1 X103.59 Y93.951
G1 X103.48 Y94.049
G1 X103.408 Y94.138
G1 X103.255 Y94.327
G1 X103.113 Y94.584
G1 X103.083 Y94.639
G1 X103.025 Y94.805
G1 X102.964 Y94.976
G1 X102.945 Y95.09
G1 X102.905 Y95.328
G1 X102.906 Y95.683 E0.00107
G1 X102.909 Y95.702
G1 X102.967 Y96.034 E0.00455
G1 X102.977 Y96.063 E0.0005
G1 X103.087 Y96.37 E0.00542
G0 F3600 X102.996 Y96.411
G0 X102.867 Y95.686
G0 X102.926 Y94.966
G0 X103.222 Y94.305
G0 X103.723 Y93.781
G0 X104.369 Y93.453
G0 X104.756 Y93.314
G0 X104.779 Y93.814
;TYPE:WALL-OUTER
G1 F1800 X104.499 Y93.875 E0.00477
G1 X104.231 Y93.984 E0.00481
G1 X103.985 Y94.135 E0.0048
G1 X103.77 Y94.326 E0.00478
G1 X103.588 Y94.551 E0.00481
G1 X103.449 Y94.803 E0.00479
G1 X103.353 Y95.076 E0.00481
G1 X103.305 Y95.361 E0.00481
G1 X103.306 Y95.648 E0.00477
G1 X103.355 Y95.932 E0.00479
G1 X103.452 Y96.204 E0.0048
G1 X103.593 Y96.456 E0.0048
G1 X103.776 Y96.679 E0.0048
G1 X103.992 Y96.87 E0.0048
G1 X104.238 Y97.019 E0.00478
G1 X104.506 Y97.127 E0.00481
G1 X104.788 Y97.187 E0.00479
G1 X105.077 Y97.2 E0.00481
G1 X105.362 Y97.161 E0.00478
G1 X105.637 Y97.076 E0.00479
G1 X105.895 Y96.946 E0.0048
G1 X106.127 Y96.773 E0.00481
G1 X106.325 Y96.565 E0.00478
G1 X106.486 Y96.327 E0.00478
G1 X106.605 Y96.062 E0.00483
G1 X106.676 Y95.784 E0.00477
G1 X106.701 Y95.496 E0.00481
G1 X106.675 Y95.207 E0.00483
G1 X106.602 Y94.93 E0.00476
G1 X106.483 Y94.666 E0.00482
G1 X106.32 Y94.428 E0.0048
G1 X106.12 Y94.221 E0.00479
G1 X105.888 Y94.05 E0.00479
G1 X105.63 Y93.92 E0.0048
G1 X105.354 Y93.838 E0.00479
G1 X105.068 Y93.8 E0.0048
G1 X104.779 Y93.814 E0.00481
G0 F3600 X104.584 Y93.856
G0 X104.479 Y93.368
G0 X103.723 Y93.781
G0 X103.222 Y94.305
G0 X102.926 Y94.966
G0 X102.867 Y95.686
G0 X103.051 Y96.386
G0 X105.432 Y100.86
G0 X109.128 Y100.872
G0 X109.128 Y109.128
G0 X106.487 Y109.139
G0 X106.612 Y110.112
G0 X107.112 Y110.112
G1 F1800 X107.112 Y114.974 E0.08086
G1 X107.028 Y115.286 E0.00537
G1 X106.959 Y115.315 E0.00124
G1 X105.863 Y115.33 E0.01823
G1 X105.723 Y115.331 E0.00233
G1 X105.6 Y115.328 E0.00205
G1 X105.6 Y115.188 E0.00233
G1 X105.6 Y108.7 E0.1079
G1 X108.7 Y108.7 E0.05155
G1 X108.7 Y101.3 E0.12306
G1 X101.3 Y101.3 E0.12306
G1 X101.3 Y108.7 E0.12306
G1 X104.4 Y108.7 E0.05155
G1 X104.4 Y115.126 E0.10686
G1 X104.4 Y115.127 E0.00002
G1 X104.4 Y115.327 E0.00333
G1 X104.2 Y115.327 E0.00215
G1 X104.199 Y115.326 E0.00002
G1 X103.041 Y115.315 E0.01926
G1 X102.973 Y115.288 E0.00122
G1 X102.889 Y114.974 E0.00541
G1 X102.888 Y110.112 E0.08086
G1 X99.982 Y110.107 E0.04833
G1 X99.951 Y110.097 E0.00054
G1 X99.923 Y110.077 E0.00057
G1 X99.903 Y110.049 E0.00057
G1 X99.893 Y110.018 E0.00054
G1 X99.888 Y100.018 E0.1663
G1 X99.896 Y99.968 E0.00084
G1 X99.91 Y99.938 E0.00055
G1 X100.37 Y99.385 E0.01196
G1 X100.787 Y98.817 E0.01172
G1 X101.166 Y98.222 E0.01173
G1 X101.506 Y97.604 E0.01173
G1 X101.806 Y96.965 E0.01174
G1 X102.063 Y96.308 E0.01173
G1 X102.276 Y95.637 E0.01171
G1 X102.445 Y94.964 E0.01154
G1 X102.537 Y94.634 E0.0057
G1 X102.657 Y94.347 E0.00517
G1 X102.819 Y94.066 E0.00539
G1 X103.012 Y93.807 E0.00537
G1 X103.238 Y93.573 E0.00541
G1 X103.485 Y93.374 E0.00527
G1 X103.76 Y93.202 E0.00539
G1 X104.06 Y93.064 E0.00549
G1 X104.354 Y92.97 E0.00513
G1 X104.679 Y92.909 E0.0055
G1 X105 Y92.89 E0.00535
G1 X105.321 Y92.909 E0.00535
G1 X105.646 Y92.97 E0.0055
G1 X105.94 Y93.064 E0.00513
G1 X106.24 Y93.202 E0.00549
G1 X106.515 Y93.374 E0.00539
G1 X106.762 Y93.573 E0.00527
G1 X106.988 Y93.807 E0.00541
G1 X107.181 Y94.066 E0.00537
G1 X107.343 Y94.347 E0.00539
