;FLAVOR:RepRap
;TIME:1883
;Filament used: 1.02581m
;Layer height: 0.1
;Generated with Cura_SteamEngine 3.0.3
T0
M190 S60
M104 S200
M109 S200
M82 ; absolute extrusion mode
G21 ;metric values
G90 ;absolute positioning
M82 ;set extruder to absolute mode
M107 ;start with the fan off
G28 X0 Y0 ;move X/Y to min endstops
G28 Z0 ;move Z to min endstops
G1 Z15.0 F9000 ;move the platform down 15mm
G92 E0 ;zero the extruded length
G1 F200 E3 ;extrude 3mm of feed stock
G92 E0 ;zero the extruded length again
G1 F9000
;Put printing message on LCD screen
M117 Printing...
M83 ; relative extrusion mode
;LAYER_COUNT:70
;LAYER:0
M107
G0 F3600 X80.482 Y80.731 Z0.1
;TYPE:SKIRT
G1 F1800 X80.988 Y80.256 E0.01154
G1 X81.405 Y79.919 E0.00892
G1 X81.868 Y79.648 E0.00892
G1 X82.245 Y79.489 E0.0068
G1 X83.077 Y79.193 E0.01469
G1 X83.595 Y79.052 E0.00893
G1 X84.127 Y78.988 E0.00891
G1 X84.447 Y78.989 E0.00532
G1 X85.044 Y79.016 E0.00994
G1 X85.576 Y79.08 E0.00891
G1 X86.093 Y79.222 E0.00892
G1 X86.344 Y79.323 E0.0045
G1 X87.095 Y79.657 E0.01367
G1 X87.567 Y79.91 E0.00891
G1 X88.178 Y80.401 E0.01304
G1 X129.627 Y121.863 E0.97497
G1 X129.977 Y122.269 E0.00891
G1 X130.262 Y122.723 E0.00891
G1 X130.41 Y123.037 E0.00577
G1 X130.732 Y123.819 E0.01406
G1 X130.899 Y124.329 E0.00892
G1 X130.988 Y124.858 E0.00892
G1 X130.998 Y125.385 E0.00877
G1 X130.954 Y126.198 E0.01354
G1 X130.885 Y126.729 E0.0089
G1 X130.738 Y127.245 E0.00892
G1 X130.62 Y127.529 E0.00511
G1 X130.327 Y128.155 E0.01149
G1 X130.064 Y128.623 E0.00893
G1 X129.589 Y129.197 E0.01239
G1 X129.13 Y129.648 E0.0107
G1 X128.721 Y129.994 E0.00891
G1 X128.384 Y130.211 E0.00667
G1 X128.074 Y130.387 E0.00593
G1 X127.59 Y130.616 E0.0089
G1 X127.12 Y130.761 E0.00818
G1 X126.409 Y130.928 E0.01215
G1 X125.879 Y131.011 E0.00892
G1 X125.121 Y130.993 E0.01261
G1 X124.453 Y130.906 E0.0112
G1 X123.928 Y130.797 E0.00892
G1 X123.291 Y130.547 E0.01138
G1 X122.756 Y130.276 E0.00997
G1 X122.297 Y129.999 E0.00892
G1 X121.839 Y129.612 E0.00997
G1 X80.822 Y88.633 E0.96421
G1 X80.559 Y88.34 E0.00655
G1 X79.964 Y87.599 E0.0158
G1 X79.66 Y87.157 E0.00892
G1 X79.341 Y86.437 E0.0131
G1 X79.165 Y85.884 E0.00965
G1 X79.04 Y85.362 E0.00893
G1 X78.995 Y84.763 E0.00999
G1 X79 Y84.144 E0.01029
G1 X79.044 Y83.609 E0.00893
G1 X79.168 Y83.088 E0.00891
G1 X79.285 Y82.769 E0.00565
G1 X79.631 Y81.952 E0.01475
G1 X79.876 Y81.475 E0.00892
G1 X80.19 Y81.04 E0.00892
G1 X80.482 Y80.731 E0.00707
G0 F3600 X80.756 Y81.023
G1 F1800 X81.262 Y80.548 E0.01154
G1 X81.657 Y80.232 E0.00841
G1 X82.096 Y79.982 E0.0084
G1 X82.379 Y79.866 E0.00509
G1 X83.211 Y79.57 E0.01469
G1 X83.7 Y79.439 E0.00842
G1 X84.429 Y79.388 E0.01215
G1 X85.026 Y79.415 E0.00994
G1 X85.527 Y79.478 E0.0084
G1 X86.181 Y79.688 E0.01142
G1 X86.932 Y80.022 E0.01367
G1 X87.377 Y80.263 E0.00842
G1 X87.895 Y80.684 E0.0111
G1 X129.344 Y122.146 E0.97497
G1 X129.672 Y122.53 E0.0084
G1 X130.04 Y123.19 E0.01257
G1 X130.362 Y123.972 E0.01406
G1 X130.517 Y124.453 E0.0084
G1 X130.594 Y124.952 E0.0084
G1 X130.598 Y125.363 E0.00684
G1 X130.554 Y126.176 E0.01354
G1 X130.487 Y126.677 E0.00841
G1 X130.257 Y127.36 E0.01199
G1 X129.964 Y127.986 E0.01149
G1 X129.714 Y128.425 E0.0084
G1 X129.309 Y128.912 E0.01053
G1 X128.85 Y129.363 E0.0107
G1 X128.462 Y129.687 E0.00841
G1 X128.187 Y129.863 E0.00543
G1 X127.877 Y130.039 E0.00593
G1 X127.419 Y130.253 E0.00841
G1 X127.029 Y130.371 E0.00678
G1 X126.318 Y130.538 E0.01215
G1 X125.818 Y130.615 E0.00841
G1 X125.173 Y130.596 E0.01073
G1 X124.505 Y130.509 E0.0112
G1 X124.01 Y130.405 E0.00841
G1 X123.472 Y130.191 E0.00963
G1 X122.937 Y129.92 E0.00997
G1 X122.505 Y129.656 E0.00842
G1 X122.121 Y129.329 E0.00839
G1 X81.104 Y88.35 E0.96421
G1 X80.871 Y88.09 E0.00581
G1 X80.276 Y87.349 E0.0158
G1 X79.991 Y86.931 E0.00841
G1 X79.722 Y86.315 E0.01118
G1 X79.546 Y85.762 E0.00965
G1 X79.431 Y85.27 E0.0084
G1 X79.395 Y84.766 E0.0084
G1 X79.4 Y84.147 E0.01029
G1 X79.444 Y83.644 E0.0084
G1 X79.653 Y82.925 E0.01245
G1 X79.999 Y82.108 E0.01475
G1 X80.233 Y81.66 E0.00841
G1 X80.534 Y81.253 E0.00842
G1 X80.756 Y81.023 E0.00532
G1 F1500 E-6.5
G0 F3600 X82.429 Y82.922
G0 X82.482 Y82.982
G0 X83.578 Y84.225
G0 X83.631 Y84.285
G0 X84.589 Y85.371
G0 X84.774 Y86.632
G0 X85.52 Y86.826
;TYPE:WALL-INNER
G1 F1500 E6.5
G1 F1800 X85.6 Y86.795 E0.00143
G1 X85.778 Y86.69 E0.00344
G1 X85.972 Y86.575 E0.00375
G1 X86.304 Y86.295 E0.00722
G1 X86.583 Y85.961 E0.00724
G1 X86.691 Y85.776 E0.00356
G1 X86.8 Y85.588 E0.00361
G1 X86.825 Y85.522 E0.00117
G1 X86.844 Y85.541
G1 X86.998 Y85.695 E0.00242
G1 X124.363 Y123.057 E0.87873
G1 X124.411 Y123.105 E0.00113
G1 X124.482 Y123.176 E0.00167
G1 X124.209 Y123.306 E0.00185
G1 X124.154 Y123.345 E0.001
G1 X123.854 Y123.559 E0.00613
G1 X123.549 Y123.865 E0.00718
G1 X123.344 Y124.157 E0.00593
G1 X123.3 Y124.22 E0.00128
G1 X123.178 Y124.479 E0.00476
G1 X123.111 Y124.412
G1 X123.057 Y124.358 E0.00111
G1 X85.691 Y86.997 E0.87873
G1 X85.545 Y86.851 E0.00173
G1 X85.52 Y86.826
G0 F3600 X85.426 Y86.433
G1 F1800 X85.74 Y86.248 E0.00606
G1 X86.019 Y86.012 E0.00608
G1 X86.254 Y85.731 E0.00609
G1 X86.437 Y85.416 E0.00606
G1 X86.53 Y85.17 E0.00437
G1 X86.565 Y85.075 E0.00168
G1 X86.626 Y84.757 E0.00538
G1 X86.753 Y84.884
G1 X86.825 Y84.956 E0.00146
G1 X125.013 Y123.141 E0.89809
G1 X125.178 Y123.306 E0.00388
G1 X125.249 Y123.377 E0.00167
G1 X125.091 Y123.394
G1 X124.867 Y123.459 E0.00272
G1 X124.742 Y123.495 E0.00216
G1 X124.413 Y123.652 E0.00606
G1 X124.114 Y123.865 E0.00611
G1 X123.857 Y124.123 E0.00606
G1 X123.647 Y124.422 E0.00608
G1 X123.491 Y124.753 E0.00609
G1 X123.459 Y124.865 E0.00194
G1 X123.393 Y125.102 E0.00409
G1 X123.377 Y125.244 E0.00238
G1 X123.315 Y125.182
G1 X123.142 Y125.009 E0.00279
G1 X84.954 Y86.826 E0.89806
G1 X84.888 Y86.76 E0.00155
G1 X84.755 Y86.627 E0.00313
G1 X85.085 Y86.563 E0.00152
G1 X85.173 Y86.53 E0.00136
G1 X85.426 Y86.433 E0.00451
G0 F3600 X85.469 Y86.523
G0 X86.047 Y86.04
G0 X86.473 Y85.433
G0 X86.655 Y84.852
G0 X86.54 Y84.105
;TYPE:WALL-OUTER
G1 F1800 X125.911 Y123.473 E0.92591
G1 X125.987 Y123.549 E0.00179
G1 X126.164 Y123.726 E0.00416
G1 X126.356 Y123.918 E0.00452
G1 X126.415 Y123.977 E0.00139
G1 X126.524 Y124.086 E0.00256
G1 X126.393 Y123.997
G1 X126.317 Y123.956
G1 X126.049 Y123.842
G1 X125.762 Y123.774 E0.0026
G1 X125.654 Y123.768 E0.00163
G1 X125.464 Y123.755 E0.00317
G1 X125.169 Y123.788 E0.00494
G1 X124.885 Y123.87 E0.00492
G1 X124.617 Y123.998 E0.00494
G1 X124.374 Y124.171 E0.00496
G1 X124.165 Y124.381 E0.00493
G1 X123.994 Y124.624 E0.00494
G1 X123.867 Y124.893 E0.00495
G1 X123.787 Y125.178 E0.00492
G1 X123.755 Y125.473 E0.00493
G1 X123.768 Y125.651 E0.00297
G1 X123.776 Y125.77 E0.00198
G1 X123.844 Y126.057 E0.0049
G1 X123.96 Y126.327 E0.00489
G1 X124.081 Y126.514 E0.0037
G1 X123.928 Y126.361
G1 X123.735 Y126.168
G1 X123.557 Y125.991 E0.0012
G1 X123.473 Y125.907 E0.00177
G1 X84.101 Y86.539 E0.92592
G1 X83.926 Y86.364 E0.00412
G1 X83.74 Y86.178 E0.00437
G1 X83.534 Y85.972 E0.00484
G1 X83.455 Y85.893 E0.00186
G1 X83.543 Y85.964
G1 X83.812 Y86.106
G1 X84.093 Y86.198 E0.00104
G1 X84.338 Y86.233 E0.00331
G1 X84.387 Y86.241 E0.00083
G1 X84.684 Y86.233 E0.00494
G1 X84.975 Y86.177 E0.00493
G1 X85.252 Y86.071 E0.00493
G1 X85.508 Y85.921 E0.00493
G1 X85.734 Y85.729 E0.00493
G1 X85.925 Y85.501 E0.00495
G1 X86.074 Y85.244 E0.00494
G1 X86.179 Y84.966 E0.00494
G1 X86.235 Y84.675 E0.00493
G1 X86.24 Y84.378 E0.00494
G1 X86.234 Y84.341 E0.00062
G1 X86.196 Y84.084 E0.00432
G1 X86.105 Y83.809 E0.00482
G1 X86.001 Y83.603 E0.00384
G1 X85.895 Y83.46 E0.00296
G1 X86.019 Y83.584
G1 X86.174 Y83.739
G1 X86.357 Y83.922
G1 X86.54 Y84.105 E0.00342
G0 F3600 X86.681 Y84.246
G0 X86.655 Y84.852
G0 X86.918 Y86.179
;TYPE:WALL-INNER
G1 F1800 X123.828 Y123.086 E0.86803
G1 X123.594 Y123.253 E0.00478
G1 X123.241 Y123.607 E0.00831
G1 X123.088 Y123.825 E0.00443
G1 X86.177 Y86.919 E0.86803
G1 X86.204 Y86.903 E0.00052
G1 X86.588 Y86.579 E0.00836
G1 X86.918 Y86.179 E0.00862
G0 F3600 X86.711 Y86.711
;TYPE:SKIN
G1 F1800 X123.296 Y123.296 E0.86042
G1 X123.366 Y123.366
G0 F3600 X85.2 Y86.932
G0 X85.183 Y86.949
;TIME_ELAPSED:30.414880
;LAYER:1
M140 S60
M106 S255
G0 F5400 X85.183 Y86.949 Z0.2
;TYPE:WALL-INNER
G1 F2700 X85.473 Y86.841 E0.00515
G1 X85.612 Y86.788 E0.00247
G1 X85.983 Y86.567 E0.00718
G1 X86.312 Y86.286 E0.0072
G1 X86.59 Y85.952 E0.00723
G1 X86.798 Y85.591 E0.00693
G1 X86.806 Y85.576 E0.00028
G1 X86.948 Y85.191 E0.00682
G1 X87.068 Y85.311
G1 X87.08 Y85.323 E0.00027
G1 X124.651 Y122.883 E0.88348
G1 X124.741 Y122.973 E0.00212
G1 X124.824 Y123.056 E0.00195
G1 X124.587 Y123.126 E0.00097
G1 X124.472 Y123.181 E0.00172
G1 X124.2 Y123.314 E0.00504
G1 X123.848 Y123.565 E0.00719
G1 X123.542 Y123.874 E0.00723
G1 X123.294 Y124.232 E0.00724
G1 X123.178 Y124.478 E0.00452
G1 X123.111 Y124.623 E0.00266
G1 X123.057 Y124.817 E0.00335
G1 X122.988 Y124.748
G1 X122.875 Y124.635 E0.00204
G1 X85.402 Y87.168 E0.88124
G1 X85.183 Y86.949 E0.00298
G0 F5400 X85.096 Y86.559
G1 F2700 X85.436 Y86.427 E0.00607
G1 X85.749 Y86.241 E0.00605
G1 X86.026 Y86.004 E0.00606
G1 X86.26 Y85.723 E0.00608
G1 X86.442 Y85.406 E0.00608
G1 X86.568 Y85.065 E0.00605
G1 X86.614 Y84.819 E0.00416
G1 X86.635 Y84.706 E0.00191
G1 X86.634 Y84.311 E0.00657
G1 X86.831 Y84.508 E0.00024
G1 X86.912 Y84.589 E0.00165
G1 X125.401 Y123.067 E0.90507
G1 X125.566 Y123.232 E0.00388
G1 X125.704 Y123.37 E0.00325
G1 X125.444 Y123.355
G1 X125.212 Y123.381 E0.00289
G1 X125.081 Y123.397 E0.00219
G1 X124.732 Y123.5 E0.00605
G1 X124.405 Y123.659 E0.00605
G1 X124.108 Y123.871 E0.00607
G1 X123.851 Y124.131 E0.00608
G1 X123.642 Y124.432 E0.00609
G1 X123.488 Y124.762 E0.00606
G1 X123.391 Y125.112 E0.00604
G1 X123.381 Y125.207 E0.00159
G1 X123.354 Y125.475 E0.00448
G1 X123.371 Y125.697 E0.0037
G1 X123.253 Y125.579
G1 X123.063 Y125.389 E0.00317
G1 X84.578 Y86.91 E0.90504
G1 X84.519 Y86.851 E0.00139
G1 X84.342 Y86.674 E0.00416
G1 X84.3 Y86.632 E0.00099
G1 X84.373 Y86.642
G1 X84.737 Y86.631 E0.00089
G1 X84.819 Y86.615 E0.00125
G1 X85.096 Y86.559 E0.0047
G1 F1500 E-6.5
G0 F5400 X85.124 Y86.654
G0 X85.76 Y86.257
G0 X85.012 Y85.208
G0 X84.355 Y83.621
G0 X84.217 Y82.765
;TYPE:WALL-OUTER
G1 F1500 E6.5
G1 F1800 X83.962 Y82.826 E0.00436
G1 X83.696 Y82.936 E0.00479
G1 X83.471 Y83.072 E0.00437
G1 X83.252 Y83.26 E0.0048
G1 X83.082 Y83.46 E0.00437
G1 X82.931 Y83.706 E0.0048
G1 X82.831 Y83.949 E0.00437
G1 X82.764 Y84.229 E0.00479
G1 X82.743 Y84.493 E0.0044
G1 X82.769 Y84.779 E0.00478
G1 X82.831 Y85.041 E0.00448
G1 X82.935 Y85.29 E0.00449
G1 X83.071 Y85.513 E0.00434
G1 X83.26 Y85.736 E0.00486
G1 X83.538 Y85.96 E0.00594
G1 X83.62 Y86.01 E0.0016
G1 X83.731 Y86.065 E0.00206
G1 X83.822 Y86.11 E0.00169
G1 X84.101 Y86.2 E0.00488
G1 X84.395 Y86.241 E0.00494
G1 X84.692 Y86.232 E0.00494
G1 X84.983 Y86.174 E0.00493
G1 X85.26 Y86.066 E0.00494
G1 X85.515 Y85.915 E0.00493
G1 X85.74 Y85.722 E0.00493
G1 X85.93 Y85.494 E0.00494
G1 X86.078 Y85.236 E0.00495
G1 X86.181 Y84.958 E0.00493
G1 X86.235 Y84.667 E0.00492
G1 X86.239 Y84.37 E0.00494
G1 X86.193 Y84.077 E0.00493
G1 X86.105 Y83.809 E0.00469
G1 X86 Y83.601 E0.00387
G1 X85.9 Y83.466 E0.00279
G1 X85.788 Y83.316 E0.00311
G1 X85.755 Y83.281 E0.0008
G1 X85.721 Y83.246 E0.00081
G1 X85.526 Y83.079 E0.00427
G1 X85.279 Y82.93 E0.0048
G1 X85.03 Y82.828 E0.00447
G1 X84.764 Y82.763 E0.00455
G1 X84.474 Y82.745 E0.00483
G1 X84.459 Y82.744 E0.00025
G1 X84.217 Y82.765 E0.00404
G0 F5400 X84.023 Y82.811
G0 X85.101 Y82.535
G1 F1800 X85.126 Y82.541 E0.00043
G1 X85.144 Y82.548 E0.00028
G1 X85.394 Y82.651 E0.00339
G1 X85.427 Y82.665 E0.00052
G1 X85.437 Y82.671 E0.00017
G1 X85.684 Y82.823 E0.00364
G1 X85.695 Y82.83 E0.00019
G1 X85.723 Y82.855
G1 X85.916 Y83.025 E0.00223
G1 X85.971 Y83.074 E0.00005
G1 X86.003 Y83.107 E0.00046
G1 X86.16 Y83.271 E0.00203
G1 X86.244 Y83.355 E0.00122
G1 X126.552 Y123.652 E0.94785
G1 X126.58 Y123.68 E0.00066
G1 X126.643 Y123.743 E0.00148
G1 X126.799 Y123.899 E0.00367
G1 X126.927 Y124.027 E0.00301
G1 X126.97 Y124.076 E0.00108
G1 X127.143 Y124.273 E0.00436
G1 X127.168 Y124.301 E0.00062
G1 X127.174 Y124.312 E0.00021
G1 X127.326 Y124.558 E0.00481
G1 X127.335 Y124.573 E0.00029
G1 X127.346 Y124.6 E0.00048
G1 X127.447 Y124.845 E0.00441
G1 X127.459 Y124.874 E0.00052
G1 X127.462 Y124.888 E0.00024
G1 X127.53 Y125.17 E0.00482
G1 X127.534 Y125.185 E0.00026
G1 X127.536 Y125.216 E0.00052
G1 X127.557 Y125.478 E0.00437
G1 X127.56 Y125.506 E0.00047
G1 X127.559 Y125.526 E0.00033
G1 X127.536 Y125.814 E0.0048
G1 X127.534 Y125.827 E0.00022
G1 X127.527 Y125.86 E0.00056
G1 X127.465 Y126.115 E0.00436
G1 X127.459 Y126.138 E0.0004
G1 X127.452 Y126.157 E0.00034
G1 X127.361 Y126.377 E0.00396
G1 X127.335 Y126.439 E0.00112
G1 X127.182 Y126.688 E0.00486
G1 X127.168 Y126.711 E0.00045
G1 X127.154 Y126.727 E0.00035
G1 X126.972 Y126.939 E0.00465
G1 X126.957 Y126.957 E0.00039
G1 X126.941 Y126.971 E0.00035
G1 X126.73 Y127.152 E0.00462
G1 X126.711 Y127.168 E0.00041
G1 X126.691 Y127.18 E0.00039
G1 X126.468 Y127.317 E0.00435
G1 X126.439 Y127.335 E0.00057
G1 X126.426 Y127.34 E0.00023
G1 X126.158 Y127.45 E0.00482
G1 X126.138 Y127.459 E0.00036
G1 X126.115 Y127.464 E0.00039
G1 X125.858 Y127.526 E0.0044
G1 X125.827 Y127.534 E0.00053
G1 X125.812 Y127.535 E0.00025
G1 X125.526 Y127.558 E0.00477
G1 X125.506 Y127.56 E0.00033
G1 X125.477 Y127.558 E0.00048
G1 X125.215 Y127.537 E0.00437
G1 X125.185 Y127.534 E0.0005
G1 X125.169 Y127.531 E0.00027
G1 X124.886 Y127.462 E0.00484
G1 X124.874 Y127.459 E0.00021
G1 X124.845 Y127.447 E0.00052
G1 X124.6 Y127.347 E0.0044
G1 X124.573 Y127.335 E0.00049
G1 X124.558 Y127.326 E0.00029
G1 X124.312 Y127.175 E0.0048
G1 X124.301 Y127.168 E0.00022
G1 X124.273 Y127.144 E0.00061
G1 X124.076 Y126.972 E0.00435
G1 X124.046 Y126.946 E0.00066
G1 X123.897 Y126.793 E0.00355
G1 X123.785 Y126.677 E0.00268
G1 X123.744 Y126.636 E0.00096
G1 X123.653 Y126.545 E0.00214
G1 X83.453 Y86.351 E0.94537
G1 X83.366 Y86.264 E0.00185
G1 X83.301 Y86.199 E0.00126
G1 X83.054 Y85.952 E0.00459
G1 X83.037 Y85.933 E0.00037
G1 X82.844 Y85.712 E0.00366
G1 X82.832 Y85.699 E0.00029
G1 X82.815 Y85.671 E0.00054
G1 X82.679 Y85.449 E0.0027
G1 X82.665 Y85.427 E0.00013
G1 X82.657 Y85.406 E0.00037
G1 X82.553 Y85.155 E0.0034
G1 X82.541 Y85.126 E0.00052
G1 X82.538 Y85.112 E0.00024
G1 X82.475 Y84.85 E0.00338
G1 X82.466 Y84.815 E0.0006
G1 X82.466 Y84.803 E0.0002
G1 X82.443 Y84.518 E0.00358
G1 X82.44 Y84.493 E0.00042
G1 X82.441 Y84.469 E0.00035
G1 X82.463 Y84.205 E0.00332
G1 X82.466 Y84.173 E0.00047
G1 X82.469 Y84.159 E0.00021
G1 X82.537 Y83.877 E0.00365
G1 X82.541 Y83.862 E0.00023
G1 X82.552 Y83.836 E0.00047
G1 X82.652 Y83.591 E0.00331
G1 X82.665 Y83.561 E0.00048
G1 X82.672 Y83.549 E0.0002
G1 X82.824 Y83.302 E0.00365
G1 X82.832 Y83.289 E0.00022
G1 X82.853 Y83.264 E0.0002
G1 X83.024 Y83.066 E0.00298
G1 X83.043 Y83.043 E0.0005
G1 X83.055 Y83.032 E0.00024
G1 X83.275 Y82.844 E0.00362
G1 X83.289 Y82.832 E0.00027
G1 X83.313 Y82.817 E0.00041
G1 X83.537 Y82.68 E0.00272
G1 X83.561 Y82.665 E0.00016
G1 X83.581 Y82.657 E0.00036
G1 X83.847 Y82.548 E0.00359
G1 X83.862 Y82.541 E0.00028
G1 X83.892 Y82.534 E0.00051
G1 X84.147 Y82.473 E0.00271
G1 X84.173 Y82.466
G1 X84.191 Y82.465
G1 X84.434 Y82.445 E0.00276
G1 X84.494 Y82.44 E0.00024
G1 X84.788 Y82.463 E0.00371
G1 X84.815 Y82.466 E0.0004
G1 X84.834 Y82.47 E0.00028
G1 X85.101 Y82.535 E0.00344
G0 F5400 X85.126 Y82.541
G0 X85.144 Y82.548
G0 X85.288 Y82.607
G1 F1500 E-6.5
G0 F5400 X84.893 Y83.706
G0 X85.345 Y84.726
G0 X86.587 Y85.07
G0 X125.104 Y123.294
G0 X125.161 Y123.79
G1 F1500 E6.5
G1 F1800 X124.877 Y123.874 E0.00493
G1 X124.61 Y124.004 E0.00494
G1 X124.369 Y124.176 E0.00492
G1 X124.16 Y124.388 E0.00495
G1 X123.99 Y124.632 E0.00495
G1 X123.865 Y124.901 E0.00493
G1 X123.786 Y125.186 E0.00492
G1 X123.756 Y125.481 E0.00493
G1 X123.778 Y125.778 E0.00495
G1 X123.848 Y126.066 E0.00493
G1 X123.939 Y126.268 E0.00368
G1 X123.992 Y126.386 E0.00202
G1 X124.062 Y126.488 E0.00132
G1 X124.121 Y126.575 E0.00031
G1 X124.271 Y126.747 E0.00222
G1 X124.47 Y126.916 E0.00227
G1 X124.715 Y127.068 E0.00354
G1 X124.958 Y127.168 E0.00326
G1 X125.239 Y127.236 E0.00354
G1 X125.501 Y127.256 E0.00323
G1 X125.788 Y127.233 E0.00362
G1 X126.044 Y127.173 E0.00242
