;FLAVOR:RepRap
;TIME:2424
;Filament used: 1.20197m
;Layer height: 0.1
;Generated with Cura_SteamEngine 3.0.3
T0
M190 S60
M104 S200
M109 S200
M82 ; absolute extrusion mode
G21 ;metric values
G90 ;absolute positioning
M82 ;set extruder to absolute mode
M107 ;start with the fan off
G28 X0 Y0 ;move X/Y to min endstops
G28 Z0 ;move Z to min endstops
G1 Z15.0 F9000 ;move the platform down 15mm
G92 E0 ;zero the extruded length
G1 F200 E3 ;extrude 3mm of feed stock
G92 E0 ;zero the extruded length again
G1 F9000
;Put printing message on LCD screen
M117 Printing...
M83 ; relative extrusion mode
;LAYER_COUNT:130
;LAYER:0
M107
G0 F3600 X120.725 Y79.235 Z0.1
;TYPE:SKIRT
G1 F1800 X120.84 Y79.125 E0.00265
G1 X121.734 Y78.306 E0.02016
G1 X122.289 Y77.888 E0.01155
G1 X122.757 Y77.602 E0.00912
G1 X123.234 Y77.357 E0.00892
G1 X123.524 Y77.25 E0.00514
G1 X124.554 Y76.916 E0.01801
G1 X125.075 Y76.789 E0.00892
G1 X125.664 Y76.74 E0.00983
G1 X126.757 Y76.74 E0.01818
G1 X127.292 Y76.78 E0.00892
G1 X127.702 Y76.866 E0.00697
G1 X128.397 Y77.055 E0.01198
G1 X128.902 Y77.234 E0.00891
G1 X129.254 Y77.412 E0.00656
G1 X130.221 Y77.971 E0.01857
G1 X130.664 Y78.274 E0.00893
G1 X131.023 Y78.602 E0.00809
G1 X131.635 Y79.243 E0.01474
G1 X132.096 Y79.841 E0.01256
G1 X132.391 Y80.32 E0.00936
G1 X132.638 Y80.796 E0.00892
G1 X132.75 Y81.095 E0.00531
G1 X133.084 Y82.122 E0.01796
G1 X133.211 Y82.643 E0.00892
G1 X133.249 Y82.954 E0.00521
G1 X133.292 Y83.504 E0.00917
G1 X133.281 Y84.179 E0.01123
G1 X133.201 Y84.906 E0.01216
G1 X133.103 Y85.433 E0.00891
G1 X132.986 Y85.798 E0.00637
G1 X132.599 Y86.81 E0.01802
G1 X132.37 Y87.295 E0.00892
G1 X132.101 Y87.703 E0.00813
G1 X131.545 Y88.434 E0.01527
G1 X131.226 Y88.8 E0.00807
G1 X89.305 Y130.735 E0.98608
G1 X89.196 Y130.84 E0.00252
G1 X88.275 Y131.687 E0.02081
G1 X87.718 Y132.107 E0.0116
G1 X87.246 Y132.396 E0.0092
G1 X86.627 Y132.698 E0.01145
G1 X85.945 Y132.953 E0.01211
G1 X85.43 Y133.103 E0.00892
G1 X85.165 Y133.149 E0.00447
G1 X84.261 Y133.271 E0.01517
G1 X83.726 Y133.303 E0.00891
G1 X83.388 Y133.282 E0.00563
G1 X82.685 Y133.205 E0.01176
G1 X82.158 Y133.107 E0.00891
G1 X81.788 Y132.987 E0.00647
G1 X80.745 Y132.587 E0.01858
G1 X80.26 Y132.358 E0.00892
G1 X79.85 Y132.088 E0.00816
G1 X79.132 Y131.54 E0.01502
G1 X78.731 Y131.184 E0.00892
G1 X78.503 Y130.924 E0.00575
G1 X78.047 Y130.353 E0.01215
G1 X77.744 Y129.911 E0.00891
G1 X77.617 Y129.671 E0.00452
G1 X77.223 Y128.854 E0.01508
G1 X77.027 Y128.355 E0.00892
G1 X76.938 Y128.007 E0.00597
G1 X76.791 Y127.284 E0.01227
G1 X76.724 Y126.752 E0.00892
G1 X76.724 Y126.368 E0.00639
G1 X76.784 Y125.283 E0.01807
G1 X76.854 Y124.751 E0.00892
G1 X76.981 Y124.292 E0.00792
G1 X77.283 Y123.43 E0.01519
G1 X77.498 Y122.938 E0.00893
G1 X77.683 Y122.626 E0.00603
G1 X78.09 Y122.014 E0.01222
G1 X78.541 Y121.464 E0.01183
G1 X120.725 Y79.235 E0.99263
G0 F3600 X121.008 Y79.517
G1 F1800 X121.11 Y79.419 E0.00235
G1 X122.004 Y78.6 E0.02016
G1 X122.497 Y78.229 E0.01026
G1 X122.965 Y77.943 E0.00912
G1 X123.647 Y77.63 E0.01248
G1 X124.677 Y77.296 E0.01801
G1 X125.169 Y77.179 E0.00841
G1 X125.664 Y77.14 E0.00826
G1 X126.757 Y77.14 E0.01818
G1 X127.261 Y77.18 E0.00841
G1 X127.597 Y77.252 E0.00571
G1 X128.292 Y77.441 E0.01198
G1 X128.768 Y77.612 E0.00841
G1 X129.054 Y77.759 E0.00535
G1 X130.021 Y78.318 E0.01857
G1 X130.437 Y78.604 E0.0084
G1 X130.733 Y78.878 E0.00671
G1 X131.345 Y79.519 E0.01474
G1 X131.756 Y80.051 E0.01118
G1 X132.051 Y80.53 E0.00936
G1 X132.281 Y80.98 E0.0084
G1 X132.369 Y81.218 E0.00422
G1 X132.703 Y82.245 E0.01796
G1 X132.85 Y82.986 E0.01256
G1 X132.893 Y83.536 E0.00917
G1 X132.884 Y84.135 E0.00996
G1 X132.804 Y84.862 E0.01216
G1 X132.709 Y85.359 E0.00841
G1 X132.612 Y85.655 E0.00518
G1 X132.225 Y86.667 E0.01802
G1 X132.008 Y87.123 E0.0084
G1 X131.783 Y87.461 E0.00675
G1 X131.227 Y88.192 E0.01527
G1 X130.943 Y88.517 E0.00718
G1 X89.022 Y130.452 E0.98608
G1 X88.925 Y130.545 E0.00223
G1 X88.004 Y131.392 E0.02081
G1 X87.509 Y131.766 E0.01032
G1 X87.037 Y132.055 E0.0092
G1 X86.487 Y132.323 E0.01017
G1 X85.805 Y132.578 E0.01211
G1 X85.112 Y132.752 E0.01188
G1 X84.208 Y132.874 E0.01517
G1 X83.703 Y132.902 E0.00841
G1 X83.432 Y132.884 E0.00452
G1 X82.729 Y132.807 E0.01176
G1 X82.232 Y132.712 E0.00841
G1 X81.931 Y132.614 E0.00526
G1 X80.888 Y132.214 E0.01858
G1 X80.432 Y131.996 E0.00841
G1 X80.093 Y131.77 E0.00678
G1 X79.375 Y131.222 E0.01502
G1 X78.998 Y130.884 E0.00842
G1 X78.816 Y130.675 E0.00461
G1 X78.36 Y130.104 E0.01215
G1 X77.978 Y129.497 E0.01193
G1 X77.584 Y128.68 E0.01508
G1 X77.401 Y128.209 E0.0084
G1 X77.33 Y127.928 E0.00482
G1 X77.183 Y127.205 E0.01227
G1 X77.122 Y126.703 E0.00841
G1 X77.124 Y126.39 E0.00521
G1 X77.184 Y125.305 E0.01807
G1 X77.252 Y124.804 E0.00841
G1 X77.359 Y124.424 E0.00657
G1 X77.661 Y123.562 E0.01519
G1 X77.865 Y123.1 E0.0084
G1 X78.016 Y122.848 E0.00489
G1 X78.423 Y122.236 E0.01222
G1 X78.824 Y121.746 E0.01053
G1 X121.008 Y79.517 E0.99263
G1 F1500 E-6.5
G0 F3600 X122.801 Y81.309
G0 X123.709 Y82.217
G0 X123.998 Y82.466
;TYPE:WALL-INNER
G1 F1500 E6.5
G1 F1800 X124.295 Y82.169 E0.00698
G1 X124.416 Y82.048 E0.00285
G1 X124.474 Y81.998 E0.00127
G1 X124.421 Y82.051
G1 X124.299 Y82.173
G1 X124.054 Y82.521 E0.00079
G1 X123.872 Y82.902 E0.00702
G1 X123.777 Y83.237 E0.00579
G1 X123.755 Y83.312 E0.0013
G1 X123.711 Y83.735 E0.00707
G1 X123.737 Y84.157 E0.00703
G1 X123.836 Y84.571 E0.00708
G1 X124.001 Y84.96 E0.00703
G1 X124.231 Y85.317 E0.00706
G1 X124.521 Y85.632 E0.00712
G1 X124.856 Y85.89 E0.00703
G1 X125.23 Y86.089 E0.00705
G1 X125.633 Y86.222 E0.00706
G1 X126.054 Y86.286 E0.00708
G1 X126.478 Y86.276 E0.00705
G1 X126.76 Y86.221 E0.00478
G1 X126.895 Y86.195 E0.00229
G1 X127.293 Y86.045 E0.00707
G1 X127.659 Y85.831 E0.00705
G1 X127.952 Y85.584 E0.00637
G1 X127.682 Y85.854
G1 X127.393 Y86.143 E0.00159
G1 X127.119 Y86.417 E0.004
G1 X127.022 Y86.514 E0.00205
G1 X86.582 Y126.954 E0.95109
G1 X86.502 Y127.034 E0.00188
G1 X86.227 Y127.309 E0.00647
G1 X85.935 Y127.601 E0.00687
G1 X85.915 Y127.621 E0.00047
G1 X85.932 Y127.599
G1 X86.135 Y127.216 E0.0014
G1 X86.271 Y126.805 E0.00433
G1 X86.288 Y126.693 E0.00172
G1 X86.336 Y126.376 E0.00533
G1 X86.326 Y125.942 E0.00722
G1 X86.243 Y125.516 E0.00722
G1 X86.09 Y125.112 E0.00718
G1 X85.872 Y124.739 E0.00718
G1 X85.593 Y124.407 E0.00721
G1 X85.261 Y124.128 E0.00721
G1 X84.888 Y123.91 E0.00718
G1 X84.484 Y123.757 E0.00718
G1 X84.058 Y123.674 E0.00722
G1 X83.624 Y123.664 E0.00722
G1 X83.307 Y123.712 E0.00533
G1 X83.195 Y123.729 E0.00188
G1 X82.784 Y123.865 E0.0072
G1 X82.379 Y124.085 E0.00766
G1 X82.691 Y123.773 E0.00112
G1 X82.964 Y123.5 E0.00401
G1 X83.044 Y123.42 E0.00171
G1 X123.47 Y82.994 E0.95076
G1 X123.716 Y82.748 E0.00452
G1 X123.998 Y82.466 E0.00239
G0 F3600 X124.4 Y82.724
G1 F1800 X124.247 Y83.044 E0.0059
G1 X124.149 Y83.388 E0.00595
G1 X124.112 Y83.743 E0.00594
G1 X124.134 Y84.098 E0.00591
G1 X124.217 Y84.445 E0.00593
G1 X124.356 Y84.772 E0.00591
G1 X124.549 Y85.072 E0.00593
G1 X124.792 Y85.336 E0.00597
G1 X125.073 Y85.553 E0.0059
G1 X125.388 Y85.72 E0.00593
G1 X125.726 Y85.832 E0.00592
G1 X126.079 Y85.885 E0.00594
G1 X126.435 Y85.877 E0.00592
G1 X126.786 Y85.809 E0.00595
G1 X127.12 Y85.683 E0.00594
G1 X127.427 Y85.503 E0.00592
G1 X127.7 Y85.273 E0.00594
G1 X127.93 Y85.001 E0.00592
G1 X128.111 Y84.693 E0.00594
G1 X128.235 Y84.36 E0.00591
G1 X128.304 Y84.01 E0.00593
G1 X128.311 Y83.651 E0.00597
G1 X128.258 Y83.302 E0.00587
G1 X128.148 Y82.964 E0.00591
G1 X127.98 Y82.646 E0.00598
G1 X127.761 Y82.364 E0.00594
G1 X127.499 Y82.123 E0.00592
G1 X127.199 Y81.931 E0.00592
G1 X126.872 Y81.79 E0.00592
G1 X126.524 Y81.707 E0.00595
G1 X126.168 Y81.685 E0.00593
G1 X125.814 Y81.723 E0.00592
G1 X125.471 Y81.819 E0.00592
G1 X125.148 Y81.974 E0.00596
G1 X124.858 Y82.18 E0.00592
G1 X124.606 Y82.432 E0.00593
G1 X124.4 Y82.724 E0.00594
G0 F3600 X124.314 Y82.674
G0 X124.209 Y81.829
G0 X124.142 Y81.756
G1 F1800 X124.511 Y81.44 E0.00808
G1 X124.894 Y81.206 E0.00746
G1 X125.322 Y81.029 E0.0077
G1 X125.758 Y80.925 E0.00745
G1 X126.213 Y80.889 E0.00759
G1 X126.669 Y80.925 E0.00761
G1 X127.102 Y81.028 E0.0074
G1 X127.534 Y81.207 E0.00778
G1 X127.915 Y81.44 E0.00743
G1 X128.261 Y81.737 E0.00758
G1 X128.56 Y82.085 E0.00763
G1 X128.795 Y82.47 E0.0075
G1 X128.971 Y82.893 E0.00762
G1 X129.075 Y83.331 E0.00749
G1 X129.111 Y83.787 E0.00761
G1 X129.075 Y84.242 E0.00759
G1 X128.971 Y84.678 E0.00745
G1 X128.794 Y85.106 E0.0077
G1 X128.56 Y85.489 E0.00746
G1 X128.244 Y85.858 E0.00808
G1 X85.86 Y128.242 E0.99681
G1 X85.489 Y128.56 E0.00813
G1 X85.106 Y128.794 E0.00746
G1 X84.678 Y128.971 E0.0077
G1 X84.242 Y129.075 E0.00745
G1 X83.787 Y129.111 E0.00759
G1 X83.331 Y129.075 E0.00761
G1 X82.898 Y128.972 E0.0074
G1 X82.466 Y128.793 E0.00778
G1 X82.085 Y128.56 E0.00743
G1 X81.738 Y128.262 E0.00761
G1 X81.44 Y127.915 E0.00761
G1 X81.207 Y127.534 E0.00743
G1 X81.028 Y127.102 E0.00778
G1 X80.925 Y126.669 E0.0074
G1 X80.889 Y126.213 E0.00761
G1 X80.925 Y125.758 E0.00759
G1 X81.029 Y125.322 E0.00745
G1 X81.206 Y124.894 E0.0077
G1 X81.44 Y124.511 E0.00746
G1 X81.756 Y124.142 E0.00808
G1 X124.142 Y81.756 E0.99685
G0 F3600 X124.209 Y81.829
G0 X85.379 Y124.621
G0 X85.309 Y124.691
G1 F1800 X85.03 Y124.456 E0.00607
G1 X84.715 Y124.272 E0.00607
G1 X84.374 Y124.143 E0.00606
G1 X84.015 Y124.073 E0.00608
G1 X83.649 Y124.065 E0.00609
G1 X83.288 Y124.119 E0.00607
G1 X82.942 Y124.234 E0.00606
G1 X82.619 Y124.405 E0.00608
G1 X82.331 Y124.628 E0.00606
G1 X82.083 Y124.897 E0.00608
G1 X81.886 Y125.204 E0.00607
G1 X81.743 Y125.539 E0.00606
G1 X81.659 Y125.894 E0.00607
G1 X81.635 Y126.258 E0.00607
G1 X81.674 Y126.623 E0.0061
G1 X81.773 Y126.973 E0.00605
G1 X81.931 Y127.303 E0.00608
G1 X82.142 Y127.601 E0.00607
G1 X82.399 Y127.858 E0.00604
G1 X82.697 Y128.069 E0.00607
G1 X83.027 Y128.227 E0.00608
G1 X83.377 Y128.326 E0.00605
G1 X83.742 Y128.365 E0.0061
G1 X84.106 Y128.341 E0.00607
G1 X84.461 Y128.257 E0.00607
G1 X84.796 Y128.114 E0.00606
G1 X85.103 Y127.917 E0.00607
G1 X85.372 Y127.669 E0.00608
G1 X85.595 Y127.381 E0.00606
G1 X85.766 Y127.058 E0.00608
G1 X85.881 Y126.712 E0.00606
G1 X85.935 Y126.351 E0.00607
G1 X85.927 Y125.985 E0.00609
G1 X85.857 Y125.626 E0.00608
G1 X85.728 Y125.285 E0.00606
G1 X85.544 Y124.97 E0.00607
G1 X85.309 Y124.691 E0.00607
G0 F3600 X85.379 Y124.621
G0 X84.732 Y124.236
G0 X84.019 Y124.034
G0 X83.224 Y124.035
G0 X83.381 Y124.51
;TYPE:WALL-OUTER
G1 F1800 X83.099 Y124.603 E0.00494
G1 X82.837 Y124.742 E0.00493
G1 X82.602 Y124.924 E0.00494
G1 X82.401 Y125.142 E0.00493
G1 X82.241 Y125.392 E0.00494
G1 X82.124 Y125.665 E0.00494
G1 X82.056 Y125.954 E0.00494
G1 X82.036 Y126.25 E0.00493
G1 X82.068 Y126.546 E0.00495
G1 X82.149 Y126.831 E0.00493
G1 X82.277 Y127.1 E0.00495
G1 X82.449 Y127.342 E0.00494
G1 X82.658 Y127.551 E0.00492
G1 X82.9 Y127.723 E0.00494
G1 X83.169 Y127.851 E0.00495
G1 X83.454 Y127.932 E0.00493
G1 X83.75 Y127.964 E0.00495
G1 X84.046 Y127.944 E0.00493
G1 X84.335 Y127.876 E0.00494
G1 X84.608 Y127.759 E0.00494
G1 X84.858 Y127.599 E0.00494
G1 X85.076 Y127.398 E0.00493
G1 X85.258 Y127.163 E0.00494
G1 X85.397 Y126.901 E0.00493
G1 X85.49 Y126.619 E0.00494
G1 X85.534 Y126.325 E0.00494
G1 X85.528 Y126.028 E0.00494
G1 X85.471 Y125.736 E0.00495
G1 X85.366 Y125.458 E0.00494
G1 X85.216 Y125.202 E0.00493
G1 X85.025 Y124.975 E0.00493
G1 X84.798 Y124.784 E0.00493
G1 X84.542 Y124.634 E0.00493
G1 X84.264 Y124.529 E0.00494
G1 X83.972 Y124.472 E0.00495
G1 X83.675 Y124.466 E0.00494
G1 X83.381 Y124.51 E0.00494
G0 F3600 X83.191 Y124.572
G0 X83.034 Y124.098
G0 X124.833 Y82.15
G0 X125.457 Y81.782
G0 X125.838 Y81.62
G0 X125.89 Y82.117
G1 F1800 X125.613 Y82.195 E0.00479
G1 X125.352 Y82.32 E0.00481
G1 X125.117 Y82.487 E0.00479
G1 X124.913 Y82.691 E0.0048
G1 X124.746 Y82.927 E0.00481
G1 X124.622 Y83.186 E0.00478
G1 X124.543 Y83.464 E0.00481
G1 X124.513 Y83.751 E0.0048
G1 X124.531 Y84.039 E0.0048
G1 X124.598 Y84.319 E0.00479
G1 X124.711 Y84.584 E0.00479
G1 X124.867 Y84.827 E0.0048
G1 X125.063 Y85.04 E0.00481
G1 X125.291 Y85.216 E0.00479
G1 X125.545 Y85.351 E0.00478
G1 X125.819 Y85.441 E0.0048
G1 X126.105 Y85.484 E0.00481
G1 X126.393 Y85.478 E0.00479
G1 X126.677 Y85.423 E0.00481
G1 X126.947 Y85.321 E0.0048
G1 X127.195 Y85.175 E0.00479
G1 X127.416 Y84.989 E0.0048
G1 X127.602 Y84.769 E0.00479
G1 X127.748 Y84.52 E0.0048
G1 X127.849 Y84.25 E0.00479
G1 X127.905 Y83.967 E0.0048
G1 X127.91 Y83.678 E0.00481
G1 X127.867 Y83.394 E0.00478
G1 X127.778 Y83.12 E0.00479
G1 X127.643 Y82.864 E0.00481
G1 X127.466 Y82.636 E0.0048
G1 X127.254 Y82.441 E0.00479
G1 X127.011 Y82.285 E0.0048
G1 X126.746 Y82.171 E0.0048
G1 X126.465 Y82.104 E0.0048
G1 X126.177 Y82.086 E0.0048
G1 X125.89 Y82.117 E0.0048
G0 F3600 X125.697 Y82.171
G0 X125.564 Y81.689
G0 X126.654 Y81.023
G0 X126.73 Y80.528
G1 F1800 X127.228 Y80.647 E0.00851
G1 X127.714 Y80.848 E0.00875
G1 X128.151 Y81.116 E0.00853
G1 X128.545 Y81.453 E0.00862
G1 X128.884 Y81.849 E0.00867
G1 X129.151 Y82.285 E0.0085
G1 X129.353 Y82.772 E0.00877
G1 X129.472 Y83.27 E0.00851
G1 X129.513 Y83.787 E0.00862
G1 X129.472 Y84.303 E0.00861
G1 X129.352 Y84.804 E0.00857
G1 X129.153 Y85.286 E0.00867
G1 X128.884 Y85.725 E0.00856
G1 X128.536 Y86.132 E0.00891
G1 X86.132 Y128.536 E0.99728
G1 X85.725 Y128.884 E0.00891
G1 X85.286 Y129.153 E0.00856
G1 X84.804 Y129.352 E0.00867
G1 X84.303 Y129.472 E0.00857
G1 X83.787 Y129.513 E0.00861
G1 X83.27 Y129.472 E0.00862
G1 X82.772 Y129.353 E0.00851
G1 X82.286 Y129.152 E0.00875
G1 X81.849 Y128.884 E0.00853
G1 X81.454 Y128.546 E0.00865
G1 X81.116 Y128.151 E0.00865
G1 X80.848 Y127.714 E0.00853
G1 X80.647 Y127.228 E0.00875
G1 X80.528 Y126.73 E0.00851
G1 X80.487 Y126.213 E0.00862
G1 X80.528 Y125.697 E0.00861
G1 X80.648 Y125.196 E0.00857
G1 X80.847 Y124.714 E0.00867
G1 X81.116 Y124.275 E0.00856
G1 X81.464 Y123.868 E0.00891
G1 X123.868 Y81.464 E0.99728
G1 X124.275 Y81.116 E0.00891
G1 X124.714 Y80.847 E0.00856
G1 X125.196 Y80.648 E0.00867
G1 X125.697 Y80.528 E0.00857
G1 X126.213 Y80.487 E0.00861
G1 X126.73 Y80.528 E0.00862
G0 F3600 X126.924 Y80.574
G0 X126.807 Y81.06
G0 X125.128 Y81.94
G0 X124.576 Y82.407
G0 X123.31 Y83.718
;TYPE:WALL-INNER
G1 F1800 X123.339 Y84.217 E0.00831
G1 X123.454 Y84.697 E0.00821
G1 X123.647 Y85.148 E0.00816
G1 X123.913 Y85.563 E0.0082
G1 X124.249 Y85.928 E0.00825
G1 X124.638 Y86.228 E0.00817
G1 X125.072 Y86.459 E0.00818
G1 X125.539 Y86.612 E0.00817
G1 X126.028 Y86.686 E0.00822
G1 X126.291 Y86.681 E0.00437
G1 X86.733 Y126.239 E0.93034
G1 X86.726 Y125.898 E0.00567
G1 X86.629 Y125.406 E0.00834
G1 X86.452 Y124.94 E0.00829
G1 X86.2 Y124.507 E0.00833
G1 X85.877 Y124.123 E0.00834
G1 X85.493 Y123.8 E0.00834
G1 X85.06 Y123.548 E0.00833
G1 X84.594 Y123.371 E0.00829
G1 X84.102 Y123.274 E0.00834
G1 X83.761 Y123.267 E0.00567
G1 X123.31 Y83.718 E0.93013
G0 F3600 X125.592 Y87.126
;TYPE:SKIN
G1 F1800 X125.137 Y86.67 E0.01071
G0 F3600 X125.309 Y87.409
G1 F1800 X122.591 Y84.69 E0.06393
G1 X122.521 Y84.62
G0 F3600 X122.873 Y84.407
G1 F1800 X123.327 Y84.861 E0.01068
G0 F3600 X122.308 Y84.973
G1 F1800 X125.027 Y87.691 E0.06393
G1 X125.097 Y87.761
G0 F3600 X124.744 Y87.974
G1 F1800 X122.025 Y85.255 E0.06395
G1 X121.955 Y85.185
G0 F3600 X121.742 Y85.538
G1 F1800 X124.461 Y88.257 E0.06395
G1 X124.531 Y88.327
G0 F3600 X124.178 Y88.54
G1 F1800 X121.459 Y85.821 E0.06395
G1 X121.389 Y85.751
G0 F3600 X121.176 Y86.104
G1 F1800 X123.895 Y88.823 E0.06395
G1 X123.965 Y88.893
G0 F3600 X123.612 Y89.106
G1 F1800 X120.894 Y86.387 E0.06393
G1 X120.824 Y86.317
G0 F3600 X120.611 Y86.67
G1 F1800 X123.33 Y89.388 E0.06393
G1 X123.4 Y89.458
G0 F3600 X123.047 Y89.671
G1 F1800 X120.328 Y86.952 E0.06395
G1 X120.258 Y86.882
G0 F3600 X120.045 Y87.235
G1 F1800 X122.764 Y89.954 E0.06395
G1 X122.834 Y90.024
G0 F3600 X122.481 Y90.237
G1 F1800 X119.762 Y87.518 E0.06395
G1 X119.692 Y87.448
G0 F3600 X119.479 Y87.801
G1 F1800 X122.198 Y90.52 E0.06395
G1 X122.268 Y90.59
G0 F3600 X121.915 Y90.803
G1 F1800 X119.196 Y88.084 E0.06395
G1 X119.126 Y88.014
G0 F3600 X118.914 Y88.367
G1 F1800 X121.632 Y91.085 E0.06392
G1 X121.702 Y91.155
G0 F3600 X121.35 Y91.368
G1 F1800 X118.631 Y88.649 E0.06395
G1 X118.561 Y88.579
G0 F3600 X118.348 Y88.932
